!!!COM: Haydn, Franz Joseph
!!!OPR: Symphony in C Major
!!!OTL: Affettuoso 
!!!OMV: 1
!!!SCT: H I:97
!!!SCA: Thematisch-bibliographisches Werkevererzeichnis (A. van Hoboken)
!!!YOR: Dover Edition
!!!EED: Frances Bennion
!!!ENC: Frances Bennion
!!!CDT: 1732/3/31/-1809/5/31/
!!!OCY: Österreich
!!!YEC: Copyright (c) 1994, 2000 Center for Computer Assisted Research in the Humanities
!!!YEM: Rights to all derivative editions reserved.
!!!YEM: Refer to licensing agreement for further details.
!!!YEN: United States of America
**kern	**kern	**kern	**kern	**kern	**kern	**kern	**kern	**kern	**kern	**kern	**kern	**kern	**kern	**kern	**kern
*k[]	*k[]	*k[]	*k[]	*k[]	*k[]	*k[]	*k[]	*k[]	*k[]	*k[]	*k[]	*k[]	*k[]	*k[]	*k[]
*C:	*C:	*C:	*C:	*C:	*C:	*C:	*C:	*C:	*C:	*C:	*C:	*C:	*C:	*C:	*C:
*clefF	*clefF	*clefF4	*clefF	*clefF	*clefC3	*clefF4	*clefF4	*clefF	*clefF	*clefF	*clefF4	*clefF4	*clefF	*clefF	*clefF
*M3/4	*M3/4	*M3/4	*M3/4	*M3/4	*M3/4	*M3/4	*M3/4	*M3/4	*M3/4	*M3/4	*M3/4	*M3/4	*M3/4	*M3/4	*M3/4
*tb48	*tb48	*tb48	*tb48	*tb48	*tb48	*tb48	*tb48	*tb48	*tb48	*tb48	*tb48	*tb48	*tb48	*tb48	*tb48
=1	=1	=1	=1	=1	=1	=1	=1	=1	=1	=1	=1	=1	=1	=1	=1
4ccc	4c	4C	4c	8c	4c	4C	4C	4ccc	4cc	4cc	4C	4C	4cc	4c	4cc
.	.	.	.	8c	.	.	.	.	.	.	.	.	.	.	.
2r	2r	2r	2r	8c	2r	2r	2r	2r	2r	2r	2r	2r	2r	2r	2r
.	.	.	.	8c	.	.	.	.	.	.	.	.	.	.	.
.	.	.	.	8c	.	.	.	.	.	.	.	.	.	.	.
.	.	.	.	8c	.	.	.	.	.	.	.	.	.	.	.
=2	=2	=2	=2	=2	=2	=2	=2	=2	=2	=2	=2	=2	=2	=2	=2
2.r	2.r	2.r	4.a	8c 8e-	4F#	8F#	8F#	2.r	2.r	2.r	2.r	2.r	2.r	2.r	2.r
.	.	.	.	8c 8e-	.	8F#	8F#	.	.	.	.	.	.	.	.
.	.	.	.	8e- 8c	2r	8F#	8F#	.	.	.	.	.	.	.	.
.	.	.	8a	8e- 8c	.	8F#	8F#	.	.	.	.	.	.	.	.
.	.	.	8b	8e- 8c	.	8F#	8F#	.	.	.	.	.	.	.	.
.	.	.	8cc	8e- 8c	.	8F#	8F#	.	.	.	.	.	.	.	.
=3	=3	=3	=3	=3	=3	=3	=3	=3	=3	=3	=3	=3	=3	=3	=3
2.r	2.r	2.r	4.g	8e 8c	4G	8G	8G	2.r	2.r	2.r	2.r	2.r	2.r	2.r	2.r
.	.	.	.	8e 8c	.	8G	8G	.	.	.	.	.	.	.	.
.	.	.	.	8d 8c	4r	8G	8G	.	.	.	.	.	.	.	.
.	.	.	16a	8d 8c	.	8G	8G	.	.	.	.	.	.	.	.
.	.	.	16g	.	.	.	.	.	.	.	.	.	.	.	.
.	.	.	8f	8d 8B	8.G	8G	8G	.	.	.	.	.	.	.	.
.	.	.	16e	8d 8B	.	8G	8G	.	.	.	.	.	.	.	.
.	.	.	16d	.	16F	.	.	.	.	.	.	.	.	.	.
=4	=4	=4	=4	=4	=4	=4	=4	=4	=4	=4	=4	=4	=4	=4	=4
2.r	2.r	2.r	4c	4c	4E	8C	4C	2.r	2.r	2.r	2.r	2.r	2.r	2.r	2.r
.	.	.	.	.	.	8c	.	.	.	.	.	.	.	.	.
.	.	.	2r	2r	2r	8c	2r	.	.	.	.	.	.	.	.
.	.	.	.	.	.	8c	.	.	.	.	.	.	.	.	.
.	.	.	.	.	.	8c	.	.	.	.	.	.	.	.	.
.	.	.	.	.	.	8c	.	.	.	.	.	.	.	.	.
=5	=5	=5	=5	=5	=5	=5	=5	=5	=5	=5	=5	=5	=5	=5	=5
[6..dd	2.r	2.r	[6..dd	8f 8d	4d 4B	8C	4C	2.r	2.b	2.r	2.r	2.r	2.r	2.r	2.r
.	.	.	.	8f 8d	.	8c	.	.	.	.	.	.	.	.	.
.	.	.	.	8f 8d	2r	8c	2r	.	.	.	.	.	.	.	.
48dd]	.	.	48dd]	.	.	.	.	.	.	.	.	.	.	.	.
16ee	.	.	16ee	.	.	.	.	.	.	.	.	.	.	.	.
16ff	.	.	16ff	8f 8d	.	8c	.	.	.	.	.	.	.	.	.
16ff#	.	.	16ff#	.	.	.	.	.	.	.	.	.	.	.	.
16gg	.	.	16gg	8f 8d	.	8c	.	.	.	.	.	.	.	.	.
16gg#	.	.	16gg#	.	.	.	.	.	.	.	.	.	.	.	.
16aa	.	.	16aa	8f 8d	.	8c	.	.	.	.	.	.	.	.	.
16b	.	.	16b	.	.	.	.	.	.	.	.	.	.	.	.
=6	=6	=6	=6	=6	=6	=6	=6	=6	=6	=6	=6	=6	=6	=6	=6
8cc	2.r	2.r	8cc	8e	4e 4c	8c	2.r	2.r	8cc	2.r	2.r	2.r	2.r	2.r	2.r
16b	.	.	16b	8e	.	8c	.	.	16b	.	.	.	.	.	.
16a	.	.	16a	.	.	.	.	.	16a	.	.	.	.	.	.
[6..g	.	.	[6..g	8e	2r	8c	.	.	8g	.	.	.	.	.	.
.	.	.	.	8e	.	8c	.	.	4.r	.	.	.	.	.	.
.	.	.	.	8e	.	8c	.	.	.	.	.	.	.	.	.
48g]	.	.	48g]	.	.	.	.	.	.	.	.	.	.	.	.
16cc	.	.	16cc	.	.	.	.	.	.	.	.	.	.	.	.
16ee	.	.	16ee	8e	.	8c	.	.	.	.	.	.	.	.	.
16cc	.	.	16cc	.	.	.	.	.	.	.	.	.	.	.	.
=7	=7	=7	=7	=7	=7	=7	=7	=7	=7	=7	=7	=7	=7	=7	=7
8.b	2.r	2.r	8.b	8f 8d	4B 4d	8C	4C	2.r	2.b	2.r	2.r	2.r	2.r	2.r	2.r
.	.	.	.	8f 8d	.	8c	.	.	.	.	.	.	.	.	.
16cc	.	.	16cc	.	.	.	.	.	.	.	.	.	.	.	.
16dd	.	.	16dd	8f 8d	2r	8c	2r	.	.	.	.	.	.	.	.
16ee	.	.	16ee	.	.	.	.	.	.	.	.	.	.	.	.
16ff	.	.	16ff	8f 8d	.	8c	.	.	.	.	.	.	.	.	.
16ff#	.	.	16ff#	.	.	.	.	.	.	.	.	.	.	.	.
16gg	.	.	16gg	8f 8d	.	8c	.	.	.	.	.	.	.	.	.
16gg#	.	.	16gg#	.	.	.	.	.	.	.	.	.	.	.	.
16aa	.	.	16aa	8f 8d	.	8c	.	.	.	.	.	.	.	.	.
16bb	.	.	16bb	.	.	.	.	.	.	.	.	.	.	.	.
=8	=8	=8	=8	=8	=8	=8	=8	=8	=8	=8	=8	=8	=8	=8	=8
8.ccc	2.r	2.r	8.ccc	8e	8g	8c	2.r	2.r	4cc	2.r	2.r	2.r	2.r	2.r	2.r
.	.	.	.	8e	8g	8c	.	.	.	.	.	.	.	.	.
16aa	.	.	16aa	.	.	.	.	.	.	.	.	.	.	.	.
8.ee	.	.	8.ee	8e	8a	8c	.	.	2r	.	.	.	.	.	.
.	.	.	.	8e	8a	8c	.	.	.	.	.	.	.	.	.
16ff#	.	.	16ff#	.	.	.	.	.	.	.	.	.	.	.	.
8.ff#	.	.	8.ff#	8c	8D	8A	.	.	.	.	.	.	.	.	.
.	.	.	.	8c	8D	8A	.	.	.	.	.	.	.	.	.
32ee	.	.	32ee	.	.	.	.	.	.	.	.	.	.	.	.
32ff#	.	.	32ff#	.	.	.	.	.	.	.	.	.	.	.	.
=9	=9	=9	=9	=9	=9	=9	=9	=9	=9	=9	=9	=9	=9	=9	=9
4gg	2.r	2.r	4gg	8c	8G	4G	4G	2.r	2.r	2.r	2.r	2.r	2.r	2.r	2.r
.	.	.	.	8B	8G	.	.	.	.	.	.	.	.	.	.
2r	.	.	2r	8g	8g	2r	2r	.	.	.	.	.	.	.	.
.	.	.	.	8g	8g	.	.	.	.	.	.	.	.	.	.
.	.	.	.	8g	8g	.	.	.	.	.	.	.	.	.	.
.	.	.	.	8g	8g	.	.	.	.	.	.	.	.	.	.
=10	=10	=10	=10	=10	=10	=10	=10	=10	=10	=10	=10	=10	=10	=10	=10
4cc#	2.r	2.r	4cc#	8b-	8g	8e	2.r	2.r	2.r	2.r	2.r	2.r	2.r	2.r	2.r
.	.	.	.	8b-	8g	8e	.	.	.	.	.	.	.	.	.
[6..dd	.	.	[6..dd	8a	8f	8f	.	.	.	.	.	.	.	.	.
.	.	.	.	8a	8f	8f	.	.	.	.	.	.	.	.	.
.	.	.	.	8a	8f	8f	.	.	.	.	.	.	.	.	.
48dd]	.	.	48dd]	.	.	.	.	.	.	.	.	.	.	.	.
16dd	.	.	16dd	.	.	.	.	.	.	.	.	.	.	.	.
16ee	.	.	16ee	8a	8f	8f	.	.	.	.	.	.	.	.	.
16ff	.	.	16ff	.	.	.	.	.	.	.	.	.	.	.	.
=11	=11	=11	=11	=11	=11	=11	=11	=11	=11	=11	=11	=11	=11	=11	=11
4b	2.r	2.r	4b	8a-	8f	8d	2.r	2.r	2.r	2.r	2.r	2.r	2.r	2.r	2.r
.	.	.	.	8a-	8f	8d	.	.	.	.	.	.	.	.	.
[6..cc	.	.	[6..cc	8g	8e	8e	.	.	.	.	.	.	.	.	.
.	.	.	.	8g	8e	8e	.	.	.	.	.	.	.	.	.
.	.	.	.	8g	8e	8e	.	.	.	.	.	.	.	.	.
48cc]	.	.	48cc]	.	.	.	.	.	.	.	.	.	.	.	.
16gg	.	.	16gg	.	.	.	.	.	.	.	.	.	.	.	.
16ee	.	.	16ee	8g	8e	8e	.	.	.	.	.	.	.	.	.
16cc	.	.	16cc	.	.	.	.	.	.	.	.	.	.	.	.
=12	=12	=12	=12	=12	=12	=12	=12	=12	=12	=12	=12	=12	=12	=12	=12
4.a	2.r	2.r	4.a	8e- 8c	4e- 4c	8F#	8F#	2.r	2.r	2.r	2.r	2.r	2.r	2.r	2.r
.	.	.	.	8e- 8c	.	8F#	8F#	.	.	.	.	.	.	.	.
.	.	.	.	8e- 8c	2r	8F#	8F#	.	.	.	.	.	.	.	.
8a	.	.	8a	8e- 8c	.	8F#	8F#	.	.	.	.	.	.	.	.
8b	.	.	8b	8e- 8c	.	8F#	8F#	.	.	.	.	.	.	.	.
8cc	.	.	8cc	8e- 8c	.	8F#	8F#	.	.	.	.	.	.	.	.
=13	=13	=13	=13	=13	=13	=13	=13	=13	=13	=13	=13	=13	=13	=13	=13
4.g	2.r	2.r	4.g	8e 8c	4G	8G	8G	2.r	2.r	2.r	2.r	2.r	2.r	2.r	2.r
.	.	.	.	8e 8c	.	8G	8G	.	.	.	.	.	.	.	.
.	.	.	.	8d 8c	4r	8G	8G	.	.	.	.	.	.	.	.
16a	.	.	16a	8c 8d	.	8G	8G	.	.	.	.	.	.	.	.
16g	.	.	16g	.	.	.	.	.	.	.	.	.	.	.	.
8f	.	.	8f	8B 8d	4G	8G	8G	.	.	.	.	.	.	.	.
16e	.	.	16e	8B 8d	.	8G	8G	.	.	.	.	.	.	.	.
16d	.	.	16d	.	.	.	.	.	.	.	.	.	.	.	.
=14	=14	=14	=14	=14	=14	=14	=14	=14	=14	=14	=14	=14	=14	=14	=14
2.ccc	2.cc	4C	2.cc	2.cc	2.cc	2.c	2.c	2.ccc	2.ccc	2.ccc	2.c	2.c	2.cc	2.cc	2.cc
.	.	2r	.	.	.	.	.	.	.	.	.	.	.	.	.
=15	=15	=15	=15	=15	=15	=15	=15	=15	=15	=15	=15	=15	=15	=15	=15
2gg	2g	4GG	2g	2g	2g	2G	2G	2gg	2gg	2gg	2G	2G	2gg	2gg	2g
.	.	2r	.	.	.	.	.	.	.	.	.	.	.	.	.
4ee	4e	.	4e	4e	4e	4E	4E	4ee	4ee	4ee	4E	4E	4ee	4ee	4e
=16	=16	=16	=16	=16	=16	=16	=16	=16	=16	=16	=16	=16	=16	=16	=16
4cc	4c	4C	4c	4c	4c	4C	4C	4cc	4cc	4cc	4C	4C	4cc	4cc	4c
4r	4r	4r	4r	4r	4r	4r	4r	4r	4r	4r	4r	4r	4r	4r	4r
4g	4G	4GG	4G	4G	4G	4GG	4GG	4g	4g	4g	4GG	4GG	4g	4g	4g
=17	=17	=17	=17	=17	=17	=17	=17	=17	=17	=17	=17	=17	=17	=17	=17
4cc	4c	4C	4c	4c	4c	4C	4C	4cc	4cc	4cc	4C	4C	4cc	4c	4cc
4r	4r	4r	4r	4r	4r	4r	4r	4r	4r	4r	4r	4r	4r	4r	4r
8.g	8.G	8.GG	8.G	8.G	8.G	8.GG	8.GG	8.g	8.g	8.g	8.GG	8.GG	8.g	8.G	8.g
16g	16G	16GG	16G	16G	16G	16GG	16GG	16g	16g	16g	16GG	16GG	16g	16G	16g
=18	=18	=18	=18	=18	=18	=18	=18	=18	=18	=18	=18	=18	=18	=18	=18
4cc	4c	4C	4c	4c	4c	4C	4C	4cc	4cc	4cc	4C	4C	4cc	4c	4cc
4r	4r	4r	4r	4r	4r	4r	4r	4r	4r	4r	4r	4r	4r	4r	4r
8.g	8.G	8.GG	8.G	8.G	8.G	8.GG	8.GG	8.g	8.g	8.g	8.GG	8.GG	8.g	8.G	8.g
16g	16G	16GG	16G	16G	16G	16GG	16GG	16g	16g	16g	16GG	16GG	16g	16G	16g
=19	=19	=19	=19	=19	=19	=19	=19	=19	=19	=19	=19	=19	=19	=19	=19
8cc	8c	8C	8c	8c	8c	8C	8C	8cc	8cc	8cc	8C	8C	8cc	8c	8cc
8g	8G	8GG	8G	8G	8G	8GG	8GG	8g	8g	8g	8GG	8GG	8g	8G	8g
8cc	8c	8C	8c	8c	8c	8C	8C	8cc	8cc	8cc	8C	8C	8cc	8c	8cc
8g	8G	8GG	8G	8G	8G	8GG	8GG	8g	8g	8g	8GG	8GG	8g	8G	8g
8cc	8c	8C	8c	8c	8c	8C	8C	8cc	8cc	8cc	8C	8C	8cc	8c	8cc
8g	8G	8GG	8G	8G	8G	8GG	8GG	8g	8g	8g	8GG	8GG	8g	8G	8g
=20	=20	=20	=20	=20	=20	=20	=20	=20	=20	=20	=20	=20	=20	=20	=20
8cc	8c	8C	8c	8c	8c	8C	8C	8cc	8cc	8cc	8C	8C	8cc	8c	8cc
8g	8G	8GG	8G	8G	8G	8GG	8GG	8g	8g	8g	8GG	8GG	8g	8G	8g
8cc	8c	8C	8c	8c	8c	8C	8C	8cc	8cc	8cc	8C	8C	8cc	8c	8cc
8g	8G	8GG	8G	8G	8G	8GG	8GG	8g	8g	8g	8GG	8GG	8g	8G	8g
8cc	8c	8C	8c	8c	8c	8C	8C	8cc	8cc	8cc	8C	8C	8cc	8c	8cc
8g	8G	8GG	8G	8G	8G	8GG	8GG	8g	8g	8g	8GG	8GG	8g	8G	8g
=21	=21	=21	=21	=21	=21	=21	=21	=21	=21	=21	=21	=21	=21	=21	=21
4cc	[2.c	8C	4c	4c	8c	8C	8C	4cc	4cc	4cc	2.C	2.C	2.cc	[2.c	[2.cc
.	.	8C	.	.	8c	8C	8C	.	.	.	.	.	.	.	.
4ee	.	8C	4e	4e	8c	8C	8C	4ee	4ee	4ee	.	.	.	.	.
.	.	8C	.	.	8c	8C	8C	.	.	.	.	.	.	.	.
4gg	.	8C	4g	4g	8c	8C	8C	4gg	4gg	4gg	.	.	.	.	.
.	.	8C	.	.	8c	8C	8C	.	.	.	.	.	.	.	.
=22	=22	=22	=22	=22	=22	=22	=22	=22	=22	=22	=22	=22	=22	=22	=22
2.ccc	2.c]	8C	4cc	2.cc	8c	8EE	8EE	2.ccc	[2.gg	2.cc	2.E	2.E	2.gg	2.c]	2.cc]
.	.	8C	.	.	8c	8EE	8EE	.	.	.	.	.	.	.	.
.	.	8C	4ee	.	8c	8EE	8EE	.	.	.	.	.	.	.	.
.	.	8C	.	.	8c	8EE	8EE	.	.	.	.	.	.	.	.
.	.	8C	4gg	.	8c	8EE	8EE	.	.	.	.	.	.	.	.
.	.	8C	.	.	8c	8EE	8EE	.	.	.	.	.	.	.	.
=23	=23	=23	=23	=23	=23	=23	=23	=23	=23	=23	=23	=23	=23	=23	=23
2.aa	4c	4C	4gg	4a	4c	4FF	4FF	2.aa	4gg]	2.aa	2.F	2.F	4cc	4c	4cc
.	2r	2r	8ff	2r	2r	2r	2r	.	8ff	.	.	.	2r	2r	2r
.	.	.	8ee	.	.	.	.	.	8ee	.	.	.	.	.	.
.	.	.	8dd	.	.	.	.	.	8dd	.	.	.	.	.	.
.	.	.	8cc	.	.	.	.	.	8cc	.	.	.	.	.	.
=24	=24	=24	=24	=24	=24	=24	=24	=24	=24	=24	=24	=24	=24	=24	=24
4dd	4g	4GG	4b 4d	4f 4G	4G	4GG	4GG	4dd	4b	4ff	2.G	2.G	4dd	4g	4dd
4dd	4g	4GG	4b 4d	4f 4G	4G	4GG	4GG	4dd	4b	4ff	.	.	4dd	4g	4dd
4dd	4g	4GG	4b 4d	4f 4G	4G	4GG	4GG	4dd	4b	4ff	.	.	4dd	4g	4dd
=25	=25	=25	=25	=25	=25	=25	=25	=25	=25	=25	=25	=25	=25	=25	=25
4ee	4cc	4C	4e 4cc	4G 4e	4c	4C	4C	4ee	4cc	4ee	4C	4C	4ee	4cc	4ee
2r	2r	2r	2r	2r	2r	2r	2r	2r	8aa	2r	2r	2r	2r	2r	2r
.	.	.	.	.	.	.	.	.	8gg	.	.	.	.	.	.
.	.	.	.	.	.	.	.	.	8ff	.	.	.	.	.	.
.	.	.	.	.	.	.	.	.	8ee	.	.	.	.	.	.
=26	=26	=26	=26	=26	=26	=26	=26	=26	=26	=26	=26	=26	=26	=26	=26
2.r	2.r	2.r	2.r	2.r	2.r	2.r	2.r	2.r	4dd	4b	4g	2.r	2.r	2.r	2.r
.	.	.	.	.	.	.	.	.	4dd	4b	4g	.	.	.	.
.	.	.	.	.	.	.	.	.	4dd	4b	4g	.	.	.	.
=27	=27	=27	=27	=27	=27	=27	=27	=27	=27	=27	=27	=27	=27	=27	=27
2.r	2.r	2.r	4r	2.r	2.r	2.r	2.r	2.r	4ee	4cc	4c	2.r	2.r	2.r	2.r
.	.	.	8ff	.	.	.	.	.	2r	2r	2r	.	.	.	.
.	.	.	8ee	.	.	.	.	.	.	.	.	.	.	.	.
.	.	.	8dd	.	.	.	.	.	.	.	.	.	.	.	.
.	.	.	8cc	.	.	.	.	.	.	.	.	.	.	.	.
=28	=28	=28	=28	=28	=28	=28	=28	=28	=28	=28	=28	=28	=28	=28	=28
2.r	2.r	2.r	4b	4f	4d	4G	4G	2.r	2.r	2.r	2.r	2.r	4dd	4g	2.r
.	.	.	4b	4f	4d	4G	4G	.	.	.	.	.	4dd	4g	.
.	.	.	4b	4f	4d	4G	4G	.	.	.	.	.	4dd	4g	.
=29	=29	=29	=29	=29	=29	=29	=29	=29	=29	=29	=29	=29	=29	=29	=29
2.r	2.r	2.r	4cc	4e	4e	4C	4C	2.r	4r	4r	2.r	2.r	4ee	4cc	2.r
.	.	.	2r	2r	2r	2r	2r	.	8aa	8aa	.	.	2r	2r	.
.	.	.	.	.	.	.	.	.	8gg	8gg	.	.	.	.	.
.	.	.	.	.	.	.	.	.	8ff	8ff	.	.	.	.	.
.	.	.	.	.	.	.	.	.	8ee	8ee	.	.	.	.	.
=30	=30	=30	=30	=30	=30	=30	=30	=30	=30	=30	=30	=30	=30	=30	=30
2.r	2.r	2.r	2.r	2.r	2.r	2.r	2.r	2.r	4dd	4b	4g	2.r	2.r	2.r	2.r
.	.	.	.	.	.	.	.	.	4dd	4b	4g	.	.	.	.
.	.	.	.	.	.	.	.	.	4dd	4b	4g	.	.	.	.
=31	=31	=31	=31	=31	=31	=31	=31	=31	=31	=31	=31	=31	=31	=31	=31
4r	4r	4r	4r	4r	4r	4r	4r	4r	4ee	4cc	4c	4r	4r	4r	4r
8gg	4c	4C	4gg 4cc 4e	4gg 4cc 4e	8e	8E	8E	8gg	2r	2r	8E	8E	4cc	4c	4cc
8ccc	.	.	.	.	8c	8C	8C	8ccc	.	.	8C	8C	.	.	.
8aa	4c	4C	4f 4aa 4cc	4aa 4cc 4f	8f	8F	8F	8aa	.	.	8F	8F	4cc	4c	4cc
8ccc	.	.	.	.	8c	8C	8C	8ccc	.	.	8C	8C	.	.	.
=32	=32	=32	=32	=32	=32	=32	=32	=32	=32	=32	=32	=32	=32	=32	=32
4gg	4c	4C	4e 4cc 4gg	4gg 4cc 4e	8e	8E	8E	4gg	4r	4r	8E	8E	4cc	4c	4cc
.	.	.	.	.	8c	8C	8C	.	.	.	8C	8C	.	.	.
2r	2r	2r	2r	2r	2r	2r	2r	2r	8ccc	8aa	2r	2r	2r	2r	2r
.	.	.	.	.	.	.	.	.	8bb	8gg	.	.	.	.	.
.	.	.	.	.	.	.	.	.	8aa	8ff	.	.	.	.	.
.	.	.	.	.	.	.	.	.	8gg	8ee	.	.	.	.	.
=33	=33	=33	=33	=33	=33	=33	=33	=33	=33	=33	=33	=33	=33	=33	=33
4r	4r	4r	4r	4r	4r	4r	4r	4r	8ff	8dd	4r	4r	4r	4r	4r
.	.	.	.	.	.	.	.	.	8ee	8cc	.	.	.	.	.
8gg	4c	4C	4e 4gg 4cc	4gg 4cc 4e	8e	8E	8E	8gg	2r	2r	8E	8E	4cc	4c	4cc
8ccc	.	.	.	.	8c	8C	8C	8ccc	.	.	8C	8C	.	.	.
8aa	4c	4C	4aa 4f 4cc	4f 4aa 4cc	8f	8F	8F	8aa	.	.	8F	8F	4cc	4c	4cc
8ccc	.	.	.	.	8c	8C	8C	8ccc	.	.	8C	8C	.	.	.
=34	=34	=34	=34	=34	=34	=34	=34	=34	=34	=34	=34	=34	=34	=34	=34
4gg	4c	4C	4e 4gg 4cc	4gg 4e 4cc	8e	8E	8E	4gg	4r	4r	8E	8E	4cc	4c	4cc
.	.	.	.	.	8c	8C	8C	.	.	.	8C	8C	.	.	.
2r	2r	2r	2r	2r	2r	2r	2r	2r	8ccc	8aa	2r	2r	2r	2r	2r
.	.	.	.	.	.	.	.	.	8bb	8gg	.	.	.	.	.
.	.	.	.	.	.	.	.	.	8aa	8ff	.	.	.	.	.
.	.	.	.	.	.	.	.	.	8gg	8ee	.	.	.	.	.
=35	=35	=35	=35	=35	=35	=35	=35	=35	=35	=35	=35	=35	=35	=35	=35
2.r	2.r	2.r	4r	4r	4r	4r	4r	2.r	8ff	8dd	4r	4r	2.r	2.r	2.r
.	.	.	.	.	.	.	.	.	8ee	8cc	.	.	.	.	.
.	.	.	8gg 8cc	8gg 8cc	8e	8E	8E	.	2r	2r	8E	8E	.	.	.
.	.	.	8aa 8cc	8aa 8cc	8f	8F	8F	.	.	.	8F	8F	.	.	.
.	.	.	8gg 8cc	8gg 8cc	8e	8E	8E	.	.	.	8E	8E	.	.	.
.	.	.	8aa 8cc	8aa 8cc	8f	8F	8F	.	.	.	8F	8F	.	.	.
=36	=36	=36	=36	=36	=36	=36	=36	=36	=36	=36	=36	=36	=36	=36	=36
4r	2.r	2.r	4gg 4cc	4gg 4cc	4e	4E	4E	2.r	4r	2.r	4E	4E	2.r	2.r	2.r
8eee	.	.	2r	2r	2r	2r	2r	.	8ccc	.	2r	2r	.	.	.
8ddd	.	.	.	.	.	.	.	.	8bb	.	.	.	.	.	.
8ccc	.	.	.	.	.	.	.	.	8aa	.	.	.	.	.	.
8bb	.	.	.	.	.	.	.	.	8gg	.	.	.	.	.	.
=37	=37	=37	=37	=37	=37	=37	=37	=37	=37	=37	=37	=37	=37	=37	=37
8aa	2.r	2.r	4r	4r	4r	2.r	2.r	2.r	8ff	2.r	2.r	2.r	2.r	2.r	2.r
8gg	.	.	.	.	.	.	.	.	8ee	.	.	.	.	.	.
2r	.	.	8ff	8cc	8a	.	.	.	2r	.	.	.	.	.	.
.	.	.	8ee	8b	8g	.	.	.	.	.	.	.	.	.	.
.	.	.	8dd	8a	8f	.	.	.	.	.	.	.	.	.	.
.	.	.	8cc	8g	8e	.	.	.	.	.	.	.	.	.	.
=38	=38	=38	=38	=38	=38	=38	=38	=38	=38	=38	=38	=38	=38	=38	=38
2.r	2.r	2.r	8b	8f	8d	2.r	2.r	2.r	2.r	2.r	2.r	2.r	2.r	2.r	2.r
.	.	.	8a	8e	8c	.	.	.	.	.	.	.	.	.	.
.	.	.	8g	8d	8B	.	.	.	.	.	.	.	.	.	.
.	.	.	8f	8c	8A	.	.	.	.	.	.	.	.	.	.
.	.	.	8e	8B	8G	.	.	.	.	.	.	.	.	.	.
.	.	.	8d	8A	8F	.	.	.	.	.	.	.	.	.	.
=39	=39	=39	=39	=39	=39	=39	=39	=39	=39	=39	=39	=39	=39	=39	=39
2.r	2.r	2.r	8c	8G	8E	2.r	2.r	2.r	2.r	2.r	2.r	2.r	2.r	2.r	2.r
.	.	.	8r	8r	8r	.	.	.	.	.	.	.	.	.	.
.	.	.	8d	8A	8F	.	.	.	.	.	.	.	.	.	.
.	.	.	8r	8r	8r	.	.	.	.	.	.	.	.	.	.
.	.	.	8B	8B	8G	.	.	.	.	.	.	.	.	.	.
.	.	.	8r	8r	8r	.	.	.	.	.	.	.	.	.	.
=40	=40	=40	=40	=40	=40	=40	=40	=40	=40	=40	=40	=40	=40	=40	=40
[2.ccc	[2.cc	4C	2ccc	[2.c 2.e	8c	8C	8C	[2.ccc	2ccc	[2.ee	[2.c	[2.c	[2.ee	[2.cc	[2.ee
.	.	.	.	.	8G	8GG	8GG	.	.	.	.	.	.	.	.
.	.	4C	.	.	8c	8C	8C	.	.	.	.	.	.	.	.
.	.	.	.	.	8G	8GG	8GG	.	.	.	.	.	.	.	.
.	.	4C	8.gg	.	8c	8C	8C	.	8.gg	.	.	.	.	.	.
.	.	.	.	.	8G	8GG	8GG	.	.	.	.	.	.	.	.
.	.	.	16gg	.	.	.	.	.	16gg	.	.	.	.	.	.
=41	=41	=41	=41	=41	=41	=41	=41	=41	=41	=41	=41	=41	=41	=41	=41
4ccc]	4cc]	4C	4ee	4c 4e]	8c	8C	8C	4ccc]	4ee	4ee]	4c]	4c]	4ee]	4cc]	4ee]
.	.	.	.	.	8G	8GG	8GG	.	.	.	.	.	.	.	.
4ccc	4cc	2r	4cc	4c 4e	8e	8E	8E	4ccc	4ee	4ee	4c	4c	4ee	4cc	4ee
.	.	.	.	.	8c	8C	8C	.	.	.	.	.	.	.	.
4ccc	4cc	.	4r	4e 4c	8g	8G	8G	4ccc	4ee	4ee	4c	4c	4ee	4cc	4ee
.	.	.	.	.	8e	8E	8E	.	.	.	.	.	.	.	.
=42	=42	=42	=42	=42	=42	=42	=42	=42	=42	=42	=42	=42	=42	=42	=42
[2.ccc	[2.cc	4C	2ccc	[2.e 2.cc	8a	8A	8A	[2.ccc	[2.ee	[2.cc	8A	8A	[2.ee	[2.cc	[2.ee
.	.	.	.	.	8e	8E	8E	.	.	.	8E	8E	.	.	.
.	.	4C	.	.	8a	8A	8A	.	.	.	8A	8A	.	.	.
.	.	.	.	.	8e	8E	8E	.	.	.	8E	8E	.	.	.
.	.	4C	8.aa	.	8a	8A	8A	.	.	.	8A	8A	.	.	.
.	.	.	.	.	8e	8E	8E	.	.	.	8E	8E	.	.	.
.	.	.	16aa	.	.	.	.	.	.	.	.	.	.	.	.
=43	=43	=43	=43	=43	=43	=43	=43	=43	=43	=43	=43	=43	=43	=43	=43
4ccc]	4cc]	4C	4ee	4e 4cc]	8a	8A	8A	4ccc]	4ee]	4cc]	8A	8A	4ee]	4cc]	4ee]
.	.	.	.	.	8e	8E	8E	.	.	.	8E	8E	.	.	.
4ccc	4cc	2r	4cc	4cc 4e	8a	8A	8A	4ccc	4ee	4cc	8A	8A	4ee	4cc	4ee
.	.	.	.	.	8e	8E	8E	.	.	.	8E	8E	.	.	.
4ccc	4cc	.	4r	4cc 4e	8a	8A	8A	4ccc	4ee	4cc	8A	8A	4ee	4cc	4ee
.	.	.	.	.	8e	8E	8E	.	.	.	8E	8E	.	.	.
=44	=44	=44	=44	=44	=44	=44	=44	=44	=44	=44	=44	=44	=44	=44	=44
2.eee	4ee	2.r	2eee	4b 4e	8g#	8G#	8G#	2.eee	2.bb	2.ee	8G#	8G#	4ee	4ee	4ee
.	.	.	.	.	8e	8E	8E	.	.	.	8E	8E	.	.	.
.	2ee	.	.	2b 2e	8g#	8G#	8G#	.	.	.	8G#	8G#	2ee	2ee	2ee
.	.	.	.	.	8e	8E	8E	.	.	.	8E	8E	.	.	.
.	.	.	8.ee	.	8g#	8G#	8G#	.	.	.	8G#	8G#	.	.	.
.	.	.	.	.	8e	8E	8E	.	.	.	8E	8E	.	.	.
.	.	.	16ee	.	.	.	.	.	.	.	.	.	.	.	.
=45	=45	=45	=45	=45	=45	=45	=45	=45	=45	=45	=45	=45	=45	=45	=45
2.ccc	4ee	2.r	2ccc	4cc 4e	8a	8A	8A	2.ccc	2.ccc	2.ee	8A	8A	4ee	4ee	4ee
.	.	.	.	.	8e	8E	8E	.	.	.	8E	8E	.	.	.
.	2ee	.	.	2cc 2e	8a	8A	8A	.	.	.	8A	8A	2ee	2ee	2ee
.	.	.	.	.	8e	8E	8E	.	.	.	8E	8E	.	.	.
.	.	.	8.aa	.	8a	8A	8A	.	.	.	8A	8A	.	.	.
.	.	.	.	.	8e	8E	8E	.	.	.	8E	8E	.	.	.
.	.	.	16aa	.	.	.	.	.	.	.	.	.	.	.	.
=46	=46	=46	=46	=46	=46	=46	=46	=46	=46	=46	=46	=46	=46	=46	=46
2.ddd	4dd	2.r	2ddd	4a 4d	8f#	8F#	8F#	2.ddd	2.aa	2.dd	8F#	8F#	4dd	4dd	4dd
.	.	.	.	.	8d	8D	8D	.	.	.	8D	8D	.	.	.
.	2dd	.	.	2d 2a	8f#	8F#	8F#	.	.	.	8F#	8F#	2dd	2dd	2dd
.	.	.	.	.	8d	8D	8D	.	.	.	8D	8D	.	.	.
.	.	.	8.dd	.	8f#	8F#	8F#	.	.	.	8F#	8F#	.	.	.
.	.	.	.	.	8d	8D	8D	.	.	.	8D	8D	.	.	.
.	.	.	16dd	.	.	.	.	.	.	.	.	.	.	.	.
=47	=47	=47	=47	=47	=47	=47	=47	=47	=47	=47	=47	=47	=47	=47	=47
4bb	4dd	4GG	4bb	4b 4d	8g	8G	8G	4bb	4bb	[2.dd	8G	8G	4dd	4dd	4dd
.	.	.	.	.	8d	8D	8D	.	.	.	8D	8D	.	.	.
4ff#	2dd	2r	4ff#	4cc 4d	8a	8A	8A	4ff#	4ff#	.	8A	8A	2dd	2dd	2dd
.	.	.	.	.	8d	8D	8D	.	.	.	8D	8D	.	.	.
4gg	.	.	4gg	4b 4d	8b	8B	8B	4gg	4gg	.	8B	8B	.	.	.
.	.	.	.	.	8d	8D	8D	.	.	.	8D	8D	.	.	.
=48	=48	=48	=48	=48	=48	=48	=48	=48	=48	=48	=48	=48	=48	=48	=48
2ddd	4r	2.r	2dd 2ddd	4a 4d	8f#	8F#	8F#	2ddd	2.aa	2.dd_	8F#	8F#	4r	4r	4r
.	.	.	.	.	8d	8D	8D	.	.	.	8D	8D	.	.	.
.	4dd	.	.	2d 2a	8f#	8F#	8F#	.	.	.	8F#	8F#	4dd	4dd	4dd
.	.	.	.	.	8d	8D	8D	.	.	.	8D	8D	.	.	.
4ccc	4dd	.	16dd	.	8f#	8F#	8F#	4ccc	.	.	8F#	8F#	4dd	4dd	4dd
.	.	.	16ff#	.	.	.	.	.	.	.	.	.	.	.	.
.	.	.	16aa	.	8d	8D	8D	.	.	.	8D	8D	.	.	.
.	.	.	16ccc	.	.	.	.	.	.	.	.	.	.	.	.
=49	=49	=49	=49	=49	=49	=49	=49	=49	=49	=49	=49	=49	=49	=49	=49
4bb	4g	4GG	4bb	4b 4d	8g	8G	8G	4bb	4bb	2.dd_	8G	8G	4dd	4g	4dd
.	.	.	.	.	8d	8D	8D	.	.	.	8D	8D	.	.	.
4ff#	2r	2r	4ff#	4cc 4d	8a	8A	8A	4ff#	4ff#	.	8A	8A	2r	2r	2r
.	.	.	.	.	8d	8D	8D	.	.	.	8D	8D	.	.	.
4gg	.	.	4gg	4b 4d	8b	8B	8B	4gg	4gg	.	8B	8B	.	.	.
.	.	.	.	.	8d	8D	8D	.	.	.	8D	8D	.	.	.
=50	=50	=50	=50	=50	=50	=50	=50	=50	=50	=50	=50	=50	=50	=50	=50
2ddd	4r	2.r	2dd 2ddd	4a 4d	8f#	8F#	8F#	2ddd	2.aa	2.dd]	8F#	8F#	4r	4r	4r
.	.	.	.	.	8d	8D	8D	.	.	.	8D	8D	.	.	.
.	4dd	.	.	2a 2d	8f#	8F#	8F#	.	.	.	8F#	8F#	4dd	4dd	4dd
.	.	.	.	.	8d	8D	8D	.	.	.	8D	8D	.	.	.
4ccc	4dd	.	16dd	.	8f#	8F#	8F#	4ccc	.	.	8F#	8F#	4dd	4dd	4dd
.	.	.	16ff#	.	.	.	.	.	.	.	.	.	.	.	.
.	.	.	16aa	.	8d	8D	8D	.	.	.	8D	8D	.	.	.
.	.	.	16ccc	.	.	.	.	.	.	.	.	.	.	.	.
=51	=51	=51	=51	=51	=51	=51	=51	=51	=51	=51	=51	=51	=51	=51	=51
8bb	4dd	4GG	8bb	4G 4d 4b	8g	4G	4G	8bb	4bb	4dd	4G	4G	4dd	4dd	4dd
8g	.	.	8b	.	8G	.	.	8g	.	.	.	.	.	.	.
8a	2r	2r	8cc	2r	8A	2r	2r	8a	2r	2r	2r	2r	2r	2r	2r
8b	.	.	8dd	.	8B	.	.	8b	.	.	.	.	.	.	.
8cc	.	.	8ee	.	8c	.	.	8cc	.	.	.	.	.	.	.
8dd	.	.	8ff#	.	8d	.	.	8dd	.	.	.	.	.	.	.
=52	=52	=52	=52	=52	=52	=52	=52	=52	=52	=52	=52	=52	=52	=52	=52
8ee	4g	4GG	8gg	4cc# 4g	8e	4E	4E	8ee	4ccc#	4gg	4E	4E	4gg	4g	4gg
8ff#	.	.	8aa	.	8f#	.	.	8ff#	.	.	.	.	.	.	.
4gg	2r	2r	8bb	2r	4g	2r	2r	4gg	2r	2r	2r	2r	2r	2r	2r
.	.	.	8gg	.	.	.	.	.	.	.	.	.	.	.	.
4cc#	.	.	8ee	.	4r	.	.	4cc#	.	.	.	.	.	.	.
.	.	.	8cc#	.	.	.	.	.	.	.	.	.	.	.	.
=53	=53	=53	=53	=53	=53	=53	=53	=53	=53	=53	=53	=53	=53	=53	=53
4dd	2dd	4GG	8dd	8dd 8f#	2.dd	2.d	2.d	4dd	2.ddd	4ff#	2.d	2.d	2dd	2dd	2dd
.	.	.	8ff#	8f#	.	.	.	.	.	.	.	.	.	.	.
2ddd	.	2r	8gg	8g	.	.	.	2ddd	.	2r	.	.	.	.	.
.	.	.	8aa	8a	.	.	.	.	.	.	.	.	.	.	.
.	4r	.	8bb	8b	.	.	.	.	.	.	.	.	4r	4r	4r
.	.	.	8ccc	8cc	.	.	.	.	.	.	.	.	.	.	.
=54	=54	=54	=54	=54	=54	=54	=54	=54	=54	=54	=54	=54	=54	=54	=54
4bb	2.r	2.r	8ddd	8dd	4b	4B	4B	4bb	4bb	4dd	4B	4B	2.r	2.r	2.r
.	.	.	16ddd	16dd	.	.	.	.	.	.	.	.	.	.	.
.	.	.	16ccc	16cc	.	.	.	.	.	.	.	.	.	.	.
4gg	.	.	8bb	8b	4g	4G	4G	4gg	4gg	4b	4G	4G	.	.	.
.	.	.	16bb	16b	.	.	.	.	.	.	.	.	.	.	.
.	.	.	16aa	16a	.	.	.	.	.	.	.	.	.	.	.
4ee	.	.	8gg	8g	4e	4E	4E	4ee	4ee	4g	4E	4E	.	.	.
.	.	.	16gg	16g	.	.	.	.	.	.	.	.	.	.	.
.	.	.	16ff#	16f#	.	.	.	.	.	.	.	.	.	.	.
=55	=55	=55	=55	=55	=55	=55	=55	=55	=55	=55	=55	=55	=55	=55	=55
2.ccc	2.r	2.r	8ee	8e	2.cc	2.c	2.c	2.ccc	2.ccc	2.e	2.c	2.c	2.r	2.r	2.r
.	.	.	8ee	8e	.	.	.	.	.	.	.	.	.	.	.
.	.	.	8ff#	8f#	.	.	.	.	.	.	.	.	.	.	.
.	.	.	8gg	8g	.	.	.	.	.	.	.	.	.	.	.
.	.	.	8aa	8a	.	.	.	.	.	.	.	.	.	.	.
.	.	.	8bb	8b	.	.	.	.	.	.	.	.	.	.	.
=56	=56	=56	=56	=56	=56	=56	=56	=56	=56	=56	=56	=56	=56	=56	=56
4aa	2.r	2.r	8ccc	8cc	4a	4A	4A	4aa	4aa	4cc	4A	4A	2.r	2.r	2.r
.	.	.	16ccc	16cc	.	.	.	.	.	.	.	.	.	.	.
.	.	.	16bb	16b	.	.	.	.	.	.	.	.	.	.	.
4ff#	.	.	8aa	8a	4f#	4F#	4F#	4ff#	4ff#	4a	4F#	4F#	.	.	.
.	.	.	16aa	16a	.	.	.	.	.	.	.	.	.	.	.
.	.	.	16gg	16g	.	.	.	.	.	.	.	.	.	.	.
4dd	.	.	8ff#	8f#	4d	4D	4D	4dd	4dd	4f#	4D	4D	.	.	.
.	.	.	16ff#	16f#	.	.	.	.	.	.	.	.	.	.	.
.	.	.	16ee	16e	.	.	.	.	.	.	.	.	.	.	.
=57	=57	=57	=57	=57	=57	=57	=57	=57	=57	=57	=57	=57	=57	=57	=57
4bb	2.r	2.r	8dd	8d	4b	4B	4B	4bb	4bb	4d	4B	4B	2.r	2.r	2.r
.	.	.	16bb	16b	.	.	.	.	.	.	.	.	.	.	.
.	.	.	16aa	16a	.	.	.	.	.	.	.	.	.	.	.
4ee	.	.	8gg	8g	4e	4E	4E	4ee	4ee	4b	4E	4E	.	.	.
.	.	.	16gg	16g	.	.	.	.	.	.	.	.	.	.	.
.	.	.	16ff#	16f#	.	.	.	.	.	.	.	.	.	.	.
4gg	.	.	8ee	8e	4g	4G	4G	4gg	4gg	4g	4G	4G	.	.	.
.	.	.	16ee	16e	.	.	.	.	.	.	.	.	.	.	.
.	.	.	16dd	16d	.	.	.	.	.	.	.	.	.	.	.
=58	=58	=58	=58	=58	=58	=58	=58	=58	=58	=58	=58	=58	=58	=58	=58
4aa	2.r	2.r	8cc	8c	4a	4A	4A	4aa	4aa	4e	4A	4A	2.r	2.r	2.r
.	.	.	16aa	16a	.	.	.	.	.	.	.	.	.	.	.
.	.	.	16gg	16g	.	.	.	.	.	.	.	.	.	.	.
4dd	.	.	8ff#	8f#	4d	4D	4D	4dd	4dd	4a	4D	4D	.	.	.
.	.	.	16ff#	16f#	.	.	.	.	.	.	.	.	.	.	.
.	.	.	16ee	16e	.	.	.	.	.	.	.	.	.	.	.
4ff#	.	.	8dd	8d	4f#	4F#	4F#	4ff#	4ff#	4f#	4F#	4F#	.	.	.
.	.	.	16dd	16d	.	.	.	.	.	.	.	.	.	.	.
.	.	.	16cc	16c	.	.	.	.	.	.	.	.	.	.	.
=59	=59	=59	=59	=59	=59	=59	=59	=59	=59	=59	=59	=59	=59	=59	=59
2gg	2.r	2.r	8b	8B	8g	8G	8G	2gg	2gg	4d	8G	8G	2.r	2.r	2.r
.	.	.	16b	16b	16b	16B	16B	.	.	.	16B	16B	.	.	.
.	.	.	16a	16a	16a	16A	16A	.	.	.	16A	16A	.	.	.
.	.	.	8g	8g	8g	8G	8G	.	.	4gg	8G	8G	.	.	.
.	.	.	16g	16g	16g	16G	16G	.	.	.	16G	16G	.	.	.
.	.	.	16f#	16f#	16f#	16F#	16F#	.	.	.	16F#	16F#	.	.	.
4ee	.	.	8e	8e	8e	8E	8E	4ee	4ee	4ee	8E	8E	.	.	.
.	.	.	16e	16e	16e	16E	16E	.	.	.	16E	16E	.	.	.
.	.	.	16d	16d	16d	16D	16D	.	.	.	16D	16D	.	.	.
=60	=60	=60	=60	=60	=60	=60	=60	=60	=60	=60	=60	=60	=60	=60	=60
2cc#	2.r	2.r	8c#	8c#	8c#	8C#	8C#	2cc#	2cc#	2cc#	2C#	2C#	2.r	2.r	2.r
.	.	.	8d	8d	8d	8D	8D	.	.	.	.	.	.	.	.
.	.	.	8e	8e	8e	8E	8E	.	.	.	.	.	.	.	.
.	.	.	8f#	8f#	8f#	8F#	8F#	.	.	.	.	.	.	.	.
4r	.	.	8g	8g	8g	8G	8G	4r	4r	4r	4r	4r	.	.	.
.	.	.	8e	8e	8e	8E	8E	.	.	.	.	.	.	.	.
=61	=61	=61	=61	=61	=61	=61	=61	=61	=61	=61	=61	=61	=61	=61	=61
2cc#	2.r	2.r	8c#	8c#	8c#	8C#	8C#	2cc#	2cc#	2cc#	2C#	2C#	2.r	2.r	2.r
.	.	.	8d	8d	8d	8D	8D	.	.	.	.	.	.	.	.
.	.	.	8e	8e	8e	8E	8E	.	.	.	.	.	.	.	.
.	.	.	8f#	8f#	8f#	8F#	8F#	.	.	.	.	.	.	.	.
4r	.	.	8g	8g	8g	8G	8G	4r	4r	4r	4r	4r	.	.	.
.	.	.	8e	8e	8e	8E	8E	.	.	.	.	.	.	.	.
=62	=62	=62	=62	=62	=62	=62	=62	=62	=62	=62	=62	=62	=62	=62	=62
2cc#	2.r	2.r	8c#	8c#	8c#	8C#	8C#	2cc#	2cc#	2cc#	2C#	2C#	2.r	2.r	2.r
.	.	.	8d	8d	8d	8D	8D	.	.	.	.	.	.	.	.
.	.	.	8e	8e	8e	8E	8E	.	.	.	.	.	.	.	.
.	.	.	8f#	8f#	8f#	8F#	8F#	.	.	.	.	.	.	.	.
4r	.	.	8g	8g	8g	8G	8G	4r	4r	4r	4r	4r	.	.	.
.	.	.	8c#	8c#	8c#	8C#	8C#	.	.	.	.	.	.	.	.
=63	=63	=63	=63	=63	=63	=63	=63	=63	=63	=63	=63	=63	=63	=63	=63
8cc#	2.r	2.r	8c#	8c#	8c#	8C#	8C#	8cc#	8cc#	8cc#	8C#	8C#	2.r	2.r	2.r
8dd	.	.	8d	8d	8d	8D	8D	8dd	8dd	8dd	8D	8D	.	.	.
4dd	.	.	8d	8d	8d	8D	8D	4dd	4dd	4dd	4D	4D	.	.	.
.	.	.	8d	8d	8d	8D	8D	.	.	.	.	.	.	.	.
4r	.	.	8d	8d	8d	8D	8D	4r	4r	4r	4r	4r	.	.	.
.	.	.	8d	8d	8d	8D	8D	.	.	.	.	.	.	.	.
=64	=64	=64	=64	=64	=64	=64	=64	=64	=64	=64	=64	=64	=64	=64	=64
8dd	2.r	2.r	8d	8d	8d	8D	8D	8dd	8dd	8d	8D	8D	2.r	2.r	2.r
8ee-	.	.	8e-	8e-	8e-	8E-	8E-	8ee-	8ee-	8e-	8E-	8E-	.	.	.
4ee-	.	.	8e-	8e-	8e-	8E-	8E-	4ee-	4ee-	4e-	4E-	4E-	.	.	.
.	.	.	8e-	8e-	8e-	8E-	8E-	.	.	.	.	.	.	.	.
4r	.	.	8e-	8e-	8e-	8E-	8E-	4r	4r	4r	4r	4r	.	.	.
.	.	.	8e-	8e-	8e-	8E-	8E-	.	.	.	.	.	.	.	.
=65	=65	=65	=65	=65	=65	=65	=65	=65	=65	=65	=65	=65	=65	=65	=65
8ee-	2.r	2.r	8e-	8e-	8e-	8E-	8E-	8ee-	8e-	8e-	8E-	8E-	2.r	2.r	2.r
8aa-	.	.	8a-	8a-	8a-	8A-	8A-	8aa-	8a-	8a-	8A-	8A-	.	.	.
4aa-	.	.	8a-	8a-	8a-	8A-	8A-	4aa-	4a-	4a-	4A-	4A-	.	.	.
.	.	.	8a-	8a-	8a-	8A-	8A-	.	.	.	.	.	.	.	.
4r	.	.	8a-	8a-	8a-	8A-	8A-	4r	4r	4r	4r	4r	.	.	.
.	.	.	8a-	8a-	8a-	8A-	8A-	.	.	.	.	.	.	.	.
=66	=66	=66	=66	=66	=66	=66	=66	=66	=66	=66	=66	=66	=66	=66	=66
8aa-	2.r	2.r	8a-	8a-	8a-	8A-	8A-	8aa-	8a-	8a-	8A-	8A-	2.r	2.r	2.r
8eee-	.	.	8ee-	8ee-	8ee-	8e-	8e-	8eee-	8ee-	8ee-	8e-	8e-	.	.	.
4eee-	.	.	8ee-	8ee-	8ee-	8e-	8e-	4eee-	4ee-	4ee-	4e-	4e-	.	.	.
.	.	.	8ee-	8ee-	8ee-	8e-	8e-	.	.	.	.	.	.	.	.
4r	.	.	8ee-	8ee-	8ee-	8e-	8e-	4r	4r	4r	4r	4r	.	.	.
.	.	.	8ee-	8ee-	8ee-	8e-	8e-	.	.	.	.	.	.	.	.
=67	=67	=67	=67	=67	=67	=67	=67	=67	=67	=67	=67	=67	=67	=67	=67
8eee-	2.r	2.r	8ee-	8ee-	8ee-	8e-	8e-	8eee-	8ee-	8ee-	8e-	8e-	2.r	2.r	2.r
8ddd	.	.	8dd	8dd	8dd	8d	8d	8ddd	8dd	8dd	8d	8d	.	.	.
8ddd	.	.	8dd	8dd	8dd	8d	8d	8ddd	8dd	8dd	8d	8d	.	.	.
8ccc#	.	.	8cc#	8cc#	8cc#	8c#	8c#	8ccc#	8cc#	8cc#	8c#	8c#	.	.	.
8ccc#	.	.	8cc#	8cc#	8cc#	8c#	8c#	8ccc#	8cc#	8cc#	8c#	8c#	.	.	.
8ddd	.	.	8dd	8dd	8dd	8d	8d	8ddd	8dd	8dd	8d	8d	.	.	.
=68	=68	=68	=68	=68	=68	=68	=68	=68	=68	=68	=68	=68	=68	=68	=68
4ddd	4dd	2.r	8dd	8dd	8dd	8d	8d	4ddd	4dd	4dd	4d	4d	4dd	4dd	4dd
.	.	.	8d	8d	8d	8D	8D	.	.	.	.	.	.	.	.
4r	2r	.	8d	8d	8d	8D	8D	4r	4r	4r	4r	4r	2r	2r	2r
.	.	.	8cc#	8cc#	8cc#	8c#	8c#	.	.	.	.	.	.	.	.
8ccc#	.	.	8cc#	8cc#	8cc#	8c#	8c#	8ccc#	8cc#	8cc#	8c#	8c#	.	.	.
8ddd	.	.	8dd	8dd	8dd	8d	8d	8ddd	8dd	8dd	8d	8d	.	.	.
=69	=69	=69	=69	=69	=69	=69	=69	=69	=69	=69	=69	=69	=69	=69	=69
4ddd	4dd	2.r	8dd	8dd	8dd	8d	8d	4ddd	4dd	4dd	4d	4d	4dd	4dd	4dd
.	.	.	8d	8d	8d	8D	8D	.	.	.	.	.	.	.	.
4r	2r	.	8d	8d	8d	8D	8D	4r	4r	4r	4r	4r	2r	2r	2r
.	.	.	8cc#	8cc#	8cc#	8c#	8c#	.	.	.	.	.	.	.	.
8ccc#	.	.	8cc#	8cc#	8cc#	8c#	8c#	8ccc#	8cc#	8cc#	8c#	8c#	.	.	.
8ddd	.	.	8dd	8dd	8dd	8d	8d	8ddd	8dd	8dd	8d	8d	.	.	.
=70	=70	=70	=70	=70	=70	=70	=70	=70	=70	=70	=70	=70	=70	=70	=70
4ddd	4dd	2.r	8dd	8dd	8dd	8d	8d	4ddd	4dd	4dd	4d	4d	4dd	4dd	4dd
.	.	.	8d	8d	8d	8D	8D	.	.	.	.	.	.	.	.
4r	2r	.	8d	8d	8d	8D	8D	4r	4r	4r	4r	4r	2r	2r	2r
.	.	.	8b	8b	8b	8B	8B	.	.	.	.	.	.	.	.
8bb	.	.	8b	8b	8b	8B	8B	8bb	8b	8b	8B	8B	.	.	.
8ccc	.	.	8cc	8cc	8cc	8c	8c	8ccc	8cc	8cc	8c	8c	.	.	.
=71	=71	=71	=71	=71	=71	=71	=71	=71	=71	=71	=71	=71	=71	=71	=71
4ccc	2.r	2.r	8cc	8cc	8cc	8c	8c	4ccc	4cc	4cc	4c	4c	[2.dd	[2.dd	2.r
.	.	.	8d	8d	8d	8D	8D	.	.	.	.	.	.	.	.
4r	.	.	8d	8d	8d	8D	8D	4r	4r	4r	4r	4r	.	.	.
.	.	.	8b	8b	8b	8B	8B	.	.	.	.	.	.	.	.
8bb	.	.	8b	8b	8b	8B	8B	8bb	8b	8b	8B	8B	.	.	.
8ccc	.	.	8cc	8cc	8cc	8c	8c	8ccc	8cc	8cc	8c	8c	.	.	.
=72	=72	=72	=72	=72	=72	=72	=72	=72	=72	=72	=72	=72	=72	=72	=72
4ccc	2.r	2.r	8cc	8cc	8cc	8c	8c	4ccc	4cc	4cc	4c	4c	2.dd_	2.dd_	2.r
.	.	.	8d	8d	8d	8D	8D	.	.	.	.	.	.	.	.
4r	.	.	8d	8d	8d	8D	8D	4r	4r	4r	4r	4r	.	.	.
.	.	.	8b	8b	8b	8B	8B	.	.	.	.	.	.	.	.
8bb	.	.	8b	8b	8b	8B	8B	8bb	8bb	8bb	8B	8B	.	.	.
8ccc	.	.	8cc	8cc	8cc	8c	8c	8ccc	8ccc	8ccc	8c	8c	.	.	.
=73	=73	=73	=73	=73	=73	=73	=73	=73	=73	=73	=73	=73	=73	=73	=73
2ccc	2.r	2.r	2cc	2cc	2cc	2c	2c	2ccc	2ccc	2ccc	2c	2c	2.dd_	2.dd_	2.r
4aa	.	.	4a	4a	4a	4A	4A	4aa	4aa	4aa	4A	4A	.	.	.
=74	=74	=74	=74	=74	=74	=74	=74	=74	=74	=74	=74	=74	=74	=74	=74
4ff#	2.r	2.r	4f#	4f#	4f#	4F#	4F#	4ff#	4ff#	4ff#	4F#	4F#	4dd]	4dd]	2.r
2r	.	.	2r	2r	2r	2r	2r	2r	2r	2r	2r	2r	2r	2r	.
=75	=75	=75	=75	=75	=75	=75	=75	=75	=75	=75	=75	=75	=75	=75	=75
2.r	2.r	2.r	2.r	2.r	2.r	2.r	2.r	2.r	2.r	2.r	2.r	2.r	2.r	2.r	2.r
=76	=76	=76	=76	=76	=76	=76	=76	=76	=76	=76	=76	=76	=76	=76	=76
2.r	2.r	2.r	2.g	8B	4G	4G	4G	2.r	2.r	2.r	4r	4r	2.r	2.r	2.r
.	.	.	.	8d	.	.	.	.	.	.	.	.	.	.	.
.	.	.	.	8g	2r	2r	2r	.	.	.	4G	4BB	.	.	.
.	.	.	.	8d	.	.	.	.	.	.	.	.	.	.	.
.	.	.	.	8B	.	.	.	.	.	.	4G	4BB	.	.	.
.	.	.	.	8d	.	.	.	.	.	.	.	.	.	.	.
=77	=77	=77	=77	=77	=77	=77	=77	=77	=77	=77	=77	=77	=77	=77	=77
2.r	2.r	2.r	8a	8c	4F#	4D	4D	2.r	2.r	2.r	4r	4r	2.r	2.r	2.r
.	.	.	8g	8d	.	.	.	.	.	.	.	.	.	.	.
.	.	.	8a	8f#	2r	2r	2r	.	.	.	4A	4F#	.	.	.
.	.	.	8b	8d	.	.	.	.	.	.	.	.	.	.	.
.	.	.	4a	8c	.	.	.	.	.	.	4A	4F#	.	.	.
.	.	.	.	8d	.	.	.	.	.	.	.	.	.	.	.
=78	=78	=78	=78	=78	=78	=78	=78	=78	=78	=78	=78	=78	=78	=78	=78
2.r	2.r	2.r	8b	8B	4G	4G	4G	2.r	2.r	2.r	4r	4r	2.r	2.r	2.r
.	.	.	8cc	8c	.	.	.	.	.	.	.	.	.	.	.
.	.	.	8dd	8d	2r	2r	2r	.	.	.	4B	4G	.	.	.
.	.	.	8ee	8e	.	.	.	.	.	.	.	.	.	.	.
.	.	.	8ff#	8f#	.	.	.	.	.	.	4B	4G	.	.	.
.	.	.	8gg	8g	.	.	.	.	.	.	.	.	.	.	.
=79	=79	=79	=79	=79	=79	=79	=79	=79	=79	=79	=79	=79	=79	=79	=79
2.r	2.r	2.r	8gg	8g	4d	4D	4D	2.r	2.r	2.r	4r	4r	2.r	2.r	2.r
.	.	.	8ff#	8f#	.	.	.	.	.	.	.	.	.	.	.
.	.	.	8ee	8e	2r	2r	2r	.	.	.	4c	4A	.	.	.
.	.	.	8dd	8d	.	.	.	.	.	.	.	.	.	.	.
.	.	.	8cc	8c	.	.	.	.	.	.	4c	4A	.	.	.
.	.	.	8a	8A	.	.	.	.	.	.	.	.	.	.	.
=80	=80	=80	=80	=80	=80	=80	=80	=80	=80	=80	=80	=80	=80	=80	=80
2.r	2.r	2.r	2.g	8G	4B	2.E	4E	2.r	2.r	2.r	4r	4r	2.r	2.r	2.r
.	.	.	.	8B	.	.	.	.	.	.	.	.	.	.	.
.	.	.	.	8e	2r	.	2r	.	.	.	4B	4G	.	.	.
.	.	.	.	8B	.	.	.	.	.	.	.	.	.	.	.
.	.	.	.	8G	.	.	.	.	.	.	4B	4G	.	.	.
.	.	.	.	8B	.	.	.	.	.	.	.	.	.	.	.
=81	=81	=81	=81	=81	=81	=81	=81	=81	=81	=81	=81	=81	=81	=81	=81
2.r	2.r	2.r	8cc	8c	4c	4C	4C	2.r	2.r	2.r	4r	4r	2.r	2.r	2.r
.	.	.	8b	8B	.	.	.	.	.	.	.	.	.	.	.
.	.	.	8cc	8c	2r	2r	2r	.	.	.	4c	4E	.	.	.
.	.	.	8dd	8d	.	.	.	.	.	.	.	.	.	.	.
.	.	.	4ee	8e	.	.	.	.	.	.	4e	4c	.	.	.
.	.	.	.	8c	.	.	.	.	.	.	.	.	.	.	.
=82	=82	=82	=82	=82	=82	=82	=82	=82	=82	=82	=82	=82	=82	=82	=82
2.r	2.r	2.r	8dd	8B	4d	2.D	4D	2.r	2.r	2.r	4d	4B	2.r	2.r	2.r
.	.	.	8b	8d	.	.	.	.	.	.	.	.	.	.	.
.	.	.	8g	8g	2r	.	2r	.	.	.	4B	4G	.	.	.
.	.	.	8b	8d	.	.	.	.	.	.	.	.	.	.	.
.	.	.	8a	8c	.	.	.	.	.	.	4A	4F#	.	.	.
.	.	.	8f#	8A	.	.	.	.	.	.	.	.	.	.	.
=83	=83	=83	=83	=83	=83	=83	=83	=83	=83	=83	=83	=83	=83	=83	=83
2.r	2.r	2.r	4g	4G	4G	8GG	4GG	2.r	2r	2r	4G	4G	2.r	2.r	2.r
.	.	.	.	.	.	8BB	.	.	.	.	.	.	.	.	.
.	.	.	4r	4r	2r	8D	2r	.	.	.	2r	2r	.	.	.
.	.	.	.	.	.	8G	.	.	.	.	.	.	.	.	.
.	.	.	8b	8g	.	4r	.	.	8b	8g	.	.	.	.	.
.	.	.	8a	8f#	.	.	.	.	8a	8f#	.	.	.	.	.
=84	=84	=84	=84	=84	=84	=84	=84	=84	=84	=84	=84	=84	=84	=84	=84
2.r	2.r	2.r	4a	4f#	4r	8D	4D	2.r	4a	4f#	2.r	2.r	2.r	2.r	2.r
.	.	.	.	.	.	8F#	.	.	.	.	.	.	.	.	.
.	.	.	4r	4r	4A 4F#	8A	2r	.	4r	4r	.	.	.	.	.
.	.	.	.	.	.	8d	.	.	.	.	.	.	.	.	.
.	.	.	8cc	8a	4A 4F#	4r	.	.	8cc	8a	.	.	.	.	.
.	.	.	8b	8g	.	.	.	.	8b	8g	.	.	.	.	.
=85	=85	=85	=85	=85	=85	=85	=85	=85	=85	=85	=85	=85	=85	=85	=85
2.r	2.r	2.r	4b	4g	4r	8G	4G	2.r	4b	4g	2.r	2.r	2.r	2.r	2.r
.	.	.	.	.	.	8B	.	.	.	.	.	.	.	.	.
.	.	.	4r	4r	4G 4B	8d	4r	.	4r	2r	.	.	.	.	.
.	.	.	.	.	.	8g	.	.	.	.	.	.	.	.	.
.	.	.	8g	4d	4B 4G	4B	4BB	.	8g	.	.	.	.	.	.
.	.	.	8gg	.	.	.	.	.	8gg	.	.	.	.	.	.
=86	=86	=86	=86	=86	=86	=86	=86	=86	=86	=86	=86	=86	=86	=86	=86
2.r	2.r	2.r	8ff#	4e	4c	4c	4C	2.r	8ff#	2.r	2.r	2.r	2.r	2.r	2.r
.	.	.	8ee	.	.	.	.	.	8ee	.	.	.	.	.	.
.	.	.	8dd	4r	4r	4r	4r	.	8dd	.	.	.	.	.	.
.	.	.	8cc	.	.	.	.	.	8cc	.	.	.	.	.	.
.	.	.	8b	4f#	4d	4d	4D	.	8b	.	.	.	.	.	.
.	.	.	8a	.	.	.	.	.	8a	.	.	.	.	.	.
=87	=87	=87	=87	=87	=87	=87	=87	=87	=87	=87	=87	=87	=87	=87	=87
2r	2.r	2.r	4g	4g	4g	4G	4G	2r	4g	2.r	8GG	8GG	2.r	2.r	2.r
.	.	.	.	.	.	.	.	.	.	.	8BB	8BB	.	.	.
.	.	.	4r	4r	4G	2r	2r	.	2r	.	8D	8D	.	.	.
.	.	.	.	.	.	.	.	.	.	.	8G	8G	.	.	.
8bb	.	.	8b	8g	4r	.	.	8gg	.	.	4r	4r	.	.	.
8aa	.	.	8a	8f#	.	.	.	8ff#	.	.	.	.	.	.	.
=88	=88	=88	=88	=88	=88	=88	=88	=88	=88	=88	=88	=88	=88	=88	=88
4aa	2.r	2.r	4a	4f#	8D	4D	4D	4ff#	2.r	2.r	8D	8D	2.r	2.r	2.r
.	.	.	.	.	8F#	.	.	.	.	.	8F#	8F#	.	.	.
4r	.	.	4r	4r	8A	2r	2r	4r	.	.	8A	8A	.	.	.
.	.	.	.	.	8d	.	.	.	.	.	8d	8d	.	.	.
8ccc	.	.	8cc	8a	4r	.	.	8aa	.	.	4r	4r	.	.	.
8bb	.	.	8b	8g	.	.	.	8gg	.	.	.	.	.	.	.
=89	=89	=89	=89	=89	=89	=89	=89	=89	=89	=89	=89	=89	=89	=89	=89
4bb	2.r	2.r	4b	4g	8G	4GG	4GG	4gg	2.r	2.r	8G	8G	2.r	2.r	2.r
.	.	.	.	.	8B	.	.	.	.	.	8B	8B	.	.	.
4r	.	.	4r	4r	8d	4r	4r	2r	.	.	8d	8d	.	.	.
.	.	.	.	.	8g	.	.	.	.	.	8g	8g	.	.	.
8gg	.	.	8g	4d	4B	4BB	4BB	.	.	.	4B	4B	.	.	.
8ggg	.	.	8gg	.	.	.	.	.	.	.	.	.	.	.	.
=90	=90	=90	=90	=90	=90	=90	=90	=90	=90	=90	=90	=90	=90	=90	=90
8fff#	2.r	2.r	8ff#	4e	4c	4C	4C	2.r	2.r	2.r	4c	4c	2.r	2.r	2.r
8eee	.	.	8ee	.	.	.	.	.	.	.	.	.	.	.	.
8ddd	.	.	8dd	4r	4r	4r	4r	.	.	.	4r	4r	.	.	.
8ccc	.	.	8cc	.	.	.	.	.	.	.	.	.	.	.	.
8bb	.	.	8b	4f#	4d	4D	4D	.	.	.	4d	4d	.	.	.
8aa	.	.	8a	.	.	.	.	.	.	.	.	.	.	.	.
=91	=91	=91	=91	=91	=91	=91	=91	=91	=91	=91	=91	=91	=91	=91	=91
4gg	2g	4GG	12bb	12g	4g	4G	4G	2.r	2gg	2gg	4G	4G	2g	2g	2g
.	.	.	12ddd	12dd	.	.	.	.	.	.	.	.	.	.	.
.	.	.	12ccc	12cc	.	.	.	.	.	.	.	.	.	.	.
2r	.	2r	12bb	12b	2r	2r	2r	.	.	.	2r	2r	.	.	.
.	.	.	12aa	12a	.	.	.	.	.	.	.	.	.	.	.
.	.	.	12gg	12g	.	.	.	.	.	.	.	.	.	.	.
.	4r	.	12ff#	12f#	.	.	.	.	4r	4r	.	.	4r	4r	4r
.	.	.	12ee	12e	.	.	.	.	.	.	.	.	.	.	.
.	.	.	12dd	12d	.	.	.	.	.	.	.	.	.	.	.
=92	=92	=92	=92	=92	=92	=92	=92	=92	=92	=92	=92	=92	=92	=92	=92
2.r	2.r	2.r	12cc	12cc	2.r	12c	12c	2.r	2.r	2.r	12c	12c	2.r	2.r	2.r
.	.	.	12ee	12ee	.	12e	12e	.	.	.	12e	12e	.	.	.
.	.	.	12dd	12dd	.	12d	12d	.	.	.	12d	12d	.	.	.
.	.	.	12cc	12cc	.	12c	12c	.	.	.	12c	12c	.	.	.
.	.	.	12b	12b	.	12B	12B	.	.	.	12B	12B	.	.	.
.	.	.	12a	12a	.	12A	12A	.	.	.	12A	12A	.	.	.
.	.	.	12g	12g	.	12G	12G	.	.	.	12G	12G	.	.	.
.	.	.	12f#	12f#	.	12F#	12F#	.	.	.	12F#	12F#	.	.	.
.	.	.	12e	12e	.	12E	12E	.	.	.	12E	12E	.	.	.
=93	=93	=93	=93	=93	=93	=93	=93	=93	=93	=93	=93	=93	=93	=93	=93
2r	2.r	2.r	12d	12d	12d	12D	12D	2r	2r	2r	12D	12D	2.r	2.r	2.r
.	.	.	12e	12e	12e	12E	12E	.	.	.	12E	12E	.	.	.
.	.	.	12d	12d	12d	12D	12D	.	.	.	12D	12D	.	.	.
.	.	.	12c	12c	12c	12C	12C	.	.	.	12C	12C	.	.	.
.	.	.	12B	12B	12B	12BB	12BB	.	.	.	12BB	12BB	.	.	.
.	.	.	12A	12A	12A	12AA	12AA	.	.	.	12AA	12AA	.	.	.
12g	.	.	12G	12G	12G	12GG	12GG	12g	12g	12g	12GG	12GG	.	.	.
12a	.	.	12A	12A	12A	12AA	12AA	12a	12a	12a	12AA	12AA	.	.	.
12b	.	.	12B	12B	12B	12BB	12BB	12b	12b	12b	12BB	12BB	.	.	.
=94	=94	=94	=94	=94	=94	=94	=94	=94	=94	=94	=94	=94	=94	=94	=94
4cc	2.r	2.r	12c	12c	4c	12C	12C	4cc	4cc	4cc	12C	12C	2.r	2.r	2.r
.	.	.	12B	12B	.	12BB	12BB	.	.	.	12BB	12BB	.	.	.
.	.	.	12c	12c	.	12C	12C	.	.	.	12C	12C	.	.	.
12a	.	.	12A	12A	12A	12AA	12AA	12a	12a	12a	12AA	12AA	.	.	.
12b	.	.	12B	12B	12B	12BB	12BB	12b	12b	12b	12BB	12BB	.	.	.
12cc	.	.	12c	12c	12c	12C	12C	12cc	12cc	12cc	12C	12C	.	.	.
4dd	.	.	12d	12d	4d	12D	12D	4dd	4dd	4dd	12D	12D	.	.	.
.	.	.	12c#	12c#	.	12C#	12C#	.	.	.	12C#	12C#	.	.	.
.	.	.	12d	12d	.	12D	12D	.	.	.	12D	12D	.	.	.
=95	=95	=95	=95	=95	=95	=95	=95	=95	=95	=95	=95	=95	=95	=95	=95
12b	2.r	2.r	12B	12B	12B	12BB	12BB	12b	12b	12b	12BB	12BB	2.r	2.r	2.r
12cc	.	.	12c	12c	12c	12C	12C	12cc	12cc	12cc	12C	12C	.	.	.
12dd	.	.	12d	12d	12d	12D	12D	12dd	12dd	12dd	12D	12D	.	.	.
4ee	.	.	12e	12e	4e	12E	12E	4ee	4ee	4ee	12E	12E	.	.	.
.	.	.	12d	12d	.	12D	12D	.	.	.	12D	12D	.	.	.
.	.	.	12e	12e	.	12E	12E	.	.	.	12E	12E	.	.	.
4ff#	.	.	12f#	12f#	4f#	12F#	12F#	4ff#	4ff#	4ff#	12F#	12F#	.	.	.
.	.	.	12e	12e	.	12E	12E	.	.	.	12E	12E	.	.	.
.	.	.	12f#	12f#	.	12F#	12F#	.	.	.	12F#	12F#	.	.	.
=96	=96	=96	=96	=96	=96	=96	=96	=96	=96	=96	=96	=96	=96	=96	=96
12gg	2.r	2.r	12g	12g	4g	12G	12G	12gg	12gg	12gg	12G	12G	2.r	2.r	2.r
12ff#	.	.	12f#	12f#	.	12F#	12F#	12ff#	12ff#	12ff#	12F#	12F#	.	.	.
12gg	.	.	12g	12g	.	12G	12G	12gg	12gg	12gg	12G	12G	.	.	.
12aa	.	.	12a	12a	4a	12A	12A	12aa	12aa	12aa	12A	12A	.	.	.
12gg	.	.	12g	12g	.	12G	12G	12gg	12gg	12gg	12G	12G	.	.	.
12aa	.	.	12a	12a	.	12A	12A	12aa	12aa	12aa	12A	12A	.	.	.
12bb	.	.	12b	12b	4b	12B	12B	12bb	12bb	12bb	12B	12B	.	.	.
12aa	.	.	12a	12a	.	12A	12A	12aa	12aa	12aa	12A	12A	.	.	.
12bb	.	.	12b	12b	.	12B	12B	12bb	12bb	12bb	12B	12B	.	.	.
=97	=97	=97	=97	=97	=97	=97	=97	=97	=97	=97	=97	=97	=97	=97	=97
4ccc	2.r	2.r	4cc	4cc	4cc	4c	4c	4ccc	4ccc	4ccc	4c	4c	2.r	2.r	2.r
2r	.	.	4ee	2r	2r	2r	2r	2r	2r	2r	2r	2r	.	.	.
.	.	.	4ee	.	.	.	.	.	.	.	.	.	.	.	.
=98	=98	=98	=98	=98	=98	=98	=98	=98	=98	=98	=98	=98	=98	=98	=98
2.r	2.r	2.r	4ee	2.r	2.r	2.r	2.r	2.r	2.r	2.r	2.r	2.r	2.r	2.r	2.r
.	.	.	4ee	.	.	.	.	.	.	.	.	.	.	.	.
.	.	.	4ee	.	.	.	.	.	.	.	.	.	.	.	.
=99	=99	=99	=99	=99	=99	=99	=99	=99	=99	=99	=99	=99	=99	=99	=99
2.r	2.r	2.r	[2.ee	4b- 4g	4g	4c#	4c#	2.r	2.r	2.r	2.r	2.r	2.r	2.r	2.r
.	.	.	.	4b- 4g	4g	4c#	4c#	.	.	.	.	.	.	.	.
.	.	.	.	4b- 4g	4g	4c#	4c#	.	.	.	.	.	.	.	.
=100	=100	=100	=100	=100	=100	=100	=100	=100	=100	=100	=100	=100	=100	=100	=100
2.r	2.r	2.r	4ee]	2.b- 2.g	2.g	2.c#	2.c#	2.r	2.r	2.r	2.r	2.r	2.r	2.r	2.r
.	.	.	4ff#	.	.	.	.	.	.	.	.	.	.	.	.
.	.	.	4gg	.	.	.	.	.	.	.	.	.	.	.	.
=101	=101	=101	=101	=101	=101	=101	=101	=101	=101	=101	=101	=101	=101	=101	=101
2.r	2.r	2.r	[2.dd	4b 4g	4g	4d	4d	2.r	2.r	2.r	2.r	2.r	2.r	2.r	2.r
.	.	.	.	4b 4g	4g	4d	4d	.	.	.	.	.	.	.	.
.	.	.	.	4b 4g	4g	4d	4d	.	.	.	.	.	.	.	.
=102	=102	=102	=102	=102	=102	=102	=102	=102	=102	=102	=102	=102	=102	=102	=102
2.r	2.r	2.r	4dd]	4cc 4a	2f#	4D	4D	2.r	2.r	2.r	2.r	2.r	2.r	2.r	2.r
.	.	.	4cc	2r	.	2r	2r	.	.	.	.	.	.	.	.
.	.	.	4a	.	4r	.	.	.	.	.	.	.	.	.	.
=103	=103	=103	=103	=103	=103	=103	=103	=103	=103	=103	=103	=103	=103	=103	=103
2.r	2.r	2.r	4g	4g 4B	4g	4G	4G	2.r	2.r	2.r	2.r	2.r	2.r	2.r	2.r
.	.	.	4g	4g 4B	4g	4G	4G	.	.	.	.	.	.	.	.
.	.	.	8dd	4r	4r	4r	4r	.	.	.	.	.	.	.	.
.	.	.	8b	.	.	.	.	.	.	.	.	.	.	.	.
=104	=104	=104	=104	=104	=104	=104	=104	=104	=104	=104	=104	=104	=104	=104	=104
2.r	2.r	2.r	4a	4f# 4c	4d	4D	4D	2.r	2.r	2.r	2.r	2.r	2.r	2.r	2.r
.	.	.	4a	4c 4f#	4d	4D	4D	.	.	.	.	.	.	.	.
.	.	.	8cc	4r	4r	4r	4r	.	.	.	.	.	.	.	.
.	.	.	8a	.	.	.	.	.	.	.	.	.	.	.	.
=105	=105	=105	=105	=105	=105	=105	=105	=105	=105	=105	=105	=105	=105	=105	=105
4gg	2.r	2.r	4g	4B 4g	4g	4G	4G	2.r	2.r	2.r	2.r	2.r	2.r	2.r	2.r
4gg	.	.	4g	4g 4B	4g	4G	4G	.	.	.	.	.	.	.	.
8ddd	.	.	8dd	4r	4r	4r	4r	.	.	.	.	.	.	.	.
8bb	.	.	8b	.	.	.	.	.	.	.	.	.	.	.	.
=106	=106	=106	=106	=106	=106	=106	=106	=106	=106	=106	=106	=106	=106	=106	=106
4aa	2.r	2.r	4a	4f# 4c	4d	4D	4D	2.r	2.r	2.r	2.r	2.r	2.r	2.r	2.r
4aa	.	.	4a	4f# 4c	4d	4D	4D	.	.	.	.	.	.	.	.
8ccc	.	.	8cc	4r	4r	4r	4r	.	.	.	.	.	.	.	.
8aa	.	.	8a	.	.	.	.	.	.	.	.	.	.	.	.
=107	=107	=107	=107	=107	=107	=107	=107	=107	=107	=107	=107	=107	=107	=107	=107
4gg	2.r	2.r	4g	4g 4B	4g	4G	4G	2.r	2.r	2.r	2.r	2.r	2.r	2.r	2.r
4gg	.	.	4g	4g 4B	4g	4G	4G	.	.	.	.	.	.	.	.
4r	.	.	4r	4r	4r	4r	4r	.	.	.	.	.	.	.	.
=108	=108	=108	=108	=108	=108	=108	=108	=108	=108	=108	=108	=108	=108	=108	=108
2.eee-	2.r	2.r	2.ee- 2.e-	2.ee- 2.e-	2.e-	2.e-	2.e-	2.eee-	2.ee-	2.ee-	2.e-	2.e-	2.r	2.r	2.r
=109	=109	=109	=109	=109	=109	=109	=109	=109	=109	=109	=109	=109	=109	=109	=109
2bb-	2.r	2.r	2b-	2b-	2B-	2B-	2B-	2bb-	2b-	2b-	2B-	2B-	2.r	2.r	2.r
4gg	.	.	4g	4g	4G	4G	4G	4gg	4g	4g	4G	4G	.	.	.
=110	=110	=110	=110	=110	=110	=110	=110	=110	=110	=110	=110	=110	=110	=110	=110
4ee-	2.r	2.r	4e-	4e-	4E-	4E-	4E-	4ee-	4e-	4e-	4E-	4E-	2.r	2.r	2.r
4r	.	.	4r	4r	4r	4r	4r	4r	4r	4r	4r	4r	.	.	.
8.b-	.	.	8.B-	8.B-	8.B-	8.BB-	8.BB-	8.b-	8.b-	8.b-	8.BB-	8.BB-	.	.	.
16b-	.	.	16B-	16B-	16B-	16BB-	16BB-	16b-	16b-	16b-	16BB-	16BB-	.	.	.
=111	=111	=111	=111	=111	=111	=111	=111	=111	=111	=111	=111	=111	=111	=111	=111
4ee-	2.r	2.r	4e-	4e-	4e-	4E-	4E-	4ee-	4ee-	4ee-	4E-	4E-	2.r	2.r	2.r
2r	.	.	4r	4r	4r	4r	4r	2r	2r	2r	2r	2r	.	.	.
.	.	.	8.B-	8.B-	8.B-	8.BB-	8.BB-	.	.	.	.	.	.	.	.
.	.	.	16B-	16B-	16B-	16BB-	16BB-	.	.	.	.	.	.	.	.
=112	=112	=112	=112	=112	=112	=112	=112	=112	=112	=112	=112	=112	=112	=112	=112
2.r	2.r	2.r	8e-	8e-	8e-	8E-	8E-	2.r	2.r	2.r	2.r	2.r	2.r	2.r	2.r
.	.	.	8B-	8B-	8B-	8BB-	8BB-	.	.	.	.	.	.	.	.
.	.	.	8e-	8e-	8e-	8E-	8E-	.	.	.	.	.	.	.	.
.	.	.	8B-	8B-	8B-	8BB-	8BB-	.	.	.	.	.	.	.	.
.	.	.	8e-	8e-	8e-	8E-	8E-	.	.	.	.	.	.	.	.
.	.	.	8B-	8B-	8B-	8BB-	8BB-	.	.	.	.	.	.	.	.
=113	=113	=113	=113	=113	=113	=113	=113	=113	=113	=113	=113	=113	=113	=113	=113
2.r	2.r	2.r	8e-	8e-	8e-	8E-	8E-	2.r	2.r	2.r	2.r	2.r	2.r	2.r	2.r
.	.	.	8B-	8B-	8B-	8BB-	8BB-	.	.	.	.	.	.	.	.
.	.	.	8e-	8e-	8e-	8E-	8E-	.	.	.	.	.	.	.	.
.	.	.	8B-	8B-	8B-	8BB-	8BB-	.	.	.	.	.	.	.	.
.	.	.	8e-	8e-	8e-	8E-	8E-	.	.	.	.	.	.	.	.
.	.	.	8B-	8B-	8B-	8BB-	8BB-	.	.	.	.	.	.	.	.
=114	=114	=114	=114	=114	=114	=114	=114	=114	=114	=114	=114	=114	=114	=114	=114
2.r	2.r	2.r	4e-	4e-	8e-	4E-	4E-	2.r	2.r	2.r	8e-	2.r	2.r	2.r	2.r
.	.	.	.	.	8B-	.	.	.	.	.	8B-	.	.	.	.
.	.	.	2r	2r	8e-	2r	2r	.	.	.	8e-	.	.	.	.
.	.	.	.	.	8B-	.	.	.	.	.	8B-	.	.	.	.
.	.	.	.	.	8e-	.	.	.	.	.	8e-	.	.	.	.
.	.	.	.	.	8B-	.	.	.	.	.	8B-	.	.	.	.
=115	=115	=115	=115	=115	=115	=115	=115	=115	=115	=115	=115	=115	=115	=115	=115
2.r	2.r	2.r	2.r	2.r	8e-	2.r	2.r	2.r	2.r	2.r	8e-	2.r	2.r	2.r	2.r
.	.	.	.	.	8B-	.	.	.	.	.	8B-	.	.	.	.
.	.	.	.	.	8e-	.	.	.	.	.	8e-	.	.	.	.
.	.	.	.	.	8B-	.	.	.	.	.	8B-	.	.	.	.
.	.	.	.	.	8e-	.	.	.	.	.	8e-	.	.	.	.
.	.	.	.	.	8B-	.	.	.	.	.	8B-	.	.	.	.
=116	=116	=116	=116	=116	=116	=116	=116	=116	=116	=116	=116	=116	=116	=116	=116
2.r	2.r	2.r	2.bb-	2.gg	8e-	2.r	2.r	2.r	2.r	2.r	8e-	2.r	2.r	2.r	2.r
.	.	.	.	.	8B-	.	.	.	.	.	8B-	.	.	.	.
.	.	.	.	.	8e-	.	.	.	.	.	8e-	.	.	.	.
.	.	.	.	.	8B-	.	.	.	.	.	8B-	.	.	.	.
.	.	.	.	.	8e-	.	.	.	.	.	8e-	.	.	.	.
.	.	.	.	.	8B-	.	.	.	.	.	8B-	.	.	.	.
=117	=117	=117	=117	=117	=117	=117	=117	=117	=117	=117	=117	=117	=117	=117	=117
2.r	2.r	2.r	2gg	2.ee-	8e-	2.r	2.r	2.r	2.r	2.r	8e-	2.r	2.r	2.r	2.r
.	.	.	.	.	8B-	.	.	.	.	.	8B-	.	.	.	.
.	.	.	.	.	8e-	.	.	.	.	.	8e-	.	.	.	.
.	.	.	.	.	8B-	.	.	.	.	.	8B-	.	.	.	.
.	.	.	4ee-	.	8e-	.	.	.	.	.	8e-	.	.	.	.
.	.	.	.	.	8B-	.	.	.	.	.	8B-	.	.	.	.
=118	=118	=118	=118	=118	=118	=118	=118	=118	=118	=118	=118	=118	=118	=118	=118
2.r	2.r	2.r	[2.cc#	2.g	8e-	2.r	2.r	2.r	2.r	2.r	8e-	2.r	2.r	2.r	2.r
.	.	.	.	.	8B-	.	.	.	.	.	8B-	.	.	.	.
.	.	.	.	.	8e-	.	.	.	.	.	8e-	.	.	.	.
.	.	.	.	.	8B-	.	.	.	.	.	8B-	.	.	.	.
.	.	.	.	.	8e-	.	.	.	.	.	8e-	.	.	.	.
.	.	.	.	.	8B-	.	.	.	.	.	8B-	.	.	.	.
=119	=119	=119	=119	=119	=119	=119	=119	=119	=119	=119	=119	=119	=119	=119	=119
2.r	2.r	2.r	4cc#]	4b-	8e-	2.r	2.r	2.r	2.r	2.r	8e-	2.r	2.r	2.r	2.r
.	.	.	.	.	8B-	.	.	.	.	.	8B-	.	.	.	.
.	.	.	4cc#	4a	8e-	.	.	.	.	.	8e-	.	.	.	.
.	.	.	.	.	8B-	.	.	.	.	.	8B-	.	.	.	.
.	.	.	4cc#	4g	8e-	.	.	.	.	.	8e-	.	.	.	.
.	.	.	.	.	8B-	.	.	.	.	.	8B-	.	.	.	.
=120	=120	=120	=120	=120	=120	=120	=120	=120	=120	=120	=120	=120	=120	=120	=120
2.ddd	2.r	2.r	2.ddd	2.dd	2.d	2.d	2.d	2.ddd	2.ddd	2.ddd	2.d	2.d	2.r	2.r	2.r
=121	=121	=121	=121	=121	=121	=121	=121	=121	=121	=121	=121	=121	=121	=121	=121
2aa	2.r	2.r	2aa	2a	2A	2A	2A	2aa	2aa	2aa	2A	2A	2.r	2.r	2.r
4ff#	.	.	4ff#	4f#	4F#	4F#	4F#	4ff#	4ff#	4ff#	4F#	4F#	.	.	.
=122	=122	=122	=122	=122	=122	=122	=122	=122	=122	=122	=122	=122	=122	=122	=122
4dd	2.r	2.r	4dd	4d	4D	4D	4D	4dd	4dd	4dd	4D	4D	2.r	2.r	2.r
4r	.	.	4r	4r	4r	4r	4r	4r	4r	4r	4r	4r	.	.	.
8.a	.	.	8.a	8.A	8.A	8.AA	8.AA	8.a	8.a	8.a	8.AA	8.AA	.	.	.
16a	.	.	16a	16A	16A	16AA	16AA	16a	16a	16a	16AA	16AA	.	.	.
=123	=123	=123	=123	=123	=123	=123	=123	=123	=123	=123	=123	=123	=123	=123	=123
4dd	2.r	2.r	4dd	4d	4d	4D	4D	4dd	4dd	4dd	4D	4D	2.r	2.r	2.r
2r	.	.	2r	2r	2r	2r	2r	2r	4r	2r	2r	2r	.	.	.
.	.	.	.	.	.	.	.	.	4a	.	.	.	.	.	.
=124	=124	=124	=124	=124	=124	=124	=124	=124	=124	=124	=124	=124	=124	=124	=124
2r	2.r	2.r	2.r	2.r	2.r	2.r	2.r	2.r	[2.dd	4r	2.r	2.r	2.r	2.r	2.r
.	.	.	.	.	.	.	.	.	.	4f#	.	.	.	.	.
4dd	.	.	.	.	.	.	.	.	.	4d	.	.	.	.	.
=125	=125	=125	=125	=125	=125	=125	=125	=125	=125	=125	=125	=125	=125	=125	=125
2.ee-	2.r	2.r	2r	2.r	2.r	2.r	2.r	2.r	4dd]	4g	2.r	2.r	2.r	2.r	2.r
.	.	.	.	.	.	.	.	.	4cc	4a	.	.	.	.	.
.	.	.	8.a	.	.	.	.	.	4cc	4g	.	.	.	.	.
.	.	.	16a	.	.	.	.	.	.	.	.	.	.	.	.
=126	=126	=126	=126	=126	=126	=126	=126	=126	=126	=126	=126	=126	=126	=126	=126
2dd	2.r	2.r	4dd	2.r	2.r	2r	2r	2.r	2cc	4f#	2.r	2.r	2.r	2.r	2.r
.	.	.	2r	.	.	.	.	.	.	4a	.	.	.	.	.
4ccc	.	.	.	.	.	8.D	8.D	.	[4aa	4f#	.	.	.	.	.
.	.	.	.	.	.	16D	16D	.	.	.	.	.	.	.	.
=127	=127	=127	=127	=127	=127	=127	=127	=127	=127	=127	=127	=127	=127	=127	=127
2.bb-	2.r	2.r	2.r	2.r	2.r	4G	4G	2.r	4aa]	4g	2.r	2.r	2.r	2.r	2.r
.	.	.	.	.	.	2r	2r	.	4gg	4b-	.	.	.	.	.
.	.	.	.	.	.	.	.	.	[4gg	4ee-	.	.	.	.	.
=128	=128	=128	=128	=128	=128	=128	=128	=128	=128	=128	=128	=128	=128	=128	=128
2aa	2.r	2.r	2.r	2.r	2.r	2.r	2.r	2.r	4gg]	4cc	2.r	2.r	2.r	2.r	2.r
.	.	.	.	.	.	.	.	.	4ff#	4dd	.	.	.	.	.
4dd	.	.	.	.	.	.	.	.	[4aa	4f#	.	.	.	.	.
=129	=129	=129	=129	=129	=129	=129	=129	=129	=129	=129	=129	=129	=129	=129	=129
[2.bb-	2.r	2.r	2.r	8.dd	2.r	2.r	2.r	2.r	4aa]	4g	2.r	2.r	2.r	2.r	2.r
.	.	.	.	16dd	.	.	.	.	.	.	.	.	.	.	.
.	.	.	.	4gg	.	.	.	.	4gg	4b-	.	.	.	.	.
.	.	.	.	4r	.	.	.	.	4bb-	4d	.	.	.	.	.
=130	=130	=130	=130	=130	=130	=130	=130	=130	=130	=130	=130	=130	=130	=130	=130
4bb-]	2.r	2.r	8.gg	2.r	2.r	2r	2r	2.r	[2.ccc	4e-	2.r	2.r	2.r	2.r	2.r
.	.	.	16gg	.	.	.	.	.	.	.	.	.	.	.	.
4aa	.	.	4cc	.	.	.	.	.	.	4f	.	.	.	.	.
4ccc	.	.	4r	.	.	8.F	8.F	.	.	4a	.	.	.	.	.
.	.	.	.	.	.	16F	16F	.	.	.	.	.	.	.	.
=131	=131	=131	=131	=131	=131	=131	=131	=131	=131	=131	=131	=131	=131	=131	=131
[2.ddd	2.r	2.r	2.r	2.r	4r	4B-	4B-	2.r	4ccc]	4b-	2.r	2.r	2.r	2.r	2.r
.	.	.	.	.	8.g	2r	2r	.	4bb-	4g	.	.	.	.	.
.	.	.	.	.	16g	.	.	.	.	.	.	.	.	.	.
.	.	.	.	.	4dd	.	.	.	4aa	4f	.	.	.	.	.
=132	=132	=132	=132	=132	=132	=132	=132	=132	=132	=132	=132	=132	=132	=132	=132
4ddd]	2.r	2.r	2.r	4r	2.r	2.r	2.r	2.r	2gg	2e	2.r	2.r	2.r	2.r	2.r
4ccc#	.	.	.	8.b-	.	.	.	.	.	.	.	.	.	.	.
.	.	.	.	16b-	.	.	.	.	.	.	.	.	.	.	.
[4eee	.	.	.	4g	.	.	.	.	4bb-	4g	.	.	.	.	.
=133	=133	=133	=133	=133	=133	=133	=133	=133	=133	=133	=133	=133	=133	=133	=133
4eee]	2.r	2.r	4r	2.r	2.r	2.r	2.r	2.r	2.aa	2f	2.r	2.r	2.r	2.r	2.r
4ddd	.	.	8.a	.	.	.	.	.	.	.	.	.	.	.	.
.	.	.	16a	.	.	.	.	.	.	.	.	.	.	.	.
[4fff	.	.	4dd	.	.	.	.	.	.	4d	.	.	.	.	.
=134	=134	=134	=134	=134	=134	=134	=134	=134	=134	=134	=134	=134	=134	=134	=134
4fff]	2.r	2.r	2.r	2.r	2.r	2r	2r	2.r	4gg#	4e	2.r	2.r	2.r	2.r	2.r
4eee	.	.	.	.	.	.	.	.	4aa	4f#	.	.	.	.	.
4ddd	.	.	.	.	.	8.E	8.E	.	[4bb	4g#	.	.	.	.	.
.	.	.	.	.	.	16E	16E	.	.	.	.	.	.	.	.
=135	=135	=135	=135	=135	=135	=135	=135	=135	=135	=135	=135	=135	=135	=135	=135
2.ccc	2.r	2.r	2.r	2.r	2.r	4A	4A	2.r	4bb]	4a	2.r	2.r	2.r	2.r	2.r
.	.	.	.	.	.	2r	2r	.	[2aa	4cc	.	.	.	.	.
.	.	.	.	.	.	.	.	.	.	4ff	.	.	.	.	.
=136	=136	=136	=136	=136	=136	=136	=136	=136	=136	=136	=136	=136	=136	=136	=136
2.bb	2.r	2.r	2.r	8.ff	2.r	2.r	2.r	2.r	4aa]	4dd	2.r	2.r	2.r	2.r	2.r
.	.	.	.	16ff	.	.	.	.	.	.	.	.	.	.	.
.	.	.	.	4b	.	.	.	.	2gg#	4ee	.	.	.	.	.
.	.	.	.	4r	.	.	.	.	.	4dd	.	.	.	.	.
=137	=137	=137	=137	=137	=137	=137	=137	=137	=137	=137	=137	=137	=137	=137	=137
4aa	2.r	2.r	2.r	2.r	2.r	2.r	2.r	2.r	2.ee	4cc	2.r	2.r	2.r	2.r	2.r
4bb	.	.	.	.	.	.	.	.	.	4b	.	.	.	.	.
[4ccc	.	.	.	.	.	.	.	.	.	4a	.	.	.	.	.
=138	=138	=138	=138	=138	=138	=138	=138	=138	=138	=138	=138	=138	=138	=138	=138
4ccc]	2.r	2.r	2.r	2.r	2.r	2r	2r	2.r	4dd#	4b	2.r	2.r	2.r	2.r	2.r
4bb	.	.	.	.	.	.	.	.	4ee	4cc#	.	.	.	.	.
4aa	.	.	.	.	.	8.BB	8.BB	.	[4ff#	4dd#	.	.	.	.	.
.	.	.	.	.	.	16BB	16BB	.	.	.	.	.	.	.	.
=139	=139	=139	=139	=139	=139	=139	=139	=139	=139	=139	=139	=139	=139	=139	=139
4gg	2.r	2.r	2.r	2.r	2.r	4E	4E	2.r	4ff#]	4e	2.r	2.r	2.r	2.r	2.r
4aa	.	.	.	.	.	2r	2r	.	4ee	4f#	.	.	.	.	.
[4bb-	.	.	.	.	.	.	.	.	4dd	4g	.	.	.	.	.
=140	=140	=140	=140	=140	=140	=140	=140	=140	=140	=140	=140	=140	=140	=140	=140
4bb-]	2.r	2.r	2r	2.r	2.r	2.r	2.r	2.r	4cc#	4a	2.r	2.r	2.r	2.r	2.r
4aa	.	.	.	.	.	.	.	.	4dd	4b	.	.	.	.	.
4gg	.	.	8.aa	.	.	.	.	.	[4ee	4cc#	.	.	.	.	.
.	.	.	16aa	.	.	.	.	.	.	.	.	.	.	.	.
=141	=141	=141	=141	=141	=141	=141	=141	=141	=141	=141	=141	=141	=141	=141	=141
4ff	2.r	2.r	4ddd	2.r	2.r	2.r	2.r	2.r	4ee]	4d	2.r	2.r	2.r	2.r	2.r
4gg	.	.	2r	.	.	.	.	.	4dd	4e	.	.	.	.	.
[4aa	.	.	.	.	.	.	.	.	4cc	4f	.	.	.	.	.
=142	=142	=142	=142	=142	=142	=142	=142	=142	=142	=142	=142	=142	=142	=142	=142
4aa]	2.r	2.r	2.r	2r	2.r	2.r	2.r	2.r	4b	4g	2.r	2.r	2.r	2.r	2.r
4gg	.	.	.	.	.	.	.	.	4cc	4a	.	.	.	.	.
4ff	.	.	.	8.G	.	.	.	.	4dd	4b	.	.	.	.	.
.	.	.	.	16G	.	.	.	.	.	.	.	.	.	.	.
=143	=143	=143	=143	=143	=143	=143	=143	=143	=143	=143	=143	=143	=143	=143	=143
4ee	2.cc	4C	8r	4c	2.cc	2.c	2.c	2.r	2cc	2cc	8r	8r	2.cc	2.cc	2.cc
.	.	.	8c	.	.	.	.	.	.	.	8C	8C	.	.	.
2r	.	2r	8d	2r	.	.	.	.	.	.	8D	8D	.	.	.
.	.	.	8e	.	.	.	.	.	.	.	8E	8E	.	.	.
.	.	.	8f	.	.	.	.	.	4r	4r	8F	8F	.	.	.
.	.	.	8g	.	.	.	.	.	.	.	8G	8G	.	.	.
=144	=144	=144	=144	=144	=144	=144	=144	=144	=144	=144	=144	=144	=144	=144	=144
2.r	2.g	4GG	8a	2.r	2g	2G	2G	2.r	2.r	2.r	8A	8A	2.g	2.g	2.g
.	.	.	8b	.	.	.	.	.	.	.	8B	8B	.	.	.
.	.	2r	8cc	.	.	.	.	.	.	.	8c	8c	.	.	.
.	.	.	8dd	.	.	.	.	.	.	.	8d	8d	.	.	.
.	.	.	8ee	.	4e	4E	4E	.	.	.	8e	8e	.	.	.
.	.	.	8ff	.	.	.	.	.	.	.	8f	8f	.	.	.
=145	=145	=145	=145	=145	=145	=145	=145	=145	=145	=145	=145	=145	=145	=145	=145
[2.eee	2e	2.r	8gg	[2.e 2.A	[2.c#	[2.C#	[2.C#	[2.eee	[2.gg	[2.a	8g	8g	2e	2e	2e
.	.	.	8ff	.	.	.	.	.	.	.	8f	8f	.	.	.
.	.	.	8ee	.	.	.	.	.	.	.	8e	8e	.	.	.
.	.	.	8dd	.	.	.	.	.	.	.	8d	8d	.	.	.
.	4r	.	8cc#	.	.	.	.	.	.	.	8c#	8c#	4r	4r	4r
.	.	.	8b-	.	.	.	.	.	.	.	8B-	8B-	.	.	.
=146	=146	=146	=146	=146	=146	=146	=146	=146	=146	=146	=146	=146	=146	=146	=146
2.eee]	2.r	2.r	8a	4e 4A]	4c#]	4C#]	4C#]	2.eee]	2.gg]	2.a]	8A	8A	2.r	2.r	2.r
.	.	.	8g	.	.	.	.	.	.	.	8G	8G	.	.	.
.	.	.	8f	4e 4A	2r	2r	2r	.	.	.	8F	8F	.	.	.
.	.	.	8e	.	.	.	.	.	.	.	8E	8E	.	.	.
.	.	.	8d	4e 4A	.	.	.	.	.	.	8D	8D	.	.	.
.	.	.	8c#	.	.	.	.	.	.	.	8C#	8C#	.	.	.
=147	=147	=147	=147	=147	=147	=147	=147	=147	=147	=147	=147	=147	=147	=147	=147
2ddd	2.dd	2.r	8r	4f 4A	2.dd	2.d	2.d	2ddd	4ff	4a	8r	8r	2.dd	2.dd	2.dd
.	.	.	8d	.	.	.	.	.	.	.	8D	8D	.	.	.
.	.	.	8e	2r	.	.	.	.	2r	2r	8E	8E	.	.	.
.	.	.	8f	.	.	.	.	.	.	.	8F	8F	.	.	.
4r	.	.	8g	.	.	.	.	4r	.	.	8G	8G	.	.	.
.	.	.	8a	.	.	.	.	.	.	.	8A	8A	.	.	.
=148	=148	=148	=148	=148	=148	=148	=148	=148	=148	=148	=148	=148	=148	=148	=148
2.r	2.r	2.r	8b	2.r	2a	2A	2A	2.r	2.r	2.r	8B	8B	2.r	2.r	2.r
.	.	.	8cc#	.	.	.	.	.	.	.	8c#	8c#	.	.	.
.	.	.	8dd	.	.	.	.	.	.	.	8d	8d	.	.	.
.	.	.	8ee	.	.	.	.	.	.	.	8e	8e	.	.	.
.	.	.	8ff	.	4f	4F	4F	.	.	.	8f	8f	.	.	.
.	.	.	8gg	.	.	.	.	.	.	.	8g	8g	.	.	.
=149	=149	=149	=149	=149	=149	=149	=149	=149	=149	=149	=149	=149	=149	=149	=149
[2.fff#	2.r	2.r	8aa	[2.B 2.f#	[2.d#	[2.D#	[2.D#	[2.fff#	[2.aa	[2.b	8a	8a	2.r	2.r	2.r
.	.	.	8gg	.	.	.	.	.	.	.	8g	8g	.	.	.
.	.	.	8ff#	.	.	.	.	.	.	.	8f#	8f#	.	.	.
.	.	.	8ee	.	.	.	.	.	.	.	8e	8e	.	.	.
.	.	.	8dd#	.	.	.	.	.	.	.	8d#	8d#	.	.	.
.	.	.	8cc	.	.	.	.	.	.	.	8c	8c	.	.	.
=150	=150	=150	=150	=150	=150	=150	=150	=150	=150	=150	=150	=150	=150	=150	=150
2.fff#]	2.r	2.r	8b	4B 4f#]	4d#]	4D#]	4D#]	2.fff#]	2.aa]	2.b]	8B	8B	2.r	2.r	2.r
.	.	.	8a	.	.	.	.	.	.	.	8A	8A	.	.	.
.	.	.	8g	4f# 4B	2r	2r	2r	.	.	.	8G	8G	.	.	.
.	.	.	8f#	.	.	.	.	.	.	.	8F#	8F#	.	.	.
.	.	.	8e	4f# 4B	.	.	.	.	.	.	8E	8E	.	.	.
.	.	.	8d#	.	.	.	.	.	.	.	8D#	8D#	.	.	.
=151	=151	=151	=151	=151	=151	=151	=151	=151	=151	=151	=151	=151	=151	=151	=151
2.eee	2.ee	2.r	2.ee	2.ee	8r	8r	8r	2.eee	4gg	4b	8E	8E	2.ee	2.ee	2.ee
.	.	.	.	.	8ee	8e	8e	.	.	.	8e	8e	.	.	.
.	.	.	.	.	8dd	8d	8d	.	2r	2r	8d	8d	.	.	.
.	.	.	.	.	8cc	8c	8c	.	.	.	8c	8c	.	.	.
.	.	.	.	.	8b	8B	8B	.	.	.	8B	8B	.	.	.
.	.	.	.	.	8a	8A	8A	.	.	.	8A	8A	.	.	.
=152	=152	=152	=152	=152	=152	=152	=152	=152	=152	=152	=152	=152	=152	=152	=152
2bb	2.r	2.r	2b	2b	8g	8G	8G	2bb	2.r	2.r	8G	8G	2.r	2.r	2.r
.	.	.	.	.	8a	8A	8A	.	.	.	8A	8A	.	.	.
.	.	.	.	.	8g	8G	8G	.	.	.	8G	8G	.	.	.
.	.	.	.	.	8f#	8F#	8F#	.	.	.	8F#	8F#	.	.	.
4gg	.	.	4g	4g	8e	8E	8E	4gg	.	.	8E	8E	.	.	.
.	.	.	.	.	8d	8D	8D	.	.	.	8D	8D	.	.	.
=153	=153	=153	=153	=153	=153	=153	=153	=153	=153	=153	=153	=153	=153	=153	=153
2ee	2.r	2.r	2e	2e	8c	8C	8C	2ee	2.r	2.r	8C	8C	2.r	2.r	2.r
.	.	.	.	.	8d	8D	8D	.	.	.	8D	8D	.	.	.
.	.	.	.	.	8c	8C	8C	.	.	.	8C	8C	.	.	.
.	.	.	.	.	8B	8BB	8BB	.	.	.	8BB	8BB	.	.	.
4r	.	.	4c	4c	8A	8AA	8AA	4r	.	.	8AA	8AA	.	.	.
.	.	.	.	.	8G	8GG	8GG	.	.	.	8GG	8GG	.	.	.
=154	=154	=154	=154	=154	=154	=154	=154	=154	=154	=154	=154	=154	=154	=154	=154
2.r	2.r	2.r	8A	8A	2.F#	2.FF#	2.FF#	2.r	2.r	2.r	4FF#	4FF#	2.r	2.r	2.r
.	.	.	8cc	8cc	.	.	.	.	.	.	.	.	.	.	.
.	.	.	8a	8a	.	.	.	.	.	.	2r	2r	.	.	.
.	.	.	8g	8g	.	.	.	.	.	.	.	.	.	.	.
.	.	.	8f#	8f#	.	.	.	.	.	.	.	.	.	.	.
.	.	.	8e	8e	.	.	.	.	.	.	.	.	.	.	.
=155	=155	=155	=155	=155	=155	=155	=155	=155	=155	=155	=155	=155	=155	=155	=155
2.r	2.r	2.r	8d#	8d#	2B	2.BB	2.BB	2.r	2.r	2.r	2.r	2.r	2.r	2.r	2.r
.	.	.	8ff#	8ff#	.	.	.	.	.	.	.	.	.	.	.
.	.	.	8dd#	8dd#	.	.	.	.	.	.	.	.	.	.	.
.	.	.	8cc	8cc	.	.	.	.	.	.	.	.	.	.	.
.	.	.	8b	8b	4d#	.	.	.	.	.	.	.	.	.	.
.	.	.	8a	8a	.	.	.	.	.	.	.	.	.	.	.
=156	=156	=156	=156	=156	=156	=156	=156	=156	=156	=156	=156	=156	=156	=156	=156
2.gg	2.r	2.r	8g	8g	8e	8E	8E	2.gg	2.ee	2.g	[2.B	[2.B	2.r	2.r	2.r
.	.	.	8bb	8b	8g 8B	8E	8E	.	.	.	.	.	.	.	.
.	.	.	8aa	8a	8g 8B	8E	8E	.	.	.	.	.	.	.	.
.	.	.	8gg	8g	8g 8B	8E	8E	.	.	.	.	.	.	.	.
.	.	.	8ff#	8f#	8g 8B	8E	8E	.	.	.	.	.	.	.	.
.	.	.	8ee	8e	8g 8B	8E	8E	.	.	.	.	.	.	.	.
=157	=157	=157	=157	=157	=157	=157	=157	=157	=157	=157	=157	=157	=157	=157	=157
2.dd#	2.r	2.r	8dd#	8d#	8a 8B	8F#	8F#	2.dd#	2.dd#	2.a	2.B]	2.B]	2.r	2.r	2.r
.	.	.	8ccc	8cc	8a 8B	8F#	8F#	.	.	.	.	.	.	.	.
.	.	.	8bb	8b	8a 8B	8F#	8F#	.	.	.	.	.	.	.	.
.	.	.	8aa	8a	8a 8B	8F#	8F#	.	.	.	.	.	.	.	.
.	.	.	8gg	8g	8a 8B	8F#	8F#	.	.	.	.	.	.	.	.
.	.	.	8ff#	8f#	8a 8B	8F#	8F#	.	.	.	.	.	.	.	.
=158	=158	=158	=158	=158	=158	=158	=158	=158	=158	=158	=158	=158	=158	=158	=158
2.ee	2.r	2.r	8ee	8e	8b	8G	8G	2.ee	[2.ee	[2.b	[2.B	[2.B	2.r	2.r	2.r
.	.	.	8bb	8b	8b	8G	8G	.	.	.	.	.	.	.	.
.	.	.	8aa	8a	8b	8G	8G	.	.	.	.	.	.	.	.
.	.	.	8gg	8g	8b	8G	8G	.	.	.	.	.	.	.	.
.	.	.	8ff#	8f#	8b	8G	8G	.	.	.	.	.	.	.	.
.	.	.	8ee	8e	8b	8G	8G	.	.	.	.	.	.	.	.
=159	=159	=159	=159	=159	=159	=159	=159	=159	=159	=159	=159	=159	=159	=159	=159
2.eee	2.r	2.r	8eee	8ee	8b 8e	8G	8G	2.eee	2.ee]	2.b]	2.B]	2.B]	2.r	2.r	2.r
.	.	.	8bb	8b	8e 8b	8G	8G	.	.	.	.	.	.	.	.
.	.	.	8aa	8a	8b 8e	8G	8G	.	.	.	.	.	.	.	.
.	.	.	8gg	8g	8b 8e	8G	8G	.	.	.	.	.	.	.	.
.	.	.	8ff#	8f#	8b 8e	8G	8G	.	.	.	.	.	.	.	.
.	.	.	8ee	8e	8b 8e	8G	8G	.	.	.	.	.	.	.	.
=160	=160	=160	=160	=160	=160	=160	=160	=160	=160	=160	=160	=160	=160	=160	=160
[2.ddd	[2.g	4GG	8ff	4d	8b 8f	8G	8G	[2.ddd	2.ff	2.b	[2.d	[2.F	[2.dd	[2.g	[2.dd
.	.	.	8aa	.	8b 8f	8G	8G	.	.	.	.	.	.	.	.
.	.	4GG	8gg	4G 4b 4f	8b 8f	8G	8G	.	.	.	.	.	.	.	.
.	.	.	8ff	.	8b 8f	8G	8G	.	.	.	.	.	.	.	.
.	.	4GG	8ee	4f 4b 4G	8b 8f	8G	8G	.	.	.	.	.	.	.	.
.	.	.	8ff	.	8b 8f	8G	8G	.	.	.	.	.	.	.	.
=161	=161	=161	=161	=161	=161	=161	=161	=161	=161	=161	=161	=161	=161	=161	=161
2.ddd_	2.g_	4GG	8ddd	4b 4G 4f	8b 8f	8G	8G	2.ddd_	[2.bb	[2.ff	2.d_	2.F_	2.dd_	2.g_	2.dd_
.	.	.	8ccc	.	8f 8b	8G	8G	.	.	.	.	.	.	.	.
.	.	8GG	8bb	8ff	8f 8b	8G	8G	.	.	.	.	.	.	.	.
.	.	8GG	8ccc	8ee	8b 8f	8G	8G	.	.	.	.	.	.	.	.
.	.	8GG	8ddd	8dd	8b 8f	8G	8G	.	.	.	.	.	.	.	.
.	.	8GG	8eee	8cc	8b 8f	8G	8G	.	.	.	.	.	.	.	.
=162	=162	=162	=162	=162	=162	=162	=162	=162	=162	=162	=162	=162	=162	=162	=162
4ddd]	4g]	4GG	8fff	8ddd	4b 4f	4G	4G	4ddd]	4bb]	4ff]	4d]	4F]	4dd]	4g]	4dd]
.	.	.	8eee	8ccc	.	.	.	.	.	.	.	.	.	.	.
2r	2r	2r	8ddd	8bb	2r	2r	2r	2r	2r	2r	2r	2r	2r	2r	2r
.	.	.	8ccc	8aa	.	.	.	.	.	.	.	.	.	.	.
.	.	.	8bb	8gg	.	.	.	.	.	.	.	.	.	.	.
.	.	.	8aa	8ff	.	.	.	.	.	.	.	.	.	.	.
=163	=163	=163	=163	=163	=163	=163	=163	=163	=163	=163	=163	=163	=163	=163	=163
2.r	2.r	2.r	8gg	8ee	2.r	2.r	2.r	2.r	2.r	2.r	2.r	2.r	2.r	2.r	2.r
.	.	.	8ff	8dd	.	.	.	.	.	.	.	.	.	.	.
.	.	.	8ee	8cc	.	.	.	.	.	.	.	.	.	.	.
.	.	.	8dd	8b	.	.	.	.	.	.	.	.	.	.	.
.	.	.	8cc	8a	.	.	.	.	.	.	.	.	.	.	.
.	.	.	8b	8g	.	.	.	.	.	.	.	.	.	.	.
=164	=164	=164	=164	=164	=164	=164	=164	=164	=164	=164	=164	=164	=164	=164	=164
2.r	2.r	2.r	8a	8f	2.r	2.r	2.r	2.r	2.r	2.r	2.r	2.r	2.r	2.r	2.r
.	.	.	8g	8e	.	.	.	.	.	.	.	.	.	.	.
.	.	.	8f	8d	.	.	.	.	.	.	.	.	.	.	.
.	.	.	8e	8c	.	.	.	.	.	.	.	.	.	.	.
.	.	.	8d	8B	.	.	.	.	.	.	.	.	.	.	.
.	.	.	8c	8A	.	.	.	.	.	.	.	.	.	.	.
=165	=165	=165	=165	=165	=165	=165	=165	=165	=165	=165	=165	=165	=165	=165	=165
2.r	2.r	2.r	8B	8G	2.r	2.r	2.r	2.r	2.r	2.r	2.r	2.r	2.r	2.r	2.r
.	.	.	8c	8A	.	.	.	.	.	.	.	.	.	.	.
.	.	.	8d	8B	.	.	.	.	.	.	.	.	.	.	.
.	.	.	8e	8c	.	.	.	.	.	.	.	.	.	.	.
.	.	.	8f	8d	.	.	.	.	.	.	.	.	.	.	.
.	.	.	8g	8e	.	.	.	.	.	.	.	.	.	.	.
=166	=166	=166	=166	=166	=166	=166	=166	=166	=166	=166	=166	=166	=166	=166	=166
2.r	2.r	2.r	8a	8f	2.r	2.r	2.r	2.r	2.r	2.r	2.r	2.r	2.r	2.r	2.r
.	.	.	8g	8e	.	.	.	.	.	.	.	.	.	.	.
.	.	.	8f	8d	.	.	.	.	.	.	.	.	.	.	.
.	.	.	8g	8e	.	.	.	.	.	.	.	.	.	.	.
.	.	.	8a	8f	.	.	.	.	.	.	.	.	.	.	.
.	.	.	8b	8d	.	.	.	.	.	.	.	.	.	.	.
=167	=167	=167	=167	=167	=167	=167	=167	=167	=167	=167	=167	=167	=167	=167	=167
2.ccc	2.cc	4C	2.cc	2.cc	2.cc	2.c	2.c	2.ccc	2.ccc	2.ccc	2.c	2.c	2.cc	2.cc	2.cc
.	.	2r	.	.	.	.	.	.	.	.	.	.	.	.	.
=168	=168	=168	=168	=168	=168	=168	=168	=168	=168	=168	=168	=168	=168	=168	=168
2gg	2g	4GG	2g	2g	2g	2G	2G	2gg	2gg	2gg	2G	2G	2gg	2gg	2g
.	.	2r	.	.	.	.	.	.	.	.	.	.	.	.	.
4ee	4e	.	4e	4e	4e	4E	4E	4ee	4ee	4ee	4E	4E	4ee	4ee	4e
=169	=169	=169	=169	=169	=169	=169	=169	=169	=169	=169	=169	=169	=169	=169	=169
4cc	4c	4C	4c	4c	4c	4C	4C	4cc	4cc	4cc	4C	4C	4cc	4cc	4c
4r	4r	4r	4r	4r	4r	4r	4r	4r	4r	4r	4r	4r	4r	4r	4r
4g	4G	4GG	4G	4G	4G	4GG	4GG	4g	4g	4g	4GG	4GG	4g	4g	4g
=170	=170	=170	=170	=170	=170	=170	=170	=170	=170	=170	=170	=170	=170	=170	=170
4cc	4c	4C	4c	4c	4c	4C	4C	4cc	4cc	4cc	4C	4C	4cc	4c	4cc
4r	4r	4r	4r	4r	4r	4r	4r	4r	4r	4r	4r	4r	4r	4r	4r
8.g	8.G	8.GG	8.G	8.G	8.G	8.GG	8.GG	8.g	8.g	8.g	8.GG	8.GG	8.g	8.G	8.g
16g	16G	16GG	16G	16G	16G	16GG	16GG	16g	16g	16g	16GG	16GG	16g	16G	16g
=171	=171	=171	=171	=171	=171	=171	=171	=171	=171	=171	=171	=171	=171	=171	=171
4cc	4c	4C	4c	4c	4c	4C	4C	4cc	4cc	4cc	4C	4C	4cc	4c	4cc
4r	4r	4r	4r	4r	4r	4r	4r	4r	4r	4r	4r	4r	4r	4r	4r
8.g	8.G	8.GG	8.G	8.G	8.G	8.GG	8.GG	8.g	8.g	8.g	8.GG	8.GG	8.g	8.G	8.g
16g	16G	16GG	16G	16G	16G	16GG	16GG	16g	16g	16g	16GG	16GG	16g	16G	16g
=172	=172	=172	=172	=172	=172	=172	=172	=172	=172	=172	=172	=172	=172	=172	=172
8cc	8c	8C	8c	8c	8c	8C	8C	8cc	8cc	8cc	8C	8C	8cc	8c	8cc
8g	8G	8GG	8G	8G	8G	8GG	8GG	8g	8g	8g	8GG	8GG	8g	8G	8g
8cc	8c	8C	8c	8c	8c	8C	8C	8cc	8cc	8cc	8C	8C	8cc	8c	8cc
8g	8G	8GG	8G	8G	8G	8GG	8GG	8g	8g	8g	8GG	8GG	8g	8G	8g
8cc	8c	8C	8c	8c	8c	8C	8C	8cc	8cc	8cc	8C	8C	8cc	8c	8cc
8g	8G	8GG	8G	8G	8G	8GG	8GG	8g	8g	8g	8GG	8GG	8g	8G	8g
=173	=173	=173	=173	=173	=173	=173	=173	=173	=173	=173	=173	=173	=173	=173	=173
8cc	8c	8C	8c	8c	8c	8C	8C	8cc	8cc	8cc	8C	8C	8cc	8c	8cc
8g	8G	8GG	8G	8G	8G	8GG	8GG	8g	8g	8g	8GG	8GG	8g	8G	8g
8cc	8c	8C	8c	8c	8c	8C	8C	8cc	8cc	8cc	8C	8C	8cc	8c	8cc
8g	8G	8GG	8G	8G	8G	8GG	8GG	8g	8g	8g	8GG	8GG	8g	8G	8g
8cc	8c	8C	8c	8c	8c	8C	8C	8cc	8cc	8cc	8C	8C	8cc	8c	8cc
8g	8G	8GG	8G	8G	8G	8GG	8GG	8g	8g	8g	8GG	8GG	8g	8G	8g
=174	=174	=174	=174	=174	=174	=174	=174	=174	=174	=174	=174	=174	=174	=174	=174
4cc	[2.c	8C	4c	4c	8c	8C	8C	4cc	4cc	4cc	2.C	2.C	2.cc	[2.c	[2.cc
.	.	8C	.	.	8c	8C	8C	.	.	.	.	.	.	.	.
4ee	.	8C	4e	4e	8c	8C	8C	4ee	4ee	4ee	.	.	.	.	.
.	.	8C	.	.	8c	8C	8C	.	.	.	.	.	.	.	.
4gg	.	8C	4g	4g	8c	8C	8C	4gg	4gg	4gg	.	.	.	.	.
.	.	8C	.	.	8c	8C	8C	.	.	.	.	.	.	.	.
=175	=175	=175	=175	=175	=175	=175	=175	=175	=175	=175	=175	=175	=175	=175	=175
2.ccc	2.c]	8C	4cc	2.cc	8c	8EE	8EE	2.ccc	[2.gg	2.cc	2.E	2.E	2.gg	2.c]	2.cc]
.	.	8C	.	.	8c	8EE	8EE	.	.	.	.	.	.	.	.
.	.	8C	4ee	.	8c	8EE	8EE	.	.	.	.	.	.	.	.
.	.	8C	.	.	8c	8EE	8EE	.	.	.	.	.	.	.	.
.	.	8C	4gg	.	8c	8EE	8EE	.	.	.	.	.	.	.	.
.	.	8C	.	.	8c	8EE	8EE	.	.	.	.	.	.	.	.
=176	=176	=176	=176	=176	=176	=176	=176	=176	=176	=176	=176	=176	=176	=176	=176
2.aa	4c	4C	4gg	4a	4c	4FF	4FF	2.aa	4gg]	2.aa	2.F	2.F	4cc	4c	4cc
.	2r	2r	8ff	2r	2r	2r	2r	.	8ff	.	.	.	2r	2r	2r
.	.	.	8ee	.	.	.	.	.	8ee	.	.	.	.	.	.
.	.	.	8dd	.	.	.	.	.	8dd	.	.	.	.	.	.
.	.	.	8cc	.	.	.	.	.	8cc	.	.	.	.	.	.
=177	=177	=177	=177	=177	=177	=177	=177	=177	=177	=177	=177	=177	=177	=177	=177
4dd	4g	4GG	4d 4b	4f 4G	4G	4GG	4GG	4dd	4b	4ff	2.G	2.G	4dd	4g	4dd
4dd	4g	4GG	4b 4d	4f 4G	4G	4GG	4GG	4dd	4b	4ff	.	.	4dd	4g	4dd
4dd	4g	4GG	4d 4b	4G 4f	4G	4GG	4GG	4dd	4b	4ff	.	.	4dd	4g	4dd
=178	=178	=178	=178	=178	=178	=178	=178	=178	=178	=178	=178	=178	=178	=178	=178
4ee	4cc	4C	4cc 4e	4G 4e	4c	4C	4C	4ee	4cc	4ee	4C	4C	4ee	4cc	4ee
2r	2r	2r	2r	2r	2r	2r	2r	2r	8aa	2r	2r	2r	2r	2r	2r
.	.	.	.	.	.	.	.	.	8gg	.	.	.	.	.	.
.	.	.	.	.	.	.	.	.	8ff	.	.	.	.	.	.
.	.	.	.	.	.	.	.	.	8ee	.	.	.	.	.	.
=179	=179	=179	=179	=179	=179	=179	=179	=179	=179	=179	=179	=179	=179	=179	=179
2.r	2.r	2.r	2.r	2.r	2.r	2.r	2.r	2.r	4dd	4b	4g	2.r	2.r	2.r	2.r
.	.	.	.	.	.	.	.	.	4dd	4b	4g	.	.	.	.
.	.	.	.	.	.	.	.	.	4dd	4b	4g	.	.	.	.
=180	=180	=180	=180	=180	=180	=180	=180	=180	=180	=180	=180	=180	=180	=180	=180
2.r	2.r	2.r	4r	2.r	2.r	2.r	2.r	2.r	4ee	4cc	4c	2.r	2.r	2.r	2.r
.	.	.	8ff	.	.	.	.	.	2r	2r	2r	.	.	.	.
.	.	.	8ee	.	.	.	.	.	.	.	.	.	.	.	.
.	.	.	8dd	.	.	.	.	.	.	.	.	.	.	.	.
.	.	.	8cc	.	.	.	.	.	.	.	.	.	.	.	.
=181	=181	=181	=181	=181	=181	=181	=181	=181	=181	=181	=181	=181	=181	=181	=181
2.r	2.r	2.r	4b	4f	4d	4G	4G	2.r	2.r	2.r	2.r	2.r	4dd	4g	2.r
.	.	.	4b	4f	4d	4G	4G	.	.	.	.	.	4dd	4g	.
.	.	.	4b	4f	4d	4G	4G	.	.	.	.	.	4dd	4g	.
=182	=182	=182	=182	=182	=182	=182	=182	=182	=182	=182	=182	=182	=182	=182	=182
2.r	2.r	2.r	4cc	4e	4e	4C	4C	2.r	4r	2.r	2.r	2.r	4ee	4cc	2.r
.	.	.	2r	2r	2r	2r	2r	.	8aa	.	.	.	2r	2r	.
.	.	.	.	.	.	.	.	.	8gg	.	.	.	.	.	.
.	.	.	.	.	.	.	.	.	8ff	.	.	.	.	.	.
.	.	.	.	.	.	.	.	.	8ee	.	.	.	.	.	.
=183	=183	=183	=183	=183	=183	=183	=183	=183	=183	=183	=183	=183	=183	=183	=183
2.r	2.r	2.r	2.r	2.r	2.r	2.r	2.r	2.r	4dd	4b	4g	2.r	2.r	2.r	2.r
.	.	.	.	.	.	.	.	.	4dd	4b	4g	.	.	.	.
.	.	.	.	.	.	.	.	.	4dd	4b	4g	.	.	.	.
=184	=184	=184	=184	=184	=184	=184	=184	=184	=184	=184	=184	=184	=184	=184	=184
4r	4r	4r	4r	4r	4r	4r	4r	4r	4ee	4cc	4c	4r	4r	4r	4r
8gg	4c	4C	4gg 4e 4cc	4gg 4e 4cc	8e	8E	8E	8gg	2r	2r	8E	8E	4cc	4c	4cc
8ccc	.	.	.	.	8c	8C	8C	8ccc	.	.	8C	8C	.	.	.
8aa	4c	4C	4aa 4cc 4f	4aa 4cc 4f	8f	8F	8F	8aa	.	.	8F	8F	4cc	4c	4cc
8ccc	.	.	.	.	8c	8C	8C	8ccc	.	.	8C	8C	.	.	.
=185	=185	=185	=185	=185	=185	=185	=185	=185	=185	=185	=185	=185	=185	=185	=185
4gg	4c	4C	4gg 4cc 4e	4e 4gg 4cc	8e	8E	8E	4gg	4r	4r	8E	8E	4cc	4c	4cc
.	.	.	.	.	8c	8C	8C	.	.	.	8C	8C	.	.	.
2r	2r	2r	2r	2r	2r	2r	2r	2r	8ccc	8aa	2r	2r	2r	2r	2r
.	.	.	.	.	.	.	.	.	8bb	8gg	.	.	.	.	.
.	.	.	.	.	.	.	.	.	8aa	8ff	.	.	.	.	.
.	.	.	.	.	.	.	.	.	8gg	8ee	.	.	.	.	.
=186	=186	=186	=186	=186	=186	=186	=186	=186	=186	=186	=186	=186	=186	=186	=186
4r	4r	4r	4r	4r	4r	4r	4r	4r	8ff	8dd	4r	4r	4r	4r	4r
.	.	.	.	.	.	.	.	.	8ee	8cc	.	.	.	.	.
8gg	4c	4C	4gg 4cc 4e	4gg 4e 4cc	8e	8E	8E	8gg	2r	2r	8E	8E	4cc	4c	4cc
8ccc	.	.	.	.	8c	8C	8C	8ccc	.	.	8C	8C	.	.	.
8aa	4c	4C	4f 4aa 4cc	4f 4aa 4cc	8f	8F	8F	8aa	.	.	8F	8F	4cc	4c	4cc
8ccc	.	.	.	.	8c	8C	8C	8ccc	.	.	8C	8C	.	.	.
=187	=187	=187	=187	=187	=187	=187	=187	=187	=187	=187	=187	=187	=187	=187	=187
4gg	4c	4C	4e 4cc 4gg	4e 4gg 4cc	8e	8E	8E	4gg	4r	4r	8E	8E	4cc	4c	4cc
.	.	.	.	.	8c	8C	8C	.	.	.	8C	8C	.	.	.
2r	2r	2r	2r	2r	2r	2r	2r	2r	8ccc	8aa	2r	2r	2r	2r	2r
.	.	.	.	.	.	.	.	.	8bb	8gg	.	.	.	.	.
.	.	.	.	.	.	.	.	.	8aa	8ff	.	.	.	.	.
.	.	.	.	.	.	.	.	.	8gg	8ee	.	.	.	.	.
=188	=188	=188	=188	=188	=188	=188	=188	=188	=188	=188	=188	=188	=188	=188	=188
2.r	2.r	2.r	4r	4r	4r	4r	4r	2.r	8ff	8dd	4r	4r	2.r	2.r	2.r
.	.	.	.	.	.	.	.	.	8ee	8cc	.	.	.	.	.
.	.	.	8cc 8gg	8gg 8cc	8e	8E	8E	.	2r	2r	8E	8E	.	.	.
.	.	.	8aa 8cc	8aa 8cc	8f	8F	8F	.	.	.	8F	8F	.	.	.
.	.	.	8gg 8cc	8gg 8cc	8e	8E	8E	.	.	.	8E	8E	.	.	.
.	.	.	8aa 8cc	8aa 8cc	8f	8F	8F	.	.	.	8F	8F	.	.	.
=189	=189	=189	=189	=189	=189	=189	=189	=189	=189	=189	=189	=189	=189	=189	=189
4r	2.r	2.r	4gg 4cc	4gg 4cc	4e	4E	4E	2.r	4r	2.r	4E	4E	2.r	2.r	2.r
8eee	.	.	2r	2r	2r	2r	2r	.	8ccc	.	2r	2r	.	.	.
8ddd	.	.	.	.	.	.	.	.	8bb	.	.	.	.	.	.
8ccc	.	.	.	.	.	.	.	.	8aa	.	.	.	.	.	.
8bb	.	.	.	.	.	.	.	.	8gg	.	.	.	.	.	.
=190	=190	=190	=190	=190	=190	=190	=190	=190	=190	=190	=190	=190	=190	=190	=190
8aa	2.r	2.r	4r	4r	4r	2.r	2.r	2.r	8ff	2.r	2.r	2.r	2.r	2.r	2.r
8gg	.	.	.	.	.	.	.	.	8ee	.	.	.	.	.	.
2r	.	.	8ff	8cc	8a	.	.	.	2r	.	.	.	.	.	.
.	.	.	8ee	8b	8g	.	.	.	.	.	.	.	.	.	.
.	.	.	8dd	8a	8f	.	.	.	.	.	.	.	.	.	.
.	.	.	8cc	8g	8e	.	.	.	.	.	.	.	.	.	.
=191	=191	=191	=191	=191	=191	=191	=191	=191	=191	=191	=191	=191	=191	=191	=191
2.r	2.r	2.r	8b	8f	8d	2.r	2.r	2.r	2.r	2.r	2.r	2.r	2.r	2.r	2.r
.	.	.	8a	8e	8c	.	.	.	.	.	.	.	.	.	.
.	.	.	8g	8d	8B	.	.	.	.	.	.	.	.	.	.
.	.	.	8f	8c	8A	.	.	.	.	.	.	.	.	.	.
.	.	.	8e	8B	8G	.	.	.	.	.	.	.	.	.	.
.	.	.	8d	8A	8F	.	.	.	.	.	.	.	.	.	.
=192	=192	=192	=192	=192	=192	=192	=192	=192	=192	=192	=192	=192	=192	=192	=192
2.r	2.r	2.r	8c	8G	8E	2.r	2.r	2.r	2.r	2.r	2.r	2.r	2.r	2.r	2.r
.	.	.	8r	8r	8r	.	.	.	.	.	.	.	.	.	.
.	.	.	8d	8A	8F	.	.	.	.	.	.	.	.	.	.
.	.	.	8r	8r	8r	.	.	.	.	.	.	.	.	.	.
.	.	.	8B	8B	8G	.	.	.	.	.	.	.	.	.	.
.	.	.	8r	8r	8r	.	.	.	.	.	.	.	.	.	.
=193	=193	=193	=193	=193	=193	=193	=193	=193	=193	=193	=193	=193	=193	=193	=193
8cc	8c	8C	8c	8c	8c	8C	8C	8cc	8cc	8cc	8c	8c	8cc	8c	8cc
8g	8G	8GG	8G	8G	8G	8GG	8GG	8g	8g	8g	8G	8G	8g	8G	8g
8cc	8c	8C	8c	8c	8c	8C	8C	8cc	8cc	8cc	8c	8c	8cc	8c	8cc
8g	8G	8GG	8G	8G	8G	8GG	8GG	8g	8g	8g	8G	8G	8g	8G	8g
8cc	8c	8C	8c	8c	8c	8C	8C	8cc	8cc	8cc	8c	8c	8cc	8c	8cc
8g	8G	8GG	8G	8G	8G	8GG	8GG	8g	8g	8g	8G	8G	8g	8G	8g
=194	=194	=194	=194	=194	=194	=194	=194	=194	=194	=194	=194	=194	=194	=194	=194
8cc	8c	8C	8c	8c	8c	8C	8C	8cc	8cc	8cc	8c	8c	8cc	8c	8cc
8g	8G	8GG	8G	8G	8G	8GG	8GG	8g	8g	8g	8G	8G	8g	8G	8g
8cc	8c	8C	8c	8c	8c	8C	8C	8cc	8cc	8cc	8c	8c	8cc	8c	8cc
8g	8G	8GG	8G	8G	8G	8GG	8GG	8g	8g	8g	8G	8G	8g	8G	8g
8cc	8c	8C	8c	8c	8c	8C	8C	8cc	8cc	8cc	8c	8c	8cc	8c	8cc
8g	8G	8GG	8G	8G	8G	8GG	8GG	8g	8g	8g	8G	8G	8g	8G	8g
=195	=195	=195	=195	=195	=195	=195	=195	=195	=195	=195	=195	=195	=195	=195	=195
2.ee-	[2.c	4C	2.ee- 2.e-	8e-	8c	8C	4AA-	2.ee-	[2.ee-	[2.cc	8c	8c	[2.cc	[2.c	[2.cc
.	.	.	.	8c	8A-	8AA-	.	.	.	.	8A-	8A-	.	.	.
.	.	4C	.	8e-	8c	8C	4AA-	.	.	.	8c	8c	.	.	.
.	.	.	.	8c	8A-	8AA-	.	.	.	.	8A-	8A-	.	.	.
.	.	4C	.	8e-	8c	8C	4AA-	.	.	.	8c	8c	.	.	.
.	.	.	.	8c	8A-	8AA-	.	.	.	.	8A-	8A-	.	.	.
=196	=196	=196	=196	=196	=196	=196	=196	=196	=196	=196	=196	=196	=196	=196	=196
2.ccc	2.c]	4C	2cc	8e-	8c	8C	4AA-	2.ccc	2.ee-]	2.cc]	8c	8c	2.cc]	2.c]	2.cc]
.	.	.	.	8c	8A-	8AA-	.	.	.	.	8A-	8A-	.	.	.
.	.	2r	.	8e-	8c	8C	4AA-	.	.	.	8c	8c	.	.	.
.	.	.	.	8c	8A-	8AA-	.	.	.	.	8A-	8A-	.	.	.
.	.	.	4a-	8e-	8c	8C	4AA-	.	.	.	8c	8c	.	.	.
.	.	.	.	8c	8A-	8AA-	.	.	.	.	8A-	8A-	.	.	.
=197	=197	=197	=197	=197	=197	=197	=197	=197	=197	=197	=197	=197	=197	=197	=197
[2.ddd-	[2.g	2.r	4g	8d-	8E-	8EE-	4E-	[2.ddd-	[2.gg	[2.b-	8B-	8B-	[2.gg	[2.g	[2.g
.	.	.	.	8B-	8e-	8E-	.	.	.	.	8G	8G	.	.	.
.	.	.	4ddd-	8d-	8G	8GG	4E-	.	.	.	8B-	8B-	.	.	.
.	.	.	.	8B-	8e-	8E-	.	.	.	.	8G	8G	.	.	.
.	.	.	4bb-	8d-	8G	8GG	4E-	.	.	.	8B-	8B-	.	.	.
.	.	.	.	8B-	8e-	8E-	.	.	.	.	8G	8G	.	.	.
=198	=198	=198	=198	=198	=198	=198	=198	=198	=198	=198	=198	=198	=198	=198	=198
2.ddd-]	2.g]	2.r	4gg	8d-	8G	8GG	4E-	2.ddd-]	2.gg]	2.b-]	8B-	8B-	2.gg]	2.g]	2.g]
.	.	.	.	8B-	8e-	8E-	.	.	.	.	8G	8G	.	.	.
.	.	.	4dd-	8d-	8G	8GG	4E-	.	.	.	8B-	8B-	.	.	.
.	.	.	.	8B-	8e-	8E-	.	.	.	.	8G	8G	.	.	.
.	.	.	4b-	8d-	8G	8GG	4E-	.	.	.	8B-	8B-	.	.	.
.	.	.	.	8B-	8e-	8E-	.	.	.	.	8G	8G	.	.	.
=199	=199	=199	=199	=199	=199	=199	=199	=199	=199	=199	=199	=199	=199	=199	=199
[2.ccc	[2.c	2.r	2.cc	8c	8A-	8AA-	8AA-	[2.ccc	4aa-	4cc	8A-	8A-	[2.cc	[2.c	[2.cc
.	.	.	.	8e-	8c	8C	8AA-	.	.	.	8c	8c	.	.	.
.	.	.	.	8c	8A-	8AA-	8AA-	.	4ccc	4ee-	8A-	8A-	.	.	.
.	.	.	.	8e-	8c	8C	8AA-	.	.	.	8c	8c	.	.	.
.	.	.	.	8c	8A-	8AA-	8AA-	.	4ccc	4ee-	8A-	8A-	.	.	.
.	.	.	.	8e-	8c	8C	8AA-	.	.	.	8c	8c	.	.	.
=200	=200	=200	=200	=200	=200	=200	=200	=200	=200	=200	=200	=200	=200	=200	=200
2.ccc]	2.c]	2.r	2.c	8c	8G	8GG	8GG	2.ccc]	[2.ccc	[2.ee-	8G	8G	2.cc]	2.c]	2.cc]
.	.	.	.	8e-	8c	8C	8GG	.	.	.	8c	8c	.	.	.
.	.	.	.	8c	8G	8GG	8GG	.	.	.	8G	8G	.	.	.
.	.	.	.	8e-	8c	8C	8GG	.	.	.	8c	8c	.	.	.
.	.	.	.	8c	8G	8GG	8GG	.	.	.	8G	8G	.	.	.
.	.	.	.	8e-	8c	8C	8GG	.	.	.	8c	8c	.	.	.
=201	=201	=201	=201	=201	=201	=201	=201	=201	=201	=201	=201	=201	=201	=201	=201
[2.ccc	[2.c	4C	2.ee-	8c	8F#	8FF#	8FF#	[2.ccc	2.ccc_	2.ee-_	[2.F#	[2.F#	[2.cc	[2.c	[2.cc
.	.	.	.	8e-	8F#	8FF#	8FF#	.	.	.	.	.	.	.	.
.	.	2r	.	8c	8F#	8FF#	8FF#	.	.	.	.	.	.	.	.
.	.	.	.	8e-	8F#	8FF#	8FF#	.	.	.	.	.	.	.	.
.	.	.	.	8c	8F#	8FF#	8FF#	.	.	.	.	.	.	.	.
.	.	.	.	8e-	8F#	8FF#	8FF#	.	.	.	.	.	.	.	.
=202	=202	=202	=202	=202	=202	=202	=202	=202	=202	=202	=202	=202	=202	=202	=202
2.ccc]	2.c]	4C	2.f#	8c	8F#	8FF#	8FF#	2.ccc]	2.ccc]	2.ee-]	2.F#]	2.F#]	2.cc]	2.c]	2.cc]
.	.	.	.	8e-	8F#	8FF#	8FF#	.	.	.	.	.	.	.	.
.	.	2r	.	8c	8F#	8FF#	8FF#	.	.	.	.	.	.	.	.
.	.	.	.	8e-	8F#	8FF#	8FF#	.	.	.	.	.	.	.	.
.	.	.	.	8d	8F#	8FF#	8FF#	.	.	.	.	.	.	.	.
.	.	.	.	8c	8F#	8FF#	8FF#	.	.	.	.	.	.	.	.
=203	=203	=203	=203	=203	=203	=203	=203	=203	=203	=203	=203	=203	=203	=203	=203
8ccc	2g	4GG	8f#	8f#	8F#	8FF#	8FF#	8ccc	8ccc	8ee-	8F#	8F#	2g	2g	2g
8bb	.	.	8g	8g	8G	8GG	8GG	8bb	8bb	8dd	8G	8G	.	.	.
4bb	.	2r	8g	8g	8G	8GG	8GG	4bb	4bb	4dd	4G	4G	.	.	.
.	.	.	8G	8G	8G	8GG	8GG	.	.	.	.	.	.	.	.
4r	4r	.	8G	8G	8G	8GG	8GG	4r	4r	4r	4r	4r	4r	4r	4r
.	.	.	8G	8G	8G	8GG	8GG	.	.	.	.	.	.	.	.
=204	=204	=204	=204	=204	=204	=204	=204	=204	=204	=204	=204	=204	=204	=204	=204
2.r	2.r	2.r	8G	8G	8G	8GG	8GG	2.r	2.r	2.r	2.r	2.r	2.r	2.r	2.r
.	.	.	8A-	8A-	8A-	8AA-	8AA-	.	.	.	.	.	.	.	.
.	.	.	8A-	8A-	8A-	8AA-	8AA-	.	.	.	.	.	.	.	.
.	.	.	8A-	8A-	8A-	8AA-	8AA-	.	.	.	.	.	.	.	.
.	.	.	8A-	8A-	8A-	8AA-	8AA-	.	.	.	.	.	.	.	.
.	.	.	8A-	8A-	8A-	8AA-	8AA-	.	.	.	.	.	.	.	.
=205	=205	=205	=205	=205	=205	=205	=205	=205	=205	=205	=205	=205	=205	=205	=205
2.r	2.r	2.r	8A-	8A-	8A-	8AA-	8AA-	2.r	2.r	2.r	2.r	2.r	2.r	2.r	2.r
.	.	.	8d-	8d-	8d-	8D-	8D-	.	.	.	.	.	.	.	.
.	.	.	8d-	8d-	8d-	8D-	8D-	.	.	.	.	.	.	.	.
.	.	.	8d-	8d-	8d-	8D-	8D-	.	.	.	.	.	.	.	.
.	.	.	8d-	8d-	8d-	8D-	8D-	.	.	.	.	.	.	.	.
.	.	.	8d-	8d-	8d-	8D-	8D-	.	.	.	.	.	.	.	.
=206	=206	=206	=206	=206	=206	=206	=206	=206	=206	=206	=206	=206	=206	=206	=206
2.r	2.r	2.r	8d-	8d-	8d-	8D-	8D-	2.r	2.r	2.r	2.r	2.r	2.r	2.r	2.r
.	.	.	8a-	8a-	8a-	8A-	8A-	.	.	.	.	.	.	.	.
.	.	.	8a-	8a-	8a-	8A-	8A-	.	.	.	.	.	.	.	.
.	.	.	8a-	8a-	8a-	8A-	8A-	.	.	.	.	.	.	.	.
.	.	.	8a-	8a-	8a-	8A-	8A-	.	.	.	.	.	.	.	.
.	.	.	8a-	8a-	8a-	8A-	8A-	.	.	.	.	.	.	.	.
=207	=207	=207	=207	=207	=207	=207	=207	=207	=207	=207	=207	=207	=207	=207	=207
2r	2.r	2.r	8a-	8a-	8a-	8A-	8A-	2r	2r	2r	2r	2r	2.r	2.r	2.r
.	.	.	8g	8g	8g	8G	8G	.	.	.	.	.	.	.	.
.	.	.	8g	8g	8g	8G	8G	.	.	.	.	.	.	.	.
.	.	.	8f#	8f#	8f#	8F#	8F#	.	.	.	.	.	.	.	.
8ff#	.	.	8f#	8f#	8f#	8F#	8F#	8ff#	8ff#	8ff#	8F#	8F#	.	.	.
8gg	.	.	8g	8g	8g	8G	8G	8gg	8gg	8gg	8G	8G	.	.	.
=208	=208	=208	=208	=208	=208	=208	=208	=208	=208	=208	=208	=208	=208	=208	=208
4gg	2g	4GG	8g	8g	8g	8G	8G	4gg	4gg	4gg	4G	4G	2g	2g	2g
.	.	.	8G	8G	8G	8GG	8GG	.	.	.	.	.	.	.	.
4r	.	2r	8G	8G	8G	8GG	8GG	4r	4r	4r	4r	4r	.	.	.
.	.	.	8f#	8f#	8f#	8F#	8F#	.	.	.	.	.	.	.	.
8ff#	4r	.	8f#	8f#	8f#	8F#	8F#	8ff#	8ff#	8ff#	8F#	8F#	4r	4r	4r
8gg	.	.	8g	8g	8g	8G	8G	8gg	8gg	8gg	8G	8G	.	.	.
=209	=209	=209	=209	=209	=209	=209	=209	=209	=209	=209	=209	=209	=209	=209	=209
4gg	2g	4GG	8g	8g	8g	8G	8G	4gg	4gg	4gg	4G	4G	2g	2g	2g
.	.	.	8G	8G	8G	8GG	8GG	.	.	.	.	.	.	.	.
4r	.	2r	8G	8G	8G	8GG	8GG	4r	4r	4r	4r	4r	.	.	.
.	.	.	8f#	8f#	8f#	8F#	8F#	.	.	.	.	.	.	.	.
8ff#	4r	.	8f#	8f#	8f#	8F#	8F#	8ff#	8ff#	8ff#	8F#	8F#	4r	4r	4r
8gg	.	.	8g	8g	8g	8G	8G	8gg	8gg	8gg	8G	8G	.	.	.
=210	=210	=210	=210	=210	=210	=210	=210	=210	=210	=210	=210	=210	=210	=210	=210
4gg	2g	4GG	8g	8g	8g	8G	8G	4gg	4gg	4gg	4G	4G	2g	2g	2g
.	.	.	8G	8G	8G	8GG	8GG	.	.	.	.	.	.	.	.
4r	.	2r	8G	8G	8G	8GG	8GG	4r	4r	4r	4r	4r	.	.	.
.	.	.	8e	8e	8e	8E	8E	.	.	.	.	.	.	.	.
8ee	4r	.	8e	8e	8e	8E	8E	8ee	8ee	8ee	8E	8E	4r	4r	4r
8ff	.	.	8f	8f	8f	8F	8F	8ff	8ff	8ff	8F	8F	.	.	.
=211	=211	=211	=211	=211	=211	=211	=211	=211	=211	=211	=211	=211	=211	=211	=211
4ff	2g	4GG	8f	8f	8f	8F	8F	4ff	4ff	4ff	4F	4F	2g	2g	2g
.	.	.	8G	8G	8G	8GG	8GG	.	.	.	.	.	.	.	.
4r	.	2r	8G	8G	8G	8GG	8GG	4r	4r	4r	4r	4r	.	.	.
.	.	.	8e	8e	8e	8E	8E	.	.	.	.	.	.	.	.
8ee	4r	.	8e	8e	8e	8E	8E	8ee	8ee	8ee	8E	8E	4r	4r	4r
8ff	.	.	8f	8f	8f	8F	8F	8ff	8ff	8ff	8F	8F	.	.	.
=212	=212	=212	=212	=212	=212	=212	=212	=212	=212	=212	=212	=212	=212	=212	=212
4ff	2g	4GG	8f	8f	8f	8F	8F	4ff	4ff	4ff	4F	4F	2g	2g	2g
.	.	.	8G	8G	8G	8GG	8GG	.	.	.	.	.	.	.	.
4r	.	2r	8G	8G	8G	8GG	8GG	4r	4r	4r	4r	4r	.	.	.
.	.	.	8e	8e	8e	8E	8E	.	.	.	.	.	.	.	.
8ee	4r	.	8e	8e	8e	8E	8E	8ee	8ee	8ee	8E	8E	4r	4r	4r
8ff	.	.	8f	8f	8f	8F	8F	8ff	8ff	8ff	8F	8F	.	.	.
=213	=213	=213	=213	=213	=213	=213	=213	=213	=213	=213	=213	=213	=213	=213	=213
2.ff	2.g	4GG	2f	2f	2f	2F	2F	2.ff	[2.ff	2.ff	2F	2F	2.g	2.g	2.dd
.	.	8GG	.	.	.	.	.	.	.	.	.	.	.	.	.
.	.	8GG	.	.	.	.	.	.	.	.	.	.	.	.	.
.	.	8GG	4d	4d	4d	4D	4D	.	.	.	8D	8D	.	.	.
.	.	8GG	.	.	.	.	.	.	.	.	8BB	8BB	.	.	.
=214	=214	=214	=214	=214	=214	=214	=214	=214	=214	=214	=214	=214	=214	=214	=214
4bb	4g	4GG	4B	4B	4B	4BB	4BB	4bb	4ff]	4dd	4GG	4GG	4dd	4g	4dd
2r	2r	2r	2r	2r	2r	2r	2r	2r	2r	2r	2r	2r	2r	2r	2r
=215	=215	=215	=215	=215	=215	=215	=215	=215	=215	=215	=215	=215	=215	=215	=215
2.r	2.r	2.r	2.r	2.r	2.r	2.r	2.r	2.r	2.r	2.r	2.r	2.r	2.r	2.r	2.r
=216	=216	=216	=216	=216	=216	=216	=216	=216	=216	=216	=216	=216	=216	=216	=216
2.r	2.r	2.r	2.cc	8e	4e 4G	4c	4C	2.r	2.cc	2.r	4r	4r	2.r	2.r	2.r
.	.	.	.	8g	.	.	.	.	.	.	.	.	.	.	.
.	.	.	.	8cc	2r	2r	2r	.	.	.	4c	4E	.	.	.
.	.	.	.	8g	.	.	.	.	.	.	.	.	.	.	.
.	.	.	.	8e	.	.	.	.	.	.	4c	4E	.	.	.
.	.	.	.	8g	.	.	.	.	.	.	.	.	.	.	.
=217	=217	=217	=217	=217	=217	=217	=217	=217	=217	=217	=217	=217	=217	=217	=217
2.r	2.r	2.r	8dd	8f	4B	4G	4GG	2.r	8dd	2.r	4r	4r	2.r	2.r	2.r
.	.	.	8cc	8g	.	.	.	.	8cc	.	.	.	.	.	.
.	.	.	8dd	8b	2r	2r	2r	.	8dd	.	4d	4B	.	.	.
.	.	.	8ee	8g	.	.	.	.	8ee	.	.	.	.	.	.
.	.	.	4dd	8f	.	.	.	.	4dd	.	4d	4B	.	.	.
.	.	.	.	8g	.	.	.	.	.	.	.	.	.	.	.
=218	=218	=218	=218	=218	=218	=218	=218	=218	=218	=218	=218	=218	=218	=218	=218
2.r	2.r	2.r	8ee	8e	4c	4c	4C	2.r	8ee	2.r	4r	4r	2.r	2.r	2.r
.	.	.	8ff	8f	.	.	.	.	8ff	.	.	.	.	.	.
.	.	.	8gg	8g	2r	2r	2r	.	8gg	.	4e	4c	.	.	.
.	.	.	8aa	8a	.	.	.	.	8aa	.	.	.	.	.	.
.	.	.	8bb	8b	.	.	.	.	8bb	.	4e	4c	.	.	.
.	.	.	8ccc	8cc	.	.	.	.	8ccc	.	.	.	.	.	.
=219	=219	=219	=219	=219	=219	=219	=219	=219	=219	=219	=219	=219	=219	=219	=219
2.r	2.r	2.r	8ccc	8cc	4B 4d	4G	4GG	2.r	8ccc	2.r	4r	4r	2.r	2.r	2.r
.	.	.	8bb	8b	.	.	.	.	8bb	.	.	.	.	.	.
.	.	.	8aa	8a	2r	2r	2r	.	8aa	.	4f	4d	.	.	.
.	.	.	8gg	8g	.	.	.	.	8gg	.	.	.	.	.	.
.	.	.	8ff	8f	.	.	.	.	8ff	.	4f	4d	.	.	.
.	.	.	8dd	8d	.	.	.	.	8dd	.	.	.	.	.	.
=220	=220	=220	=220	=220	=220	=220	=220	=220	=220	=220	=220	=220	=220	=220	=220
2.r	2.r	2.r	2.cc	8c	4c 4E	2.A	4AA	2.r	2.cc	2.r	4r	4r	2.r	2.r	2.r
.	.	.	.	8e	.	.	.	.	.	.	.	.	.	.	.
.	.	.	.	8a	2r	.	2r	.	.	.	4e	4c	.	.	.
.	.	.	.	8e	.	.	.	.	.	.	.	.	.	.	.
.	.	.	.	8c	.	.	.	.	.	.	4e	4c	.	.	.
.	.	.	.	8e	.	.	.	.	.	.	.	.	.	.	.
=221	=221	=221	=221	=221	=221	=221	=221	=221	=221	=221	=221	=221	=221	=221	=221
2.r	2.r	2.r	8ff	8f	4A 4F	4F	4FF	2.r	8ff	2.r	4r	4r	2.r	2.r	2.r
.	.	.	8ee	8e	.	.	.	.	8ee	.	.	.	.	.	.
.	.	.	8ff	8f	2r	2r	2r	.	8ff	.	4f	4A	.	.	.
.	.	.	8gg	8g	.	.	.	.	8gg	.	.	.	.	.	.
.	.	.	4aa	8a	.	.	.	.	4aa	.	4a	4f	.	.	.
.	.	.	.	8f	.	.	.	.	.	.	.	.	.	.	.
=222	=222	=222	=222	=222	=222	=222	=222	=222	=222	=222	=222	=222	=222	=222	=222
2.r	2.r	2.r	8gg	8e	4G	2.G	4GG	2.r	8gg	2.r	4g	4e	2.r	2.r	2.r
.	.	.	8ee	8g	.	.	.	.	8ee	.	.	.	.	.	.
.	.	.	8cc	8cc	2r	.	2r	.	8cc	.	4e	4c	.	.	.
.	.	.	8ee	8g	.	.	.	.	8ee	.	.	.	.	.	.
.	.	.	8dd	8f	.	.	.	.	8dd	.	4d	4B	.	.	.
.	.	.	8b	8d	.	.	.	.	8b	.	.	.	.	.	.
=223	=223	=223	=223	=223	=223	=223	=223	=223	=223	=223	=223	=223	=223	=223	=223
2.r	2.r	2.r	4cc	4c	4E 4c	8CC	4C	2.r	4cc	4cc	4c	4c	2.r	2.r	2.r
.	.	.	.	.	.	8EE	.	.	.	.	.	.	.	.	.
.	.	.	4r	4r	2r	8GG	2r	.	4r	4r	2r	2r	.	.	.
.	.	.	.	.	.	8C	.	.	.	.	.	.	.	.	.
.	.	.	8ee	8cc	.	4r	.	.	8ee	8cc	.	.	.	.	.
.	.	.	8dd	8b	.	.	.	.	8dd	8b	.	.	.	.	.
=224	=224	=224	=224	=224	=224	=224	=224	=224	=224	=224	=224	=224	=224	=224	=224
2.r	2.r	2.r	4dd	4b	4B 4D	8GG	4G	2.r	4dd	4b	2.r	2.r	2.r	2.r	2.r
.	.	.	.	.	.	8BB	.	.	.	.	.	.	.	.	.
.	.	.	4r	4r	2r	8D	2r	.	4r	4r	.	.	.	.	.
.	.	.	.	.	.	8G	.	.	.	.	.	.	.	.	.
.	.	.	8ff	8dd	.	4r	.	.	8ff	8dd	.	.	.	.	.
.	.	.	8ee	8cc	.	.	.	.	8ee	8cc	.	.	.	.	.
=225	=225	=225	=225	=225	=225	=225	=225	=225	=225	=225	=225	=225	=225	=225	=225
2.r	2.r	2.r	4ee	4cc	4c 4C	8C	4C	2.r	4ee	4cc	2.r	2.r	2.r	2.r	2.r
.	.	.	.	.	.	8E	.	.	.	.	.	.	.	.	.
.	.	.	4r	4r	2r	8G	4r	.	4r	2r	.	.	.	.	.
.	.	.	.	.	.	8c	.	.	.	.	.	.	.	.	.
.	.	.	8cc	4g	.	4E	4E	.	8cc	.	.	.	.	.	.
.	.	.	8ccc	.	.	.	.	.	8ccc	.	.	.	.	.	.
=226	=226	=226	=226	=226	=226	=226	=226	=226	=226	=226	=226	=226	=226	=226	=226
2.r	2.r	2.r	8bb	4a	2.r	4F	4F	2.r	8bb	2.r	2.r	2.r	2.r	2.r	2.r
.	.	.	8aa	.	.	.	.	.	8aa	.	.	.	.	.	.
.	.	.	8gg	4r	.	4r	4r	.	8gg	.	.	.	.	.	.
.	.	.	8ff	.	.	.	.	.	8ff	.	.	.	.	.	.
.	.	.	8ee	4f	.	4G	4G	.	8ee	.	.	.	.	.	.
.	.	.	8dd	.	.	.	.	.	8dd	.	.	.	.	.	.
=227	=227	=227	=227	=227	=227	=227	=227	=227	=227	=227	=227	=227	=227	=227	=227
2r	2.r	2.r	4cc	4e	8C	4C	4C	2r	4cc	2r	8CC	8CC	2.r	2.r	2.r
.	.	.	.	.	8E	.	.	.	.	.	8EE	8EE	.	.	.
.	.	.	4r	4r	8G	2r	2r	.	4r	.	8GG	8GG	.	.	.
.	.	.	.	.	8c	.	.	.	.	.	8C	8C	.	.	.
8ee	.	.	8ee	8cc	4r	.	.	8cc	8ee	8cc	4r	4r	.	.	.
8dd	.	.	8dd	8b	.	.	.	8b	8dd	8b	.	.	.	.	.
=228	=228	=228	=228	=228	=228	=228	=228	=228	=228	=228	=228	=228	=228	=228	=228
4dd	2.r	2.r	4dd	4b	8G	4G	4G	4b	4dd	4b	8GG	8GG	2.r	2.r	2.r
.	.	.	.	.	8B	.	.	.	.	.	8BB	8BB	.	.	.
4r	.	.	4r	4r	8d	2r	2r	4r	4r	4r	8D	8D	.	.	.
.	.	.	.	.	8g	.	.	.	.	.	8G	8G	.	.	.
8ff	.	.	8ff	8dd	4r	.	.	8dd	8ff	8dd	4r	4r	.	.	.
8ee	.	.	8ee	8cc	.	.	.	8cc	8ee	8cc	.	.	.	.	.
=229	=229	=229	=229	=229	=229	=229	=229	=229	=229	=229	=229	=229	=229	=229	=229
4ee	2.r	2.r	4ee	4cc	8c	4C	4C	4cc	4ee	4cc	8C	8C	2.r	2.r	2.r
.	.	.	.	.	8e	.	.	.	.	.	8E	8E	.	.	.
4r	.	.	4r	4r	8g	4r	4r	4r	4r	2r	8G	8G	.	.	.
.	.	.	.	.	8cc	.	.	.	.	.	8c	8c	.	.	.
8cc	.	.	8cc	4g	4e	4E	4E	8cc	8cc	.	4E	4E	.	.	.
8ccc	.	.	8ccc	.	.	.	.	8ccc	8ccc	.	.	.	.	.	.
=230	=230	=230	=230	=230	=230	=230	=230	=230	=230	=230	=230	=230	=230	=230	=230
8bb	2.r	2.r	8bb	4a	4f	4F	4F	8bb	8bb	2.r	4F	4F	2.r	2.r	2.r
8aa	.	.	8aa	.	.	.	.	8aa	8aa	.	.	.	.	.	.
8gg	.	.	8gg	4r	4r	4r	4r	8gg	8gg	.	4r	4r	.	.	.
8ff	.	.	8ff	.	.	.	.	8ff	8ff	.	.	.	.	.	.
8ee	.	.	8ee	4f	4g	4G	4G	8ee	8ee	.	4G	4G	.	.	.
8dd	.	.	8dd	.	.	.	.	8dd	8dd	.	.	.	.	.	.
=231	=231	=231	=231	=231	=231	=231	=231	=231	=231	=231	=231	=231	=231	=231	=231
12ccc	4e	4C	4cc	4e	4c	4C	4C	12ccc	12cc	2.r	12c	12c	4cc	4e	4cc
12eee	.	.	.	.	.	.	.	12eee	12ee	.	12e	12e	.	.	.
12ddd	.	.	.	.	.	.	.	12ddd	12dd	.	12d	12d	.	.	.
12ccc	2r	2r	2r	2r	2r	2r	2r	12ccc	12cc	.	12c	12c	2r	2r	2r
12bb	.	.	.	.	.	.	.	12bb	12b	.	12B	12B	.	.	.
12aa	.	.	.	.	.	.	.	12aa	12a	.	12A	12A	.	.	.
12gg	.	.	.	.	.	.	.	12gg	12g	.	12G	12G	.	.	.
12ff	.	.	.	.	.	.	.	12ff	12f	.	12F	12F	.	.	.
12ee	.	.	.	.	.	.	.	12ee	12e	.	12E	12E	.	.	.
=232	=232	=232	=232	=232	=232	=232	=232	=232	=232	=232	=232	=232	=232	=232	=232
12dd	2.r	2.r	12dd	12d	2.r	2.r	2.r	12dd	4d	2.r	4D	4D	2.r	2.r	2.r
12aa	.	.	12aa	12a	.	.	.	12aa	.	.	.	.	.	.	.
12gg	.	.	12gg	12g	.	.	.	12gg	.	.	.	.	.	.	.
12ff	.	.	12ff	12f	.	.	.	12ff	2r	.	2r	2r	.	.	.
12ee	.	.	12ee	12e	.	.	.	12ee	.	.	.	.	.	.	.
12dd	.	.	12dd	12d	.	.	.	12dd	.	.	.	.	.	.	.
12cc	.	.	12cc	12c	.	.	.	12cc	.	.	.	.	.	.	.
12b	.	.	12b	12B	.	.	.	12b	.	.	.	.	.	.	.
12a	.	.	12a	12A	.	.	.	12a	.	.	.	.	.	.	.
=233	=233	=233	=233	=233	=233	=233	=233	=233	=233	=233	=233	=233	=233	=233	=233
4g	2.g	4GG	12g	12G	12g	12G	12G	4g	12g	2.r	12G	12G	2.dd	2.g	2.dd
.	.	.	12dd	12dd	12dd	12d	12d	.	12dd	.	12d	12d	.	.	.
.	.	.	12cc	12cc	12cc	12c	12c	.	12cc	.	12c	12c	.	.	.
2r	.	8GG	12b	12b	12b	12B	12B	2r	12b	.	12B	12B	.	.	.
.	.	.	12a	12a	12a	12A	12A	.	12a	.	12A	12A	.	.	.
.	.	8GG	.	.	.	.	.	.	.	.	.	.	.	.	.
.	.	.	12g	12g	12g	12G	12G	.	12g	.	12G	12G	.	.	.
.	.	8GG	12f	12f	12f	12F	12F	.	12f	.	12F	12F	.	.	.
.	.	.	12e	12e	12e	12E	12E	.	12e	.	12E	12E	.	.	.
.	.	8GG	.	.	.	.	.	.	.	.	.	.	.	.	.
.	.	.	12d	12d	12d	12D	12D	.	12d	.	12D	12D	.	.	.
=234	=234	=234	=234	=234	=234	=234	=234	=234	=234	=234	=234	=234	=234	=234	=234
12cc	4cc	4C	12c	12c	12c	12C	12C	12cc	12c	2.r	12C	12C	4ee	4cc	4ee
12dd	.	.	12d	12d	12d	12D	12D	12dd	12d	.	12D	12D	.	.	.
12ee	.	.	12e	12e	12e	12E	12E	12ee	12e	.	12E	12E	.	.	.
4ff	2r	2r	12f	12f	12f	12F	12F	4ff	4f	.	12F	12F	2r	2r	2r
.	.	.	12e	12e	12e	12E	12E	.	.	.	12E	12E	.	.	.
.	.	.	12f	12f	12f	12F	12F	.	.	.	12F	12F	.	.	.
12dd	.	.	12d	12d	12d	12D	12D	12dd	12d	.	12D	12D	.	.	.
12ee	.	.	12e	12e	12e	12E	12E	12ee	12e	.	12E	12E	.	.	.
12ff	.	.	12f	12f	12f	12F	12F	12ff	12f	.	12F	12F	.	.	.
=235	=235	=235	=235	=235	=235	=235	=235	=235	=235	=235	=235	=235	=235	=235	=235
4gg	2.r	2.r	12g	12g	12g	12G	12G	4gg	4g	2.r	12G	12G	2.r	2.r	2.r
.	.	.	12f	12f	12f	12F	12F	.	.	.	12F	12F	.	.	.
.	.	.	12g	12g	12g	12G	12G	.	.	.	12G	12G	.	.	.
12ee	.	.	12e	12e	12e	12E	12E	12ee	12e	.	12E	12E	.	.	.
12ff	.	.	12f	12f	12f	12F	12F	12ff	12f	.	12F	12F	.	.	.
12gg	.	.	12g	12g	12g	12G	12G	12gg	12g	.	12G	12G	.	.	.
4aa	.	.	12a	12a	12a	12A	12A	4aa	4a	.	12A	12A	.	.	.
.	.	.	12g	12g	12g	12G	12G	.	.	.	12G	12G	.	.	.
.	.	.	12a	12a	12a	12A	12A	.	.	.	12A	12A	.	.	.
=236	=236	=236	=236	=236	=236	=236	=236	=236	=236	=236	=236	=236	=236	=236	=236
12b	2.r	2.r	12b	12b	12b	12B	12B	12b	12b	2.r	12B	12B	2.r	2.r	2.r
12a	.	.	12a	12a	12a	12A	12A	12a	12a	.	12A	12A	.	.	.
12b	.	.	12b	12b	12b	12B	12B	12b	12b	.	12B	12B	.	.	.
12cc	.	.	12cc	12cc	12cc	12c	12c	12cc	12cc	.	12c	12c	.	.	.
12b	.	.	12b	12b	12b	12B	12B	12b	12b	.	12B	12B	.	.	.
12cc	.	.	12cc	12cc	12cc	12c	12c	12cc	12cc	.	12c	12c	.	.	.
12dd	.	.	12dd	12dd	12dd	12d	12d	12dd	12dd	.	12d	12d	.	.	.
12cc	.	.	12cc	12cc	12cc	12c	12c	12cc	12cc	.	12c	12c	.	.	.
12dd	.	.	12dd	12dd	12dd	12d	12d	12dd	12dd	.	12d	12d	.	.	.
=237	=237	=237	=237	=237	=237	=237	=237	=237	=237	=237	=237	=237	=237	=237	=237
4ee	2.r	2.r	4ee	4ee	4ee	4e	4e	4ee	4ee	2.r	4e	4e	2.r	2.r	2.r
4ff	.	.	4ff	4ff	4ff	4f	4f	4ff	4ff	.	4f	4f	.	.	.
4ff#	.	.	4ff#	4ff#	4ff#	4f#	4f#	4ff#	4ff#	.	4f#	4f#	.	.	.
=238	=238	=238	=238	=238	=238	=238	=238	=238	=238	=238	=238	=238	=238	=238	=238
4gg	2.r	2.r	4gg	4gg	4gg	4g	4g	4gg	4gg	2.r	4g	4g	2.r	2.r	2.r
4gg#	.	.	4gg#	4gg#	4gg#	4g#	4g#	4gg#	4gg#	.	4g#	4g#	.	.	.
4r	.	.	4r	4r	4r	4r	4r	4r	4r	.	4r	4r	.	.	.
=239	=239	=239	=239	=239	=239	=239	=239	=239	=239	=239	=239	=239	=239	=239	=239
2.r	2.r	2.r	2.r	2.r	2.r	2.r	2.r	2.r	2.r	2.r	2.r	2.r	2.r	2.r	2.r
=240	=240	=240	=240	=240	=240	=240	=240	=240	=240	=240	=240	=240	=240	=240	=240
2.r	2.r	2.r	[2.aa	4r	4r	4r	2.r	2.r	2.r	2.r	2.r	2.r	2.r	2.r	2.r
.	.	.	.	4ee-	4cc	4f#	.	.	.	.	.	.	.	.	.
.	.	.	.	4ee-	4cc	4f#	.	.	.	.	.	.	.	.	.
=241	=241	=241	=241	=241	=241	=241	=241	=241	=241	=241	=241	=241	=241	=241	=241
2.r	2.r	2.r	4aa]	2.ee-	[2.cc	2.f#	2.r	2.r	2.r	2.r	2.r	2.r	2.r	2.r	2.r
.	.	.	4bb	.	.	.	.	.	.	.	.	.	.	.	.
.	.	.	4ccc	.	.	.	.	.	.	.	.	.	.	.	.
=242	=242	=242	=242	=242	=242	=242	=242	=242	=242	=242	=242	=242	=242	=242	=242
2.r	2.r	2.r	[2.gg	4ee	4cc]	2.g	2.r	2.r	2.r	2.r	2.r	2.r	2.r	2.r	2.r
.	.	.	.	4ee	4cc	.	.	.	.	.	.	.	.	.	.
.	.	.	.	4ee	4cc	.	.	.	.	.	.	.	.	.	.
=243	=243	=243	=243	=243	=243	=243	=243	=243	=243	=243	=243	=243	=243	=243	=243
2.r	2.r	2.r	4gg]	2dd	2.b	2.G	2.r	2.r	2.r	2.r	2.r	2.r	2.r	2.r	2.r
.	.	.	4ff	.	.	.	.	.	.	.	.	.	.	.	.
.	.	.	4dd	4f	.	.	.	.	.	.	.	.	.	.	.
=244	=244	=244	=244	=244	=244	=244	=244	=244	=244	=244	=244	=244	=244	=244	=244
2.r	2.r	2.r	4cc	4e	4cc	4c	2.r	2.r	2.r	2.r	2.r	2.r	2.r	2.r	2.r
.	.	.	2r	4cc	2r	2r	.	.	.	.	.	.	.	.	.
.	.	.	.	4cc	.	.	.	.	.	.	.	.	.	.	.
=245	=245	=245	=245	=245	=245	=245	=245	=245	=245	=245	=245	=245	=245	=245	=245
2.r	2.r	2.r	2.r	4cc	2.r	2.r	2.r	2.r	2.r	2.r	2.r	2.r	2.r	2.r	2.r
.	.	.	.	4cc	.	.	.	.	.	.	.	.	.	.	.
.	.	.	.	4cc	.	.	.	.	.	.	.	.	.	.	.
=246	=246	=246	=246	=246	=246	=246	=246	=246	=246	=246	=246	=246	=246	=246	=246
2.r	2.r	2.r	[2.cc	4cc	4r	4r	4r	2.r	2.r	2.r	2.r	2.r	2.r	2.r	2.r
.	.	.	.	4f#	4e-	4A	4A	.	.	.	.	.	.	.	.
.	.	.	.	4f#	4e-	4A	4A	.	.	.	.	.	.	.	.
=247	=247	=247	=247	=247	=247	=247	=247	=247	=247	=247	=247	=247	=247	=247	=247
2.r	2.r	2.r	4cc]	2.f#	2.e-	2.A	2.A	2.r	2.r	2.r	2.r	2.r	2.r	2.r	2.r
.	.	.	4dd	.	.	.	.	.	.	.	.	.	.	.	.
.	.	.	4ee-	.	.	.	.	.	.	.	.	.	.	.	.
=248	=248	=248	=248	=248	=248	=248	=248	=248	=248	=248	=248	=248	=248	=248	=248
2.r	2.r	2.r	[2.b-	4g	4e-	4B-	4B-	2.r	2.r	2.r	2.r	2.r	2.r	2.r	2.r
.	.	.	.	4g	4e-	4B-	4B-	.	.	.	.	.	.	.	.
.	.	.	.	4g	4e-	4B-	4B-	.	.	.	.	.	.	.	.
=249	=249	=249	=249	=249	=249	=249	=249	=249	=249	=249	=249	=249	=249	=249	=249
2.r	2.r	2.r	4b-]	2f	2.d	2.BB-	2.BB-	2.r	2.r	2.r	2.r	2.r	2.r	2.r	2.r
.	.	.	4a-	.	.	.	.	.	.	.	.	.	.	.	.
.	.	.	4f	4A-	.	.	.	.	.	.	.	.	.	.	.
=250	=250	=250	=250	=250	=250	=250	=250	=250	=250	=250	=250	=250	=250	=250	=250
2.r	2.r	2.r	4e-	4G	4e-	[2.E-	4EE-	2.r	2.r	2.r	2.r	2.r	2.r	2.r	2.r
.	.	.	4g	4e-	2r	.	2r	.	.	.	.	.	.	.	.
.	.	.	4a-	4f	.	.	.	.	.	.	.	.	.	.	.
=251	=251	=251	=251	=251	=251	=251	=251	=251	=251	=251	=251	=251	=251	=251	=251
2.r	2.r	2.r	4b-	4g	2.r	4E-]	4E-	2.r	2.r	2.r	2.r	2.r	2.r	2.r	2.r
.	.	.	2r	2r	.	4D-	4D-	.	.	.	.	.	.	.	.
.	.	.	.	.	.	4BB-	4BB-	.	.	.	.	.	.	.	.
=252	=252	=252	=252	=252	=252	=252	=252	=252	=252	=252	=252	=252	=252	=252	=252
2.r	2.r	2.r	4r	4r	2.r	[2.AA-	[2.AA-	2.r	2.r	2.r	2.r	2.r	2.r	2.r	2.r
.	.	.	4cc	4a-	.	.	.	.	.	.	.	.	.	.	.
.	.	.	4dd-	4b-	.	.	.	.	.	.	.	.	.	.	.
=253	=253	=253	=253	=253	=253	=253	=253	=253	=253	=253	=253	=253	=253	=253	=253
2.r	2.r	2.r	4ee-	4cc	2.r	4AA-]	4AA-]	2.r	2.r	2.r	2.r	2.r	2.r	2.r	2.r
.	.	.	2r	2r	.	4GG-	4GG-	.	.	.	.	.	.	.	.
.	.	.	.	.	.	4EE-	4EE-	.	.	.	.	.	.	.	.
=254	=254	=254	=254	=254	=254	=254	=254	=254	=254	=254	=254	=254	=254	=254	=254
2.r	2.r	2.r	[2.ff	[2.dd-	4r	4DD-	4DD-	2.r	2.r	2.r	2.r	2.r	2.r	2.r	2.r
.	.	.	.	.	4f	2r	2r	.	.	.	.	.	.	.	.
.	.	.	.	.	4g	.	.	.	.	.	.	.	.	.	.
=255	=255	=255	=255	=255	=255	=255	=255	=255	=255	=255	=255	=255	=255	=255	=255
2.r	2.r	2.r	4ff]	4dd-]	4a-	2.r	2.r	2.r	2.r	2.r	2.r	2.r	2.r	2.r	2.r
.	.	.	4ee-	4cc	2r	.	.	.	.	.	.	.	.	.	.
.	.	.	4cc	4a-	.	.	.	.	.	.	.	.	.	.	.
=256	=256	=256	=256	=256	=256	=256	=256	=256	=256	=256	=256	=256	=256	=256	=256
2.r	2.r	2.r	[2.dd-	[2.b-	4r	2.r	2.r	2.r	2.r	2.r	2.r	2.r	2.r	2.r	2.r
.	.	.	.	.	4g	.	.	.	.	.	.	.	.	.	.
.	.	.	.	.	4e	.	.	.	.	.	.	.	.	.	.
=257	=257	=257	=257	=257	=257	=257	=257	=257	=257	=257	=257	=257	=257	=257	=257
2.r	2.r	2.r	4dd-]	4b-]	4f	2.r	2.r	2.r	2.r	2.r	2.r	2.r	2.r	2.r	2.r
.	.	.	4cc	4a-	2r	.	.	.	.	.	.	.	.	.	.
.	.	.	4a-	4f	.	.	.	.	.	.	.	.	.	.	.
=258	=258	=258	=258	=258	=258	=258	=258	=258	=258	=258	=258	=258	=258	=258	=258
2.r	2.r	2.r	[2.b-	[2.g	4r	2.r	2.r	2.r	[2.bb-	[2.gg	2.r	2.r	2.r	2.r	2.r
.	.	.	.	.	4c	.	.	.	.	.	.	.	.	.	.
.	.	.	.	.	4e	.	.	.	.	.	.	.	.	.	.
=259	=259	=259	=259	=259	=259	=259	=259	=259	=259	=259	=259	=259	=259	=259	=259
2.r	2.r	2.r	4b-]	4g]	2f	2.r	2.r	2.r	4bb-]	4gg]	2.r	2.r	2.r	2.r	2.r
.	.	.	4a-	4f	.	.	.	.	4aa-	4ff	.	.	.	.	.
.	.	.	[4gg	[4ee-	4g	.	.	.	[4gg	[4ee-	.	.	.	.	.
=260	=260	=260	=260	=260	=260	=260	=260	=260	=260	=260	=260	=260	=260	=260	=260
2.r	2.r	2.r	4gg]	4ee-]	2a-	2.r	2.r	2.r	4gg]	4ee-]	2.r	2.r	2.r	2.r	2.r
.	.	.	4ff	4dd	.	.	.	.	4ff	4dd	.	.	.	.	.
.	.	.	4ee-	4cc	4f#	.	.	.	4ee-	4cc	.	.	.	.	.
=261	=261	=261	=261	=261	=261	=261	=261	=261	=261	=261	=261	=261	=261	=261	=261
2.r	2.r	2.r	4dd	4b	4g	[2.G	[2.G	2.r	4dd	4b	2.r	2.r	2.r	2.r	2.r
.	.	.	4gg	2r	2r	.	.	.	2r	2r	.	.	.	.	.
.	.	.	4gg	.	.	.	.	.	.	.	.	.	.	.	.
=262	=262	=262	=262	=262	=262	=262	=262	=262	=262	=262	=262	=262	=262	=262	=262
2.r	2.r	2.r	4gg#	4r	4r	2.G_	2.G_	2.r	2.r	2.r	4r	4r	2.r	2.r	2.r
.	.	.	4aa	4e	4c#	.	.	.	.	.	4e	4c#	.	.	.
.	.	.	4r	4e	4c#	.	.	.	.	.	4e	4c#	.	.	.
=263	=263	=263	=263	=263	=263	=263	=263	=263	=263	=263	=263	=263	=263	=263	=263
2.r	2.r	2.r	4r	4e	4c#	2.G_	2.G_	2.r	2.r	2.r	4e	4c#	2.r	2.r	2.r
.	.	.	4ff	4f	4d	.	.	.	.	.	4f	4d	.	.	.
.	.	.	4ff	4r	4r	.	.	.	.	.	4r	4r	.	.	.
=264	=264	=264	=264	=264	=264	=264	=264	=264	=264	=264	=264	=264	=264	=264	=264
2.r	2.r	2.r	4ff#	4r	4r	2.G_	2.G_	2.r	2.r	2.r	4r	4r	2.r	2.r	2.r
.	.	.	4gg	4d	4B	.	.	.	.	.	4d	4B	.	.	.
.	.	.	4r	4d	4B	.	.	.	.	.	4d	4B	.	.	.
=265	=265	=265	=265	=265	=265	=265	=265	=265	=265	=265	=265	=265	=265	=265	=265
2.r	2.r	2.r	4r	4d#	4B	2.G_	2.G_	2.r	2.r	2.r	4d#	4B	2.r	2.r	2.r
.	.	.	4ee	4e	4c	.	.	.	.	.	4e	4c	.	.	.
.	.	.	4ee	4r	4r	.	.	.	.	.	4r	4r	.	.	.
=266	=266	=266	=266	=266	=266	=266	=266	=266	=266	=266	=266	=266	=266	=266	=266
2.r	2.r	2.r	4gg	4r	4r	2.G]	2.G]	2.r	2.r	2.r	4r	4r	2.r	2.r	2.r
.	.	.	4ff#	4c	4A	.	.	.	.	.	4c	4A	.	.	.
.	.	.	4r	4c	4A	.	.	.	.	.	4c	4A	.	.	.
=267	=267	=267	=267	=267	=267	=267	=267	=267	=267	=267	=267	=267	=267	=267	=267
2.r	2.r	2.r	4aa	4r	4r	2.G	2.G	2.r	2.r	2.r	4r	4r	2.r	2.r	2.r
.	.	.	4gg	4d	4B	.	.	.	.	.	4d	4B	.	.	.
.	.	.	4ff	4d	4B	.	.	.	.	.	4d	4B	.	.	.
=268	=268	=268	=268	=268	=268	=268	=268	=268	=268	=268	=268	=268	=268	=268	=268
4ee	2.c	4C	8r	8e	8r	2.c	2.c	4ee	4ee	4ee	2.c	2.c	2.cc	2.c	2.cc
.	.	.	8ee	8ee	8e	.	.	.	.	.	.	.	.	.	.
8ff	.	2r	8ff	8ff	8f	.	.	8ff	8ff	8ff	.	.	.	.	.
8gg	.	.	8gg	8gg	8g	.	.	8gg	8gg	8gg	.	.	.	.	.
8aa	.	.	8aa	8aa	8a	.	.	8aa	8aa	8aa	.	.	.	.	.
8bb	.	.	8bb	8bb	8b	.	.	8bb	8bb	8bb	.	.	.	.	.
=269	=269	=269	=269	=269	=269	=269	=269	=269	=269	=269	=269	=269	=269	=269	=269
8ccc	2.r	2.r	8ccc	8ccc	8cc	4A	4A	8ccc	4ccc	4ccc	4A	4A	2.r	2.r	2.r
16ccc	.	.	16ccc	16ccc	16cc	.	.	16ccc	.	.	.	.	.	.	.
16bb	.	.	16bb	16bb	16b	.	.	16bb	.	.	.	.	.	.	.
8aa	.	.	8aa	8aa	8a	4F	4F	8aa	4aa	4aa	4F	4F	.	.	.
16aa	.	.	16aa	16aa	16a	.	.	16aa	.	.	.	.	.	.	.
16gg	.	.	16gg	16gg	16g	.	.	16gg	.	.	.	.	.	.	.
8ff	.	.	8ff	8ff	8f	4D	4D	8ff	4ff	4ff	4D	4D	.	.	.
16ff	.	.	16ff	16ff	16f	.	.	16ff	.	.	.	.	.	.	.
16ee	.	.	16ee	16ee	16e	.	.	16ee	.	.	.	.	.	.	.
=270	=270	=270	=270	=270	=270	=270	=270	=270	=270	=270	=270	=270	=270	=270	=270
8dd	2.r	2.r	8dd	8dd	8d	2.B-	2.B-	8dd	4dd	4dd	2.B-	2.B-	2.r	2.r	2.r
8dd	.	.	8dd	8dd	8d	.	.	8dd	.	.	.	.	.	.	.
8ee	.	.	8ee	8ee	8e	.	.	8ee	8ee	8ee	.	.	.	.	.
8ff	.	.	8ff	8ff	8f	.	.	8ff	8ff	8ff	.	.	.	.	.
8gg	.	.	8gg	8gg	8g	.	.	8gg	8gg	8gg	.	.	.	.	.
8aa	.	.	8aa	8aa	8a	.	.	8aa	8aa	8aa	.	.	.	.	.
=271	=271	=271	=271	=271	=271	=271	=271	=271	=271	=271	=271	=271	=271	=271	=271
8bb-	2.r	2.r	8bb-	8bb-	8b-	4G	4G	8bb-	4bb-	4bb-	4G	4G	2.r	2.r	2.r
16bb-	.	.	16bb-	16bb-	16b-	.	.	16bb-	.	.	.	.	.	.	.
16aa	.	.	16aa	16aa	16a	.	.	16aa	.	.	.	.	.	.	.
8gg	.	.	8gg	16gg	8g	4E	4E	8gg	4gg	4gg	4E	4E	.	.	.
.	.	.	.	16aa	.	.	.	.	.	.	.	.	.	.	.
16gg	.	.	16gg	16gg	16g	.	.	16gg	.	.	.	.	.	.	.
16ff	.	.	16ff	16ff	16f	.	.	16ff	.	.	.	.	.	.	.
8ee	.	.	8ee	8ee	8e	4C#	4C#	8ee	4ee	4ee	4C#	4C#	.	.	.
16ee	.	.	16ee	16ee	16e	.	.	16ee	.	.	.	.	.	.	.
16dd	.	.	16dd	16dd	16d	.	.	16dd	.	.	.	.	.	.	.
=272	=272	=272	=272	=272	=272	=272	=272	=272	=272	=272	=272	=272	=272	=272	=272
8cc#	2.r	2.r	8cc#	8cc#	8c#	4A	4A	8cc#	8cc#	8cc#	4A	4A	2.r	2.r	2.r
16aa	.	.	16aa	16aa	16a	.	.	16aa	16aa	16aa	.	.	.	.	.
16gg	.	.	16gg	16gg	16g	.	.	16gg	16gg	16gg	.	.	.	.	.
8ff	.	.	8ff	8ff	8f	4D	4D	8ff	8ff	8ff	4D	4D	.	.	.
16ff	.	.	16ff	16ff	16f	.	.	16ff	16ff	16ff	.	.	.	.	.
16ee	.	.	16ee	16ee	16e	.	.	16ee	16ee	16ee	.	.	.	.	.
8dd	.	.	8dd	8dd	8d	4F	4F	8dd	8dd	8dd	4F	4F	.	.	.
16dd	.	.	16dd	16dd	16d	.	.	16dd	16dd	16dd	.	.	.	.	.
16cc	.	.	16cc	16cc	16c	.	.	16cc	16cc	16cc	.	.	.	.	.
=273	=273	=273	=273	=273	=273	=273	=273	=273	=273	=273	=273	=273	=273	=273	=273
8b	2.r	2.r	8b	8b	8B	4G	4G	8b	8b	8b	4G	4G	2.r	2.r	2.r
16gg	.	.	16gg	16gg	16g	.	.	16gg	16gg	16gg	.	.	.	.	.
16ff	.	.	16ff	16ff	16f	.	.	16ff	16ff	16ff	.	.	.	.	.
8ee	.	.	8ee	8ee	8e	4C	4C	8ee	8ee	8ee	4C	4C	.	.	.
16ee	.	.	16ee	16ee	16e	.	.	16ee	16ee	16ee	.	.	.	.	.
16dd	.	.	16dd	16dd	16d	.	.	16dd	16dd	16dd	.	.	.	.	.
8cc	.	.	8cc	8cc	8c	4E	4E	8cc	8cc	8cc	4E	4E	.	.	.
16cc	.	.	16cc	16cc	16c	.	.	16cc	16cc	16cc	.	.	.	.	.
16b	.	.	16b	16b	16B	.	.	16b	16b	16b	.	.	.	.	.
=274	=274	=274	=274	=274	=274	=274	=274	=274	=274	=274	=274	=274	=274	=274	=274
8a	2.r	2.r	8a	8a	8A	8F	8F	8a	8a	8a	8F	8F	2.r	2.r	2.r
16cc	.	.	16cc	16cc	16cc	16c	16c	16cc	16cc	16cc	16c	16c	.	.	.
16b	.	.	16b	16b	16b	16B	16B	16b	16b	16b	16B	16B	.	.	.
8a	.	.	8a	8a	8a	8A	8A	8a	8a	8a	8A	8A	.	.	.
16a	.	.	16a	16a	16a	16A	16A	16a	16a	16a	16A	16A	.	.	.
16g	.	.	16g	16g	16g	16G	16G	16g	16g	16g	16G	16G	.	.	.
8f	.	.	8f	8f	8f	8F	8F	8f	8f	8f	8F	8F	.	.	.
16f	.	.	16f	16f	16f	16F	16F	16f	16f	16f	16F	16F	.	.	.
16e	.	.	16e	16e	16e	16E	16E	16e	16e	16e	16E	16E	.	.	.
=275	=275	=275	=275	=275	=275	=275	=275	=275	=275	=275	=275	=275	=275	=275	=275
4d	2.r	2.r	8d	8d	8d	8D	8D	4d	4d	4d	8D	8D	2.r	2.r	2.r
.	.	.	16f	16f	16f	16F	16F	.	.	.	16F	16F	.	.	.
.	.	.	16e	16e	16e	16E	16E	.	.	.	16E	16E	.	.	.
4dd	.	.	8d	8d	8d	8D	8D	4dd	4dd	4dd	8D	8D	.	.	.
.	.	.	16d	16d	16d	16D	16D	.	.	.	16D	16D	.	.	.
.	.	.	16c	16c	16c	16C	16C	.	.	.	16C	16C	.	.	.
4b	.	.	8B	8B	8B	8BB	8BB	4b	4b	4b	8BB	8BB	.	.	.
.	.	.	16B	16B	16B	16BB	16BB	.	.	.	16BB	16BB	.	.	.
.	.	.	16A	16A	16A	16AA	16AA	.	.	.	16AA	16AA	.	.	.
=276	=276	=276	=276	=276	=276	=276	=276	=276	=276	=276	=276	=276	=276	=276	=276
4g	2g	4GG	4G	4G	4G	4GG	4GG	4g	4g	4g	4GG	4GG	2dd	2g	2dd
4bb	.	8GG	4bb	4dd 4g	4f	4F	4F	4bb	4bb	4dd	4F	4F	.	.	.
.	.	8GG	.	.	.	.	.	.	.	.	.	.	.	.	.
4ccc	4cc	4C	4ccc	4cc 4g	4e	4E	4E	4ccc	4ccc	4gg	4E	4E	4ee	4cc	4ee
=277	=277	=277	=277	=277	=277	=277	=277	=277	=277	=277	=277	=277	=277	=277	=277
4aa	4dd	2.r	4aa	4aa 4f 4cc	4f	4F	4F	4aa	4aa	4ff	4F	4F	4ff	4dd	4ff
2r	2r	.	2r	2r	2r	2r	2r	2r	2r	2r	2r	2r	2r	2r	2r
=278	=278	=278	=278	=278	=278	=278	=278	=278	=278	=278	=278	=278	=278	=278	=278
4b	4g	4GG	4d 4b	4d 4b	4g	4G	4G	4b	4b	4dd	4G	4G	4dd	4g	4dd
2r	2r	2r	2r	2r	2r	2r	2r	2r	2r	2r	2r	2r	2r	2r	2r
=279	=279	=279	=279	=279	=279	=279	=279	=279	=279	=279	=279	=279	=279	=279	=279
2.ccc	2.cc	4C	2.cc	2.cc	2.cc	2.c	2.c	2.ccc	2.ccc	2.ccc	2.c	2.c	2.cc	2.cc	2.cc
.	.	2r	.	.	.	.	.	.	.	.	.	.	.	.	.
=280	=280	=280	=280	=280	=280	=280	=280	=280	=280	=280	=280	=280	=280	=280	=280
2gg	2g	4GG	2g	2g	2g	2G	2G	2gg	2gg	2gg	2G	2G	2g	2g	2g
.	.	2r	.	.	.	.	.	.	.	.	.	.	.	.	.
4ee	4e	.	4e	4e	4e	4E	4E	4ee	4ee	4ee	4E	4E	4e	4e	4e
=281	=281	=281	=281	=281	=281	=281	=281	=281	=281	=281	=281	=281	=281	=281	=281
4cc	4c	4C	4c	4c	4c	4C	4C	4cc	4cc	4cc	4C	4C	4c	4c	4c
4r	4r	4r	4r	4r	4r	4r	4r	4r	4r	4r	4r	4r	4r	4r	4r
8.g	8.G	8.GG	8.G	8.G	8.G	8.GG	8.GG	8.g	8.g	8.g	8.GG	8.GG	8.g	8.G	8.g
16g	16G	16GG	16G	16G	16G	16GG	16GG	16g	16g	16g	16GG	16GG	16g	16G	16g
=282	=282	=282	=282	=282	=282	=282	=282	=282	=282	=282	=282	=282	=282	=282	=282
4cc	4c	4C	4c	4c	4c	4C	4C	4cc	4cc	4cc	4C	4C	4cc	4c	4cc
4r	4r	4r	4r	4r	4r	4r	4r	4r	4r	4r	4r	4r	4r	4r	4r
8.g	8.G	8.GG	8.G	8.G	8.G	8.GG	8.GG	8.g	8.g	8.g	8.GG	8.GG	8.g	8.G	8.g
16g	16G	16GG	16G	16G	16G	16GG	16GG	16g	16g	16g	16GG	16GG	16g	16G	16g
=283	=283	=283	=283	=283	=283	=283	=283	=283	=283	=283	=283	=283	=283	=283	=283
4cc	4c	4C	4c	4c	4c	4C	4C	4cc	4cc	4cc	4C	4C	4cc	4c	4cc
4r	4r	4r	4r	4r	4r	4r	4r	4r	4r	4r	4r	4r	4r	4r	4r
8.g	8.G	8.GG	8.G	8.G	8.G	8.GG	8.GG	8.g	8.g	8.g	8.GG	8.GG	8.g	8.G	8.g
16g	16G	16GG	16G	16G	16G	16GG	16GG	16g	16g	16g	16GG	16GG	16g	16G	16g
=284	=284	=284	=284	=284	=284	=284	=284	=284	=284	=284	=284	=284	=284	=284	=284
8cc	8c	8C	8c	8c	8c	8C	8C	8cc	8cc	8cc	8C	8C	8cc	8c	8cc
8g	8G	8GG	8G	8G	8G	8GG	8GG	8g	8g	8g	8GG	8GG	8g	8G	8g
8cc	8c	8C	8c	8c	8c	8C	8C	8cc	8cc	8cc	8C	8C	8cc	8c	8cc
8g	8G	8GG	8G	8G	8G	8GG	8GG	8g	8g	8g	8GG	8GG	8g	8G	8g
8cc	8c	8C	8c	8c	8c	8C	8C	8cc	8cc	8cc	8C	8C	8cc	8c	8cc
8g	8G	8GG	8G	8G	8G	8GG	8GG	8g	8g	8g	8GG	8GG	8g	8G	8g
=285	=285	=285	=285	=285	=285	=285	=285	=285	=285	=285	=285	=285	=285	=285	=285
8cc	8c	8C	8c	8c	8c	8C	8C	8cc	8cc	8cc	8C	8C	8cc	8c	8cc
8g	8G	8GG	8G	8G	8G	8GG	8GG	8g	8g	8g	8GG	8GG	8g	8G	8g
8cc	8c	8C	8c	8c	8c	8C	8C	8cc	8cc	8cc	8C	8C	8cc	8c	8cc
8g	8G	8GG	8G	8G	8G	8GG	8GG	8g	8g	8g	8GG	8GG	8g	8G	8g
8cc	8c	8C	8c	8c	8c	8C	8C	8cc	8cc	8cc	8C	8C	8cc	8c	8cc
8g	8G	8GG	8G	8G	8G	8GG	8GG	8g	8g	8g	8GG	8GG	8g	8G	8g
=286	=286	=286	=286	=286	=286	=286	=286	=286	=286	=286	=286	=286	=286	=286	=286
4cc	2c	4C	12c	12c	4c	4C	4C	4cc	4cc	4cc	4C	4C	2cc	2c	2cc
.	.	.	12c	12c	.	.	.	.	.	.	.	.	.	.	.
.	.	.	12c	12c	.	.	.	.	.	.	.	.	.	.	.
4ee	.	4C	12e	12e	4e	4E	4E	4ee	4ee	4ee	4E	4E	.	.	.
.	.	.	12e	12e	.	.	.	.	.	.	.	.	.	.	.
.	.	.	12e	12e	.	.	.	.	.	.	.	.	.	.	.
4gg	4r	4C	12g	12g	4g	4G	4G	4gg	4gg	4gg	4G	4G	4r	4r	4r
.	.	.	12g	12g	.	.	.	.	.	.	.	.	.	.	.
.	.	.	12g	12g	.	.	.	.	.	.	.	.	.	.	.
=287	=287	=287	=287	=287	=287	=287	=287	=287	=287	=287	=287	=287	=287	=287	=287
4cc	2.r	4C	12cc	12cc	4cc	4c	4c	4cc	4cc	4cc	4c	4c	2.r	2.r	2.r
.	.	.	12cc	12cc	.	.	.	.	.	.	.	.	.	.	.
.	.	.	12cc	12cc	.	.	.	.	.	.	.	.	.	.	.
4ee	.	4C	12ee	12ee	4g	4G	4G	4ee	4ee	4ee	4G	4G	.	.	.
.	.	.	12ee	12ee	.	.	.	.	.	.	.	.	.	.	.
.	.	.	12ee	12ee	.	.	.	.	.	.	.	.	.	.	.
4gg	.	4C	12gg	12gg	4e	4E	4E	4gg	4gg	4gg	4E	4E	.	.	.
.	.	.	12gg	12gg	.	.	.	.	.	.	.	.	.	.	.
.	.	.	12gg	12gg	.	.	.	.	.	.	.	.	.	.	.
=288	=288	=288	=288	=288	=288	=288	=288	=288	=288	=288	=288	=288	=288	=288	=288
4ccc	8cc	8C	4ccc	4ee	4c	4C	4C	4ccc	4ccc	4ccc	4C	4C	8cc	8cc	8cc
.	8g	8GG	.	.	.	.	.	.	.	.	.	.	8g	8g	8g
4r	8cc	8C	4r	4r	4r	4r	4r	4r	4r	4r	4r	4r	8cc	8cc	8cc
.	8g	8GG	.	.	.	.	.	.	.	.	.	.	8g	8g	8g
4eee	8cc	8C	4eee	4gg	4c	4C	4C	4eee	4eee	4gg	4C	4C	8cc	8cc	8cc
.	8g	8GG	.	.	.	.	.	.	.	.	.	.	8g	8g	8g
=289	=289	=289	=289	=289	=289	=289	=289	=289	=289	=289	=289	=289	=289	=289	=289
4ccc	8cc	8C	4ccc	4ee	4cc	4c	4c	4ccc	4ccc	4ee	4c	4c	8cc	8cc	8cc
.	8g	8GG	.	.	.	.	.	.	.	.	.	.	8g	8g	8g
4r	8cc	8C	4r	4r	4r	4r	4r	4r	4r	4r	4r	4r	8cc	8cc	8cc
.	8g	8GG	.	.	.	.	.	.	.	.	.	.	8g	8g	8g
4gg	8cc	8C	4gg	4ee	4c	4C	4C	4gg	4gg	4ee	4C	4C	8cc	8cc	8cc
.	8g	8GG	.	.	.	.	.	.	.	.	.	.	8g	8g	8g
=290	=290	=290	=290	=290	=290	=290	=290	=290	=290	=290	=290	=290	=290	=290	=290
4ee	4cc	4C	4ee	4cc	4cc	4c	4c	4ee	4ee	4cc	4c	4c	4cc	4cc	4cc
4cc	4e	4C	4e 4cc	4e 4cc	4c	4C	4C	4cc	4cc	4e	4C	4C	4cc	4e	4cc
4cc	4e	4C	4cc 4e	4e 4cc	4c	4C	4C	4cc	4cc	4e	4C	4C	4cc	4e	4cc
=291	=291	=291	=291	=291	=291	=291	=291	=291	=291	=291	=291	=291	=291	=291	=291
4cc	4e	4C	4cc 4e	4cc 4e	4c	4C	4C	4cc	4cc	4e	4C	4C	4cc	4e	4cc
2r	2r	2r	2r	2r	2r	2r	2r	2r	2r	2r	2r	2r	2r	2r	2r
=292	=292	=292	=292	=292	=292	=292	=292	=292	=292	=292	=292	=292	=292	=292	=292
4ccc	4e	4C	4ccc 4ee	4ee 4ccc	4c	4C	4C	4ccc	4ccc	4ee	4C	4C	4cc	4e	4cc
2r	2r	2r	2r	2r	2r	2r	2r	2r	2r	2r	2r	2r	2r	2r	2r
=293	=293	=293	=293	=293	=293	=293	=293	=293	=293	=293	=293	=293	=293	=293	=293
4ccc	4e	4C	4e 4cc 4G	4G 4cc 4e	4c	4C	4C	4ccc	4ccc	4ee	4C	4C	4cc	4e	4cc
2r	2r	2r	2r	2r	2r	2r	2r	2r	2r	2r	2r	2r	2r	2r	2r
==	==	==	==	==	==	==	==	==	==	==	==	==	==	==	==
*-	*-	*-	*-	*-	*-	*-	*-	*-	*-	*-	*-	*-	*-	*-	*-
!!!RWG1: This file contains only pitch and duration data.
!!!RWG2: Transposing instruments are not transposed.
!!!RWG3: Spines may have incompatible meters.
!!!RWG4: Durations of rests and tied notes may be interpreted.
!!!RWG: Key is interpreted using the Humdrum key tool.
!!!AFT: stage1
!!!END: 1997/04/15
!!format changes:
!!content changes:
!!public access: complete
!!!KEY: 1740798199
!!!EMD: Converted from MuseData to Humdrum Dec 16, 2000, by Andreas Kornstaedt using muse2kern.
